; generated by PrusaSlicer 2.7.2 on 2025-05-14 at 10:23:04 UTC


;
;
; 

; external perimeters extrusion width = 1.00mm
; perimeters extrusion width = 1.00mm
; infill extrusion width = 0.90mm
; solid infill extrusion width = 0.90mm
; top infill extrusion width = 0.80mm
; first layer extrusion width = 0.90mm

M73 P0 R123
M73 Q0 S124
M201 X1000 Y1000 Z200 E5000 ; sets maximum accelerations, mm/sec^2
M203 X200 Y200 Z12 E120 ; sets maximum feedrates, mm / sec
M204 S1250 T1250 ; sets acceleration (S) and retract acceleration (R), mm/sec^2
M205 X8.00 Y8.00 Z0.40 E4.50 ; sets the jerk limits, mm/sec
M205 S0 T0 ; sets the minimum extruding and travel feed rate, mm/sec

; printing object TopBracket id:0 copy 0
; stop printing object TopBracket id:0 copy 0

;TYPE:Custom
M862.3 P "MK3S" ; printer model check
M862.1 P0.8 ; nozzle diameter check
M115 U3.13.3 ; tell printer latest fw version
G90 ; use absolute coordinates
M83 ; extruder relative mode
M104 S240 ; set extruder temp
M140 S85 ; set bed temp
M190 S85 ; wait for bed temp
M109 S240 ; wait for extruder temp
G28 W ; home all without mesh bed level
G80 X60.7466 Y50.7466 W128.507 H108.507 ; mesh bed levelling

G1 Z0.2 F720
G1 Y-3 F1000 ; go outside print area
G92 E0
G1 X60 E9 F1000 ; intro line
G1 X100 E12.5 F1000 ; intro line

G92 E0
M221 S95
G21 ; set units to millimeters
G90 ; use absolute coordinates
M83 ; use relative distances for extrusion

M900 K0.02 ; Filament gcode LA 1.5
; ; Filament gcode LA 1.0




M107
;LAYER_CHANGE
;Z:0.3
;HEIGHT:0.3
G1 E-1 F2100
G1 Z.5 F720
G1 X82.073 Y52.521 F10800
G1 Z.3 F720
M73 P0 R122
G1 E1 F1200
M204 S800
;TYPE:Skirt/Brim
;WIDTH:0.9
G1 X83.47 Y51.483 E.18139
G1 X85 Y51.164 E.16289
G1 X165 Y51.164 E8.33784
G1 X166.695 Y51.559 E.18139
G1 X168.041 Y52.662 E.18137
G1 X168.721 Y54.07 E.16296
G1 X188.721 Y134.07 E8.59445
G1 X188.836 Y135 E.09767
M73 Q0 S123
G1 X188.836 Y155 E2.08446
G1 X188.441 Y156.695 E.18139
G1 X187.338 Y158.041 E.18137
G1 X185 Y158.836 E.25738
G1 X65 Y158.836 E12.50677
G1 X63.305 Y158.441 E.18139
G1 X61.959 Y157.338 E.18137
G1 X61.164 Y155 E.25738
G1 X61.164 Y135 E2.08446
G1 X61.279 Y134.07 E.09767
G1 X81.279 Y54.07 E8.59445
G1 X82.018 Y52.628 E.16888
M204 S1000
; printing object TopBracket id:0 copy 0
;WIPE_START
G1 F8640
G1 X82.073 Y52.521 E-.02778
G1 X83.47 Y51.483 E-.40187
G1 X85 Y51.164 E-.36088
G1 X85.907 Y51.164 E-.20947
;WIPE_END
G1 Z.5 F720
G1 X183.514 Y153.514 F10800
G1 Z.3 F720
G1 E1 F1200
M204 S800
;TYPE:Perimeter
;WIDTH:0.899999
G1 X66.486 Y153.514 E12.19701
G1 X66.486 Y135.183 E1.91051
G1 X86.16 Y56.486 E8.45446
G1 X163.84 Y56.486 E8.09604
G1 X183.514 Y135.183 E8.45446
G1 X183.514 Y137.192 E.20938
G1 X183.514 Y153.394 E1.68862
M204 S1000
;WIPE_START
G1 F8640
G1 X183.514 Y153.514 E-.02771
G1 X179.303 Y153.514 E-.97229
;WIPE_END
G1 Z.5 F720
G1 X184.35 Y154.35 F10800
G1 Z.3 F720
G1 E1 F1200
M204 S800
;TYPE:External perimeter
G1 X65.65 Y154.35 E12.37127
G1 X65.65 Y135.08 E2.00838
G1 X85.508 Y55.65 E8.53323
G1 X164.492 Y55.65 E8.23195
G1 X184.35 Y135.08 E8.53323
G1 X184.35 Y137.192 E.22012
M73 P0 R121
G1 X184.35 Y154.23 E1.77575
M204 S1000
;WIPE_START
G1 F8640
G1 X184.35 Y154.35 E-.02771
G1 X180.139 Y154.35 E-.97229
;WIPE_END
G1 Z.5 F720
G1 X125.212 Y103.979 F10800
G1 Z.3 F720
G1 E1 F1200
M204 S800
;TYPE:Perimeter
G1 X124.39 Y103.964 E.08569
G1 X123.501 Y103.858 E.09331
G1 X122.627 Y103.666 E.09326
G1 X121.776 Y103.386 E.09337
G1 X120.956 Y103.023 E.09346
G1 X120.178 Y102.581 E.09326
G1 X119.448 Y102.064 E.09323
G1 X118.771 Y101.475 E.09353
G1 X117.847 Y100.439 E.14468
G1 X117.366 Y99.738 E.08861
G1 X116.932 Y98.954 E.0934
G1 X116.579 Y98.131 E.09333
G1 X116.309 Y97.278 E.09325
G1 X116.125 Y96.401 E.09339
G1 X116.03 Y95.51 E.09339
G1 X116.024 Y94.614 E.09339
G1 X116.107 Y93.723 E.09326
G1 X116.278 Y92.843 E.09343
G1 X116.536 Y91.986 E.09328
G1 X116.878 Y91.158 E.09337
G1 X117.301 Y90.369 E.0933
G1 X117.801 Y89.625 E.09343
G1 X118.372 Y88.935 E.09334
G1 X119.008 Y88.306 E.09323
G1 X119.704 Y87.742 E.09337
G1 X120.455 Y87.25 E.09357
G1 X121.248 Y86.837 E.09319
G1 X122.08 Y86.504 E.0934
G1 X122.939 Y86.255 E.09321
G1 X123.821 Y86.093 E.09346
G1 X124.713 Y86.02 E.09328
G1 X125.61 Y86.036 E.0935
G1 X126.499 Y86.142 E.09331
G1 X127.373 Y86.334 E.09326
G1 X128.224 Y86.614 E.09337
G1 X129.044 Y86.977 E.09346
G1 X129.822 Y87.419 E.09326
G1 X130.552 Y87.936 E.09323
G1 X131.229 Y88.525 E.09353
G1 X132.103 Y89.501 E.13655
G1 X132.634 Y90.262 E.09671
G1 X133.067 Y91.046 E.09334
G1 X133.421 Y91.869 E.09337
G1 X133.691 Y92.722 E.09325
G1 X133.875 Y93.599 E.09339
G1 X133.97 Y94.49 E.09339
G1 X133.976 Y95.386 E.09339
G1 X133.893 Y96.277 E.09326
G1 X133.722 Y97.157 E.09343
G1 X133.464 Y98.014 E.09328
G1 X133.122 Y98.842 E.09337
G1 X132.699 Y99.631 E.0933
G1 X132.199 Y100.375 E.09343
G1 X131.628 Y101.065 E.09334
G1 X130.992 Y101.694 E.09323
G1 X130.296 Y102.258 E.09337
G1 X129.545 Y102.75 E.09357
M73 Q0 S122
G1 X128.752 Y103.163 E.09319
G1 X127.92 Y103.496 E.0934
G1 X127.061 Y103.745 E.09321
G1 X126.179 Y103.907 E.09346
G1 X125.332 Y103.976 E.08857
M204 S1000
G1 X125.332 Y103.976 F10800
G1 X125.231 Y103.146
M204 S800
;TYPE:External perimeter
G1 F1200
G1 X125.224 Y103.147 E.00074
G1 X124.412 Y103.128 E.08465
G1 X123.605 Y103.029 E.08474
G1 X122.813 Y102.851 E.0846
G1 X122.042 Y102.594 E.0847
G1 X121.3 Y102.261 E.08476
G1 X120.596 Y101.857 E.0846
G1 X119.935 Y101.385 E.08465
G1 X119.324 Y100.848 E.08478
G1 X118.506 Y99.926 E.12846
M73 P1 R121
G1 X118.057 Y99.267 E.08311
G1 X117.666 Y98.554 E.08475
G1 X117.349 Y97.807 E.08457
G1 X117.108 Y97.032 E.08459
G1 X116.945 Y96.235 E.08479
M73 Q1 S122
G1 X116.862 Y95.427 E.08466
G1 X116.86 Y94.614 E.08473
G1 X116.938 Y93.806 E.0846
G1 X117.097 Y93.009 E.0847
G1 X117.335 Y92.232 E.0847
G1 X117.648 Y91.483 E.08461
G1 X118.035 Y90.768 E.08473
G1 X118.491 Y90.095 E.08473
G1 X119.012 Y89.472 E.08464
G1 X119.592 Y88.904 E.08461
G1 X120.226 Y88.395 E.08474
G1 X120.907 Y87.953 E.08462
G1 X121.629 Y87.581 E.08465
G1 X122.385 Y87.282 E.08473
G1 X123.166 Y87.059 E.08465
G1 X123.966 Y86.916 E.0847
G1 X124.776 Y86.853 E.08468
G1 X125.588 Y86.872 E.08465
G1 X126.395 Y86.971 E.08474
G1 X127.187 Y87.149 E.0846
G1 X127.958 Y87.406 E.0847
G1 X128.7 Y87.739 E.08476
G1 X129.404 Y88.143 E.0846
G1 X130.065 Y88.615 E.08465
G1 X130.676 Y89.152 E.08478
G1 X131.477 Y90.055 E.1258
G1 X131.943 Y90.733 E.08574
G1 X132.334 Y91.446 E.08475
G1 X132.651 Y92.193 E.08457
G1 X132.892 Y92.968 E.08459
G1 X133.055 Y93.765 E.08479
G1 X133.138 Y94.573 E.08466
G1 X133.14 Y95.386 E.08473
G1 X133.062 Y96.194 E.0846
G1 X132.903 Y96.991 E.0847
G1 X132.665 Y97.768 E.0847
G1 X132.352 Y98.517 E.08461
G1 X131.965 Y99.232 E.08473
G1 X131.509 Y99.905 E.08473
G1 X130.988 Y100.528 E.08464
G1 X130.408 Y101.096 E.08461
G1 X129.774 Y101.605 E.08474
G1 X129.093 Y102.047 E.08462
G1 X128.371 Y102.42 E.0847
G1 X127.615 Y102.718 E.08469
G1 X126.834 Y102.941 E.08465
G1 X126.034 Y103.084 E.0847
G1 X125.35 Y103.137 E.0715
M204 S1000
;WIPE_START
G1 F8640
G1 X125.231 Y103.146 E-.02756
G1 X125.224 Y103.147 E-.00163
G1 X124.412 Y103.128 E-.18754
G1 X123.605 Y103.029 E-.18774
G1 X122.813 Y102.851 E-.18744
G1 X122.042 Y102.594 E-.18766
G1 X121.3 Y102.261 E-.18779
G1 X121.177 Y102.191 E-.03264
;WIPE_END
G1 Z.5 F720
G1 X161.875 Y56.82 F10800
G1 Z.3 F720
G1 E1 F1200
M204 S800
;TYPE:Solid infill
;WIDTH:0.902833
G1 X163.63 Y58.575 E.25955
G1 X164.026 Y60.156 E.17044
G1 X161.065 Y57.196 E.43784
G1 X159.879 Y57.196 E.12403
G1 X164.421 Y61.737 E.67166
G1 X164.816 Y63.318 E.17042
G1 X158.694 Y57.196 E.9054
G1 X157.508 Y57.196 E.12403
G1 X165.211 Y64.899 E1.13922
G1 X165.607 Y66.48 E.17044
G1 X156.322 Y57.196 E1.37312
G1 X155.136 Y57.196 E.12403
G1 X166.002 Y68.061 E1.60693
G1 X166.397 Y69.642 E.17042
G1 X153.951 Y57.196 E1.84068
G1 X152.765 Y57.196 E.12403
G1 X166.792 Y71.223 E2.0745
G1 X167.188 Y72.804 E.17044
G1 X151.579 Y57.196 E2.30839
G1 X150.393 Y57.196 E.12403
G1 X167.583 Y74.385 E2.54221
G1 X167.978 Y75.966 E.17042
G1 X149.208 Y57.196 E2.77596
G1 X148.022 Y57.196 E.12403
G1 X168.373 Y77.547 E3.00978
G1 X168.769 Y79.128 E.17044
G1 X146.836 Y57.196 E3.24367
G1 X145.65 Y57.196 E.12403
G1 X169.164 Y80.709 E3.47749
G1 X169.559 Y82.29 E.17042
G1 X144.465 Y57.196 E3.71123
G1 X143.279 Y57.196 E.12403
G1 X169.954 Y83.871 E3.94505
G1 X170.35 Y85.452 E.17044
G1 X142.093 Y57.196 E4.17895
G1 X140.907 Y57.196 E.12403
G1 X170.745 Y87.033 E4.41277
G1 X171.14 Y88.614 E.17042
G1 X139.722 Y57.196 E4.64651
G1 X138.536 Y57.196 E.12403
G1 X171.535 Y90.195 E4.88033
G1 X171.931 Y91.776 E.17044
G1 X137.35 Y57.196 E5.11422
G1 X136.164 Y57.196 E.12403
G1 X172.326 Y93.357 E5.34804
G1 X172.721 Y94.938 E.17042
G1 X134.979 Y57.196 E5.58179
G1 X133.793 Y57.196 E.12403
G1 X173.116 Y96.519 E5.81561
G1 X173.512 Y98.1 E.17044
G1 X132.607 Y57.196 E6.0495
G1 X131.421 Y57.196 E.12403
G1 X173.907 Y99.681 E6.28332
G1 X174.302 Y101.262 E.17042
G1 X130.236 Y57.196 E6.51707
G1 X129.05 Y57.196 E.12403
G1 X174.697 Y102.843 E6.75088
G1 X175.093 Y104.424 E.17044
M73 P1 R120
G1 X127.864 Y57.196 E6.98478
G1 X126.678 Y57.196 E.12403
G1 X175.488 Y106.005 E7.2186
G1 X175.883 Y107.586 E.17042
M73 Q1 S121
G1 X125.493 Y57.196 E7.45234
G1 X124.307 Y57.196 E.12403
G1 X176.278 Y109.167 E7.68616
G1 X176.674 Y110.748 E.17044
G1 X123.121 Y57.196 E7.92006
G1 X121.935 Y57.196 E.12403
G1 X177.069 Y112.329 E8.15387
G1 X177.464 Y113.91 E.17042
M73 P2 R120
M73 Q2 S121
G1 X120.75 Y57.196 E8.38762
G1 X119.564 Y57.196 E.12403
G1 X177.859 Y115.491 E8.62144
G1 X178.255 Y117.072 E.17044
G1 X118.378 Y57.196 E8.85533
G1 X117.192 Y57.196 E.12403
G1 X178.65 Y118.653 E9.08915
G1 X179.045 Y120.234 E.17042
G1 X116.007 Y57.196 E9.3229
G1 X114.821 Y57.196 E.12403
G1 X179.44 Y121.815 E9.55672
G1 X179.836 Y123.396 E.17044
G1 X113.635 Y57.196 E9.79061
G1 X112.449 Y57.196 E.12403
G1 X180.231 Y124.977 E10.02443
G1 X180.626 Y126.558 E.17042
G1 X111.264 Y57.196 E10.25817
G1 X110.078 Y57.196 E.12403
M73 P2 R119
G1 X181.021 Y128.139 E10.49199
G1 X181.417 Y129.72 E.17044
M73 Q2 S120
G1 X108.892 Y57.196 E10.72589
G1 X107.706 Y57.196 E.12403
G1 X181.812 Y131.301 E10.95971
G1 X182.207 Y132.882 E.17042
G1 X106.521 Y57.196 E11.19345
G1 X105.335 Y57.196 E.12403
G1 X182.602 Y134.463 E11.42727
G1 X182.804 Y135.27 E.087
G1 X182.804 Y135.851 E.06076
G1 X104.149 Y57.196 E11.63255
G1 X102.963 Y57.196 E.12403
M73 P3 R119
G1 X182.804 Y137.037 E11.80795
G1 X182.804 Y138.222 E.12392
M73 Q3 S120
G1 X101.778 Y57.196 E11.9832
G1 X100.592 Y57.196 E.12403
G1 X182.804 Y139.408 E12.1586
G1 X182.804 Y140.594 E.12403
G1 X134.21 Y92 E7.18673
G1 X134.398 Y92.615 E.06725
G1 X134.588 Y93.564 E.10121
G1 X182.804 Y141.78 E7.13082
G1 X182.804 Y142.965 E.12392
M73 P3 R118
G1 X134.685 Y94.846 E7.11648
G1 X134.683 Y95.512 E.06965
G1 X134.634 Y95.981 E.04931
G1 X182.804 Y144.151 E7.12402
G1 X182.804 Y145.337 E.12403
M73 Q3 S119
G1 X134.474 Y97.007 E7.14768
G1 X134.389 Y97.421 E.0442
G1 X134.226 Y97.944 E.05729
G1 X182.804 Y146.523 E7.18443
G1 X182.804 Y147.708 E.12392
G1 X133.904 Y98.808 E7.23198
G1 X133.723 Y99.233 E.04831
G1 X133.518 Y99.608 E.04469
G1 X182.804 Y148.894 E7.28907
G1 X182.804 Y150.08 E.12403
G1 X133.074 Y100.35 E7.35473
G1 X132.711 Y100.879 E.06709
G1 X132.577 Y101.038 E.02175
G1 X182.804 Y151.266 E7.42831
G1 X182.804 Y152.451 E.12392
G1 X132.027 Y101.674 E7.50958
G1 X131.426 Y102.259 E.08771
G1 X181.971 Y152.804 E7.47527
G1 X180.785 Y152.804 E.12403
G1 X130.768 Y102.787 E7.39718
G1 X130.057 Y103.262 E.08942
G1 X179.6 Y152.804 E7.327
G1 X178.414 Y152.804 E.12403
G1 X129.292 Y103.683 E7.26474
G1 X129.014 Y103.826 E.03269
G1 X128.467 Y104.043 E.06154
G1 X177.228 Y152.804 E7.21142
G1 X176.042 Y152.804 E.12403
M73 P4 R118
G1 X127.574 Y104.336 E7.16809
G1 X127.187 Y104.446 E.04207
M73 Q4 S119
G1 X126.604 Y104.551 E.06195
G1 X174.857 Y152.804 E7.13629
G1 X173.671 Y152.804 E.12403
G1 X125.538 Y104.672 E7.11847
G1 X125.27 Y104.693 E.02811
M73 P4 R117
G1 X124.353 Y104.672 E.09592
G1 X172.485 Y152.804 E7.1184
G1 X171.299 Y152.804 E.12403
G1 X122.46 Y103.965 E7.22296
M204 S1000
;WIPE_START
G1 F8640
M73 Q4 S118
G1 X125.522 Y107.027 E-1
;WIPE_END
G1 Z.5 F720
G1 X128.641 Y86.43 F10800
G1 Z.3 F720
G1 E1 F1200
M204 S800
G1 X99.406 Y57.196 E4.32359
G1 X98.22 Y57.196 E.12403
G1 X126.446 Y85.421 E4.17436
G1 X125.725 Y85.331 E.07598
G1 X125.155 Y85.316 E.05963
G1 X97.035 Y57.196 E4.15876
G1 X95.849 Y57.196 E.12403
G1 X124.015 Y85.362 E4.16556
G1 X123.794 Y85.379 E.02318
G1 X122.988 Y85.521 E.08559
G1 X94.663 Y57.196 E4.18908
G1 X93.477 Y57.196 E.12403
G1 X122.051 Y85.77 E4.2259
G1 X121.188 Y86.093 E.09636
G1 X92.292 Y57.196 E4.2736
G1 X91.106 Y57.196 E.12403
G1 X120.39 Y86.481 E4.33098
G1 X120.152 Y86.603 E.02797
G1 X119.65 Y86.926 E.06243
G1 X89.92 Y57.196 E4.39687
G1 X88.734 Y57.196 E.12403
G1 X118.965 Y87.426 E4.47089
G1 X118.583 Y87.731 E.05112
G1 X118.33 Y87.977 E.0369
G1 X87.549 Y57.196 E4.5523
G1 X86.715 Y57.196 E.08722
G1 X86.644 Y57.477 E.03031
G1 X117.747 Y88.58 E4.59992
G1 X117.211 Y89.23 E.0881
G1 X86.407 Y58.426 E4.5557
G1 X86.17 Y59.374 E.10219
G1 X116.732 Y89.937 E4.51999
G1 X116.312 Y90.702 E.09126
G1 X85.933 Y60.323 E4.49285
G1 X85.696 Y61.272 E.10229
G1 X115.953 Y91.529 E4.47481
G1 X115.661 Y92.423 E.09835
G1 X85.458 Y62.22 E4.46682
G1 X85.221 Y63.169 E.10229
G1 X115.444 Y93.391 E4.4697
G1 X115.321 Y94.454 E.11191
G1 X84.984 Y64.117 E4.48664
G1 X84.747 Y65.066 E.10229
G1 X115.334 Y95.653 E4.52361
G1 X115.408 Y96.417 E.08027
G1 X115.531 Y97.036 E.066
G1 X84.51 Y66.015 E4.5878
G1 X84.273 Y66.963 E.10219
G1 X116.08 Y98.771 E4.70412
G1 X116.252 Y99.181 E.0465
G1 X116.712 Y100.032 E.10116
G1 X117.254 Y100.833 E.10114
G1 X118.258 Y101.968 E.15847
G1 X118.954 Y102.581 E.09699
G1 X119.739 Y103.145 E.10108
G1 X120.601 Y103.641 E.104
G1 X121.234 Y103.925 E.07255
G1 X170.114 Y152.804 E7.22895
G1 X168.928 Y152.804 E.12403
G1 X84.036 Y67.912 E12.55496
G1 X83.798 Y68.86 E.10221
M73 P5 R116
M73 Q5 S118
G1 X167.742 Y152.804 E12.41475
G1 X166.556 Y152.804 E.12403
M73 Q5 S117
G1 X83.561 Y69.809 E12.2744
G1 X83.324 Y70.758 E.10229
G1 X165.371 Y152.804 E12.13413
G1 X164.185 Y152.804 E.12403
G1 X83.087 Y71.706 E11.99385
G1 X82.85 Y72.655 E.10229
G1 X162.999 Y152.804 E11.8535
G1 X161.813 Y152.804 E.12403
G1 X82.613 Y73.603 E11.71322
G1 X82.375 Y74.552 E.10232
G1 X160.628 Y152.804 E11.57302
G1 X159.442 Y152.804 E.12403
G1 X82.138 Y75.501 E11.43267
G1 X81.901 Y76.449 E.10219
G1 X158.256 Y152.804 E11.29239
G1 X157.07 Y152.804 E.12403
G1 X81.664 Y77.398 E11.15204
G1 X81.427 Y78.346 E.10219
M73 P5 R115
G1 X155.885 Y152.804 E11.01184
G1 X154.699 Y152.804 E.12403
M73 Q5 S116
G1 X81.19 Y79.295 E10.87149
G1 X80.953 Y80.244 E.10229
G1 X153.513 Y152.804 E10.73114
G1 X152.327 Y152.804 E.12403
M73 P6 R115
G1 X80.715 Y81.192 E10.59093
G1 X80.478 Y82.141 E.10229
M73 Q6 S116
G1 X151.142 Y152.804 E10.45066
G1 X149.956 Y152.804 E.12403
G1 X80.241 Y83.089 E10.31038
G1 X80.004 Y84.038 E.10229
G1 X148.77 Y152.804 E10.17003
G1 X147.584 Y152.804 E.12403
G1 X79.767 Y84.987 E10.02968
G1 X79.53 Y85.935 E.10219
G1 X146.399 Y152.804 E9.88948
G1 X145.213 Y152.804 E.12403
G1 X79.293 Y86.884 E9.74913
G1 X79.055 Y87.832 E.10221
G1 X144.027 Y152.804 E9.60892
G1 X142.841 Y152.804 E.12403
G1 X78.818 Y88.781 E9.46857
G1 X78.581 Y89.73 E.10229
M73 P6 R114
G1 X141.656 Y152.804 E9.3283
G1 X140.47 Y152.804 E.12403
M73 Q6 S115
G1 X78.344 Y90.678 E9.18802
G1 X78.107 Y91.627 E.10229
G1 X139.284 Y152.804 E9.04767
G1 X138.098 Y152.804 E.12403
G1 X77.87 Y92.575 E8.90739
G1 X77.632 Y93.524 E.10232
G1 X136.913 Y152.804 E8.76719
G1 X135.727 Y152.804 E.12403
G1 X77.395 Y94.473 E8.62684
G1 X77.158 Y95.421 E.10219
G1 X134.541 Y152.804 E8.48656
G1 X133.355 Y152.804 E.12403
M73 P7 R114
G1 X76.921 Y96.37 E8.34621
G1 X76.684 Y97.318 E.10219
M73 Q7 S115
G1 X132.17 Y152.804 E8.20601
G1 X130.984 Y152.804 E.12403
G1 X76.447 Y98.267 E8.06566
G1 X76.21 Y99.216 E.10229
G1 X129.798 Y152.804 E7.92531
G1 X128.612 Y152.804 E.12403
G1 X75.972 Y100.164 E7.7851
G1 X75.735 Y101.113 E.10229
G1 X127.427 Y152.804 E7.64483
G1 X126.241 Y152.804 E.12403
G1 X75.498 Y102.061 E7.50455
G1 X75.261 Y103.01 E.10229
G1 X125.055 Y152.804 E7.3642
