; generated by PrusaSlicer 2.7.2 on 2025-05-14 at 23:21:33 UTC


;
;
; 

; external perimeters extrusion width = 1.00mm
; perimeters extrusion width = 1.00mm
; infill extrusion width = 0.90mm
; solid infill extrusion width = 0.90mm
; top infill extrusion width = 0.80mm
; first layer extrusion width = 0.90mm

M73 P0 R84
M73 Q0 S85
M201 X1000 Y1000 Z200 E5000 ; sets maximum accelerations, mm/sec^2
M203 X200 Y200 Z12 E120 ; sets maximum feedrates, mm / sec
M204 S1250 T1250 ; sets acceleration (S) and retract acceleration (R), mm/sec^2
M205 X8.00 Y8.00 Z0.40 E4.50 ; sets the jerk limits, mm/sec
M205 S0 T0 ; sets the minimum extruding and travel feed rate, mm/sec

; printing object C350MountingClamp id:0 copy 0
; stop printing object C350MountingClamp id:0 copy 0
; printing object C350MountingClamp id:0 copy 1
; stop printing object C350MountingClamp id:0 copy 1

;TYPE:Custom
M862.3 P "MK3S" ; printer model check
M862.1 P0.8 ; nozzle diameter check
M115 U3.13.3 ; tell printer latest fw version
G90 ; use absolute coordinates
M83 ; extruder relative mode
M104 S240 ; set extruder temp
M140 S85 ; set bed temp
M190 S85 ; wait for bed temp
M109 S240 ; wait for extruder temp
G28 W ; home all without mesh bed level
G80 X57.7466 Y50.7466 W134.507 H108.507 ; mesh bed levelling

G1 Z0.2 F720
G1 Y-3 F1000 ; go outside print area
G92 E0
G1 X60 E9 F1000 ; intro line
G1 X100 E12.5 F1000 ; intro line

G92 E0
M221 S95
G21 ; set units to millimeters
G90 ; use absolute coordinates
M83 ; use relative distances for extrusion

M900 K0.02 ; Filament gcode LA 1.5
; ; Filament gcode LA 1.0




M107
;LAYER_CHANGE
;Z:0.3
;HEIGHT:0.3
G1 E-1 F2100
G1 Z.5 F720
G1 X59.662 Y51.976 F10800
G1 Z.3 F720
G1 E1 F1200
M204 S800
;TYPE:Skirt/Brim
;WIDTH:0.9
G1 X61.999 Y51.181 E.25728
G1 X187.999 Y51.164 E13.13211
G1 X189.694 Y51.559 E.18139
G1 X191.041 Y52.662 E.18145
G1 X191.836 Y55 E.25738
G1 X191.836 Y155 E10.42231
G1 X191.441 Y156.695 E.18139
G1 X190.338 Y158.041 E.18137
G1 X188 Y158.836 E.25738
G1 X62 Y158.836 E13.13211
G1 X60.305 Y158.441 E.18139
G1 X58.959 Y157.338 E.18137
G1 X58.164 Y155 E.25738
G1 X58.164 Y55.017 E10.42053
G1 X58.559 Y53.322 E.18139
G1 X59.586 Y52.069 E.16885
M204 S1000
; printing object C350MountingClamp id:0 copy 0
;WIPE_START
G1 F8640
G1 X59.662 Y51.976 E-.02773
G1 X61.999 Y51.181 E-.56999
G1 X63.741 Y51.181 E-.40228
;WIPE_END
G1 Z.5 F720
G1 X172.348 Y65.531 F10800
G1 Z.3 F720
G1 E1 F1200
M204 S800
;TYPE:Perimeter
;WIDTH:0.899999
G1 X172.232 Y65.514 E.01222
G1 X129.486 Y65.514 E4.45512
G1 X129.486 Y56.486 E.94093
G1 X186.514 Y56.486 E5.94363
G1 X186.514 Y63.371 E.71758
G1 X186.514 Y153.514 E9.39497
G1 X129.486 Y153.514 E5.94363
M73 P0 R83
G1 X129.486 Y144.486 E.94093
G1 X172.232 Y144.486 E4.45512
G1 X172.41 Y144.473 E.0186
M73 Q0 S84
G1 X172.745 Y144.376 E.03635
G1 X173.025 Y144.203 E.0343
G1 X173.233 Y143.986 E.03133
G1 X173.42 Y143.632 E.04173
G1 X173.486 Y143.232 E.04225
G1 X173.486 Y66.768 E7.96931
G1 X173.478 Y66.631 E.0143
M73 P1 R83
M73 Q1 S84
G1 X173.371 Y66.245 E.04175
G1 X173.138 Y65.902 E.04322
G1 X172.893 Y65.703 E.0329
G1 X172.582 Y65.564 E.0355
G1 X172.467 Y65.548 E.0121
M204 S1000
G1 X172.467 Y65.548 F10800
G1 X172.232 Y66.35
M204 S800
;TYPE:External perimeter
G1 F1200
G1 X128.65 Y66.35 E4.54225
G1 X128.65 Y55.65 E1.11519
G1 X187.35 Y55.65 E6.11789
G1 X187.35 Y63.371 E.80471
G1 X187.35 Y154.35 E9.4821
G1 X128.65 Y154.35 E6.11789
G1 X128.65 Y143.65 E1.11519
G1 X172.232 Y143.65 E4.54225
G1 X172.452 Y143.587 E.02385
G1 X172.592 Y143.445 E.02078
G1 X172.65 Y143.232 E.02301
G1 X172.65 Y66.768 E7.96931
G1 X172.612 Y66.593 E.01866
G1 X172.452 Y66.413 E.0251
G1 X172.348 Y66.383 E.01128
M204 S1000
;WIPE_START
G1 F8640
G1 X172.232 Y66.35 E-.02785
G1 X168.022 Y66.35 E-.97215
;WIPE_END
G1 Z.5 F720
G1 X184.486 Y56.82 F10800
G1 Z.3 F720
G1 E1 F1200
M204 S800
;TYPE:Solid infill
;WIDTH:0.902426
G1 X185.804 Y58.138 E.19483
G1 X185.804 Y59.323 E.12386
G1 X183.677 Y57.196 E.31442
G1 X182.492 Y57.196 E.12386
G1 X185.804 Y60.508 E.48958
G1 X185.804 Y61.694 E.12397
G1 X181.306 Y57.196 E.6649
G1 X180.121 Y57.196 E.12386
G1 X185.804 Y62.879 E.84007
G1 X185.804 Y64.064 E.12386
G1 X178.936 Y57.196 E1.01524
G1 X177.751 Y57.196 E.12386
G1 X185.804 Y65.249 E1.19041
G1 X185.804 Y66.434 E.12386
G1 X176.566 Y57.196 E1.36558
G1 X175.38 Y57.196 E.12397
G1 X185.804 Y67.62 E1.54089
G1 X185.804 Y68.805 E.12386
G1 X174.195 Y57.196 E1.71606
G1 X173.01 Y57.196 E.12386
G1 X185.804 Y69.99 E1.89123
G1 X185.804 Y71.175 E.12386
G1 X171.825 Y57.196 E2.0664
G1 X170.64 Y57.196 E.12386
G1 X185.804 Y72.36 E2.24157
G1 X185.804 Y73.545 E.12386
G1 X169.455 Y57.196 E2.41673
G1 X168.269 Y57.196 E.12397
G1 X185.804 Y74.731 E2.59205
G1 X185.804 Y75.916 E.12386
G1 X167.084 Y57.196 E2.76722
G1 X165.899 Y57.196 E.12386
G1 X185.804 Y77.101 E2.94239
G1 X185.804 Y78.286 E.12386
G1 X174.187 Y66.669 E1.71724
G1 X174.151 Y66.344 E.03418
G1 X174.018 Y65.947 E.04376
G1 X173.806 Y65.592 E.04322
G1 X173.652 Y65.41 E.02492
G1 X173.474 Y65.246 E.0253
G1 X173.267 Y65.098 E.0266
G1 X173.035 Y64.975 E.02745
G1 X172.781 Y64.882 E.02827
G1 X172.511 Y64.823 E.02889
G1 X172.328 Y64.81 E.01918
G1 X164.714 Y57.196 E1.12551
G1 X163.529 Y57.196 E.12386
G1 X171.137 Y64.804 E1.12463
G1 X169.952 Y64.804 E.12386
G1 X162.344 Y57.196 E1.12463
G1 X161.158 Y57.196 E.12397
G1 X168.767 Y64.804 E1.1247
G1 X167.581 Y64.804 E.12397
G1 X159.973 Y57.196 E1.12463
G1 X158.788 Y57.196 E.12386
G1 X166.396 Y64.804 E1.12463
G1 X165.211 Y64.804 E.12386
G1 X157.603 Y57.196 E1.12463
G1 X156.418 Y57.196 E.12386
G1 X164.026 Y64.804 E1.12463
G1 X162.841 Y64.804 E.12386
G1 X155.233 Y57.196 E1.12463
G1 X154.047 Y57.196 E.12397
G1 X161.656 Y64.804 E1.1247
G1 X160.47 Y64.804 E.12397
G1 X152.862 Y57.196 E1.12463
G1 X151.677 Y57.196 E.12386
G1 X159.285 Y64.804 E1.12463
G1 X158.1 Y64.804 E.12386
G1 X150.492 Y57.196 E1.12463
G1 X149.307 Y57.196 E.12386
G1 X156.915 Y64.804 E1.12463
G1 X155.73 Y64.804 E.12386
G1 X148.121 Y57.196 E1.1247
G1 X146.936 Y57.196 E.12386
G1 X154.545 Y64.804 E1.1247
G1 X153.359 Y64.804 E.12397
G1 X145.751 Y57.196 E1.12463
G1 X144.566 Y57.196 E.12386
G1 X152.174 Y64.804 E1.12463
G1 X150.989 Y64.804 E.12386
G1 X143.381 Y57.196 E1.12463
G1 X142.196 Y57.196 E.12386
G1 X149.804 Y64.804 E1.12463
G1 X148.619 Y64.804 E.12386
M73 P1 R82
G1 X141.01 Y57.196 E1.1247
G1 X139.825 Y57.196 E.12386
G1 X147.433 Y64.804 E1.12463
G1 X146.248 Y64.804 E.12386
G1 X138.64 Y57.196 E1.12463
G1 X137.455 Y57.196 E.12386
G1 X145.063 Y64.804 E1.12463
G1 X143.878 Y64.804 E.12386
M73 P2 R82
G1 X136.27 Y57.196 E1.12463
G1 X135.085 Y57.196 E.12386
G1 X142.693 Y64.804 E1.12463
M73 Q2 S84
G1 X141.508 Y64.804 E.12386
G1 X133.899 Y57.196 E1.1247
G1 X132.714 Y57.196 E.12386
G1 X140.322 Y64.804 E1.12463
G1 X139.137 Y64.804 E.12386
G1 X131.529 Y57.196 E1.12463
G1 X130.344 Y57.196 E.12386
G1 X137.952 Y64.804 E1.12463
G1 X136.767 Y64.804 E.12386
G1 X130.196 Y58.233 E.97134
G1 X130.196 Y59.418 E.12386
G1 X135.582 Y64.804 E.79617
G1 X134.397 Y64.804 E.12386
G1 X130.196 Y60.603 E.621
G1 X130.196 Y61.789 E.12397
G1 X133.211 Y64.804 E.44568
G1 X132.026 Y64.804 E.12386
G1 X130.196 Y62.974 E.27051
G1 X130.196 Y64.159 E.12386
G1 X131.217 Y65.18 E.15093
M204 S1000
;WIPE_START
G1 F8640
G1 X130.196 Y64.159 E-.3334
G1 X130.196 Y62.974 E-.27362
G1 X131.4 Y64.178 E-.39298
;WIPE_END
G1 Z.5 F720
M73 Q2 S83
G1 X173.82 Y67.487 F10800
G1 Z.3 F720
G1 E1 F1200
M204 S800
G1 X185.804 Y79.471 E1.77149
G1 X185.804 Y80.656 E.12386
G1 X174.196 Y69.048 E1.71591
G1 X174.196 Y70.233 E.12386
G1 X185.804 Y81.842 E1.71599
G1 X185.804 Y83.027 E.12386
G1 X174.196 Y71.419 E1.71591
G1 X174.196 Y72.604 E.12386
G1 X185.804 Y84.212 E1.71591
G1 X185.804 Y85.397 E.12386
G1 X174.196 Y73.789 E1.71591
G1 X174.196 Y74.974 E.12386
G1 X185.804 Y86.582 E1.71591
G1 X185.804 Y87.767 E.12386
G1 X174.196 Y76.159 E1.71591
G1 X174.196 Y77.344 E.12386
G1 X185.804 Y88.953 E1.71599
G1 X185.804 Y90.138 E.12386
G1 X174.196 Y78.53 E1.71591
G1 X174.196 Y79.715 E.12386
G1 X185.804 Y91.323 E1.71591
G1 X185.804 Y92.508 E.12386
G1 X174.196 Y80.9 E1.71591
G1 X174.196 Y82.085 E.12386
G1 X185.804 Y93.693 E1.71591
G1 X185.804 Y94.879 E.12397
G1 X174.196 Y83.27 E1.71599
G1 X174.196 Y84.455 E.12386
G1 X185.804 Y96.064 E1.71599
G1 X185.804 Y97.249 E.12386
G1 X174.196 Y85.641 E1.71591
G1 X174.196 Y86.826 E.12386
G1 X185.804 Y98.434 E1.71591
G1 X185.804 Y99.619 E.12386
G1 X174.196 Y88.011 E1.71591
G1 X174.196 Y89.196 E.12386
G1 X185.804 Y100.804 E1.71591
G1 X185.804 Y101.99 E.12397
G1 X174.196 Y90.381 E1.71599
G1 X174.196 Y91.567 E.12397
G1 X185.804 Y103.175 E1.71591
G1 X185.804 Y104.36 E.12386
G1 X174.196 Y92.752 E1.71591
G1 X174.196 Y93.937 E.12386
G1 X185.804 Y105.545 E1.71591
G1 X185.804 Y106.73 E.12386
G1 X174.196 Y95.122 E1.71591
G1 X174.196 Y96.307 E.12386
G1 X185.804 Y107.915 E1.71591
G1 X185.804 Y109.101 E.12397
G1 X174.196 Y97.492 E1.71599
G1 X174.196 Y98.678 E.12397
G1 X185.804 Y110.286 E1.71591
G1 X185.804 Y111.471 E.12386
G1 X174.196 Y99.863 E1.71591
G1 X174.196 Y101.048 E.12386
G1 X185.804 Y112.656 E1.71591
G1 X185.804 Y113.841 E.12386
G1 X174.196 Y102.233 E1.71591
G1 X174.196 Y103.418 E.12386
G1 X185.804 Y115.026 E1.71591
G1 X185.804 Y116.212 E.12397
G1 X174.196 Y104.603 E1.71599
G1 X174.196 Y105.789 E.12397
G1 X185.804 Y117.397 E1.71591
G1 X185.804 Y118.582 E.12386
G1 X174.196 Y106.974 E1.71591
G1 X174.196 Y108.159 E.12386
G1 X185.804 Y119.767 E1.71591
G1 X185.804 Y120.952 E.12386
G1 X174.196 Y109.344 E1.71591
G1 X174.196 Y110.529 E.12386
G1 X185.804 Y122.138 E1.71599
G1 X185.804 Y123.323 E.12386
G1 X174.196 Y111.714 E1.71599
G1 X174.196 Y112.9 E.12397
G1 X185.804 Y124.508 E1.71591
G1 X185.804 Y125.693 E.12386
G1 X174.196 Y114.085 E1.71591
G1 X174.196 Y115.27 E.12386
G1 X185.804 Y126.878 E1.71591
G1 X185.804 Y128.063 E.12386
G1 X174.196 Y116.455 E1.71591
G1 X174.196 Y117.64 E.12386
G1 X185.804 Y129.249 E1.71599
G1 X185.804 Y130.434 E.12386
G1 X174.196 Y118.826 E1.71591
G1 X174.196 Y120.011 E.12386
G1 X185.804 Y131.619 E1.71591
G1 X185.804 Y132.804 E.12386
G1 X174.196 Y121.196 E1.71591
G1 X174.196 Y122.381 E.12386
G1 X185.804 Y133.989 E1.71591
G1 X185.804 Y135.174 E.12386
G1 X174.196 Y123.566 E1.71591
G1 X174.196 Y124.751 E.12386
G1 X185.804 Y136.36 E1.71599
G1 X185.804 Y137.545 E.12386
G1 X174.196 Y125.937 E1.71591
G1 X174.196 Y127.122 E.12386
M73 P3 R82
G1 X185.804 Y138.73 E1.71591
G1 X185.804 Y139.915 E.12386
G1 X174.196 Y128.307 E1.71591
M73 Q3 S83
G1 X174.196 Y129.492 E.12386
G1 X185.804 Y141.1 E1.71591
G1 X185.804 Y142.286 E.12397
G1 X174.196 Y130.677 E1.71599
G1 X174.196 Y131.862 E.12386
G1 X185.804 Y143.471 E1.71599
G1 X185.804 Y144.656 E.12386
G1 X174.196 Y133.048 E1.71591
G1 X174.196 Y134.233 E.12386
G1 X185.804 Y145.841 E1.71591
G1 X185.804 Y147.026 E.12386
M73 P3 R81
G1 X174.196 Y135.418 E1.71591
G1 X174.196 Y136.603 E.12386
G1 X185.804 Y148.211 E1.71591
G1 X185.804 Y149.397 E.12397
G1 X174.196 Y137.788 E1.71599
G1 X174.196 Y138.974 E.12397
G1 X185.804 Y150.582 E1.71591
G1 X185.804 Y151.767 E.12386
G1 X174.196 Y140.159 E1.71591
G1 X174.196 Y141.344 E.12386
G1 X185.656 Y152.804 E1.69403
G1 X184.471 Y152.804 E.12386
G1 X174.196 Y142.529 E1.51887
G1 X174.196 Y143.248 E.07515
G1 X174.148 Y143.666 E.04398
G1 X183.286 Y152.804 E1.35079
G1 X182.101 Y152.804 E.12386
G1 X173.759 Y144.463 E1.23305
G1 X173.474 Y144.754 E.04257
G1 X173.267 Y144.902 E.0266
G1 X173.101 Y144.99 E.01964
G1 X180.915 Y152.804 E1.15508
G1 X179.73 Y152.804 E.12386
G1 X172.122 Y145.196 E1.12463
G1 X170.937 Y145.196 E.12386
M73 Q3 S82
G1 X178.545 Y152.804 E1.12463
G1 X177.36 Y152.804 E.12386
G1 X169.752 Y145.196 E1.12463
G1 X168.567 Y145.196 E.12386
G1 X176.175 Y152.804 E1.12463
G1 X174.99 Y152.804 E.12386
G1 X167.381 Y145.196 E1.1247
G1 X166.196 Y145.196 E.12386
G1 X173.804 Y152.804 E1.12463
G1 X172.619 Y152.804 E.12386
G1 X165.011 Y145.196 E1.12463
G1 X163.826 Y145.196 E.12386
G1 X171.434 Y152.804 E1.12463
G1 X170.249 Y152.804 E.12386
G1 X162.641 Y145.196 E1.12463
G1 X161.455 Y145.196 E.12397
G1 X169.064 Y152.804 E1.1247
G1 X167.879 Y152.804 E.12386
G1 X160.27 Y145.196 E1.1247
G1 X159.085 Y145.196 E.12386
G1 X166.693 Y152.804 E1.12463
G1 X165.508 Y152.804 E.12386
G1 X157.9 Y145.196 E1.12463
G1 X156.715 Y145.196 E.12386
G1 X164.323 Y152.804 E1.12463
G1 X163.138 Y152.804 E.12386
G1 X155.53 Y145.196 E1.12463
G1 X154.344 Y145.196 E.12397
G1 X161.953 Y152.804 E1.1247
G1 X160.767 Y152.804 E.12397
G1 X153.159 Y145.196 E1.12463
G1 X151.974 Y145.196 E.12386
G1 X159.582 Y152.804 E1.12463
G1 X158.397 Y152.804 E.12386
G1 X150.789 Y145.196 E1.12463
G1 X149.604 Y145.196 E.12386
G1 X157.212 Y152.804 E1.12463
G1 X156.027 Y152.804 E.12386
G1 X148.419 Y145.196 E1.12463
G1 X147.233 Y145.196 E.12397
G1 X154.842 Y152.804 E1.1247
G1 X153.656 Y152.804 E.12397
G1 X146.048 Y145.196 E1.12463
G1 X144.863 Y145.196 E.12386
G1 X152.471 Y152.804 E1.12463
G1 X151.286 Y152.804 E.12386
G1 X143.678 Y145.196 E1.12463
G1 X142.493 Y145.196 E.12386
G1 X150.101 Y152.804 E1.12463
G1 X148.916 Y152.804 E.12386
G1 X141.308 Y145.196 E1.12463
G1 X140.122 Y145.196 E.12397
G1 X147.731 Y152.804 E1.1247
G1 X146.545 Y152.804 E.12397
G1 X138.937 Y145.196 E1.12463
G1 X137.752 Y145.196 E.12386
G1 X145.36 Y152.804 E1.12463
G1 X144.175 Y152.804 E.12386
G1 X136.567 Y145.196 E1.12463
G1 X135.382 Y145.196 E.12386
G1 X142.99 Y152.804 E1.12463
G1 X141.805 Y152.804 E.12386
G1 X134.196 Y145.196 E1.1247
G1 X133.011 Y145.196 E.12386
G1 X140.619 Y152.804 E1.12463
G1 X139.434 Y152.804 E.12386
G1 X131.826 Y145.196 E1.12463
G1 X130.641 Y145.196 E.12386
G1 X138.249 Y152.804 E1.12463
G1 X137.064 Y152.804 E.12386
G1 X130.196 Y145.936 E1.01524
G1 X130.196 Y147.121 E.12386
G1 X135.879 Y152.804 E.84007
G1 X134.694 Y152.804 E.12386
G1 X130.196 Y148.306 E.6649
G1 X130.196 Y149.492 E.12397
G1 X133.508 Y152.804 E.48958
G1 X132.323 Y152.804 E.12386
G1 X130.196 Y150.677 E.31442
G1 X130.196 Y151.862 E.12386
G1 X131.514 Y153.18 E.19483
M204 S1000
; stop printing object C350MountingClamp id:0 copy 0
; printing object C350MountingClamp id:0 copy 1
;WIPE_START
G1 F8640
G1 X130.196 Y151.862 E-.43039
G1 X130.196 Y150.677 E-.27362
G1 X131.103 Y151.583 E-.29599
;WIPE_END
G1 Z.5 F720
G1 X106.348 Y65.531 F10800
G1 Z.3 F720
G1 E1 F1200
M204 S800
;TYPE:Perimeter
;WIDTH:0.899999
G1 X106.232 Y65.514 E.01222
G1 X63.486 Y65.514 E4.45512
G1 X63.486 Y56.486 E.94093
G1 X120.514 Y56.486 E5.94363
G1 X120.514 Y63.371 E.71758
G1 X120.514 Y153.514 E9.39497
G1 X63.486 Y153.514 E5.94363
G1 X63.486 Y144.486 E.94093
M73 P4 R81
M73 Q4 S82
G1 X106.232 Y144.486 E4.45512
G1 X106.41 Y144.473 E.0186
G1 X106.745 Y144.376 E.03635
G1 X107.025 Y144.203 E.0343
G1 X107.233 Y143.986 E.03133
G1 X107.42 Y143.632 E.04173
G1 X107.486 Y143.232 E.04225
G1 X107.486 Y66.768 E7.96931
G1 X107.478 Y66.631 E.0143
G1 X107.371 Y66.245 E.04175
G1 X107.138 Y65.902 E.04322
G1 X106.893 Y65.703 E.0329
G1 X106.582 Y65.564 E.0355
G1 X106.467 Y65.548 E.0121
M204 S1000
G1 X106.467 Y65.548 F10800
G1 X106.232 Y66.35
M204 S800
;TYPE:External perimeter
G1 F1200
G1 X62.65 Y66.35 E4.54225
G1 X62.65 Y55.65 E1.11519
G1 X121.35 Y55.65 E6.11789
G1 X121.35 Y63.371 E.80471
G1 X121.35 Y154.35 E9.4821
G1 X62.65 Y154.35 E6.11789
M73 P4 R80
G1 X62.65 Y143.65 E1.11519
G1 X106.232 Y143.65 E4.54225
G1 X106.452 Y143.587 E.02385
M73 Q4 S81
G1 X106.592 Y143.445 E.02078
G1 X106.65 Y143.232 E.02301
G1 X106.65 Y66.768 E7.96931
G1 X106.612 Y66.593 E.01866
G1 X106.452 Y66.413 E.0251
G1 X106.348 Y66.383 E.01128
M204 S1000
;WIPE_START
G1 F8640
G1 X106.232 Y66.35 E-.02785
G1 X102.022 Y66.35 E-.97215
;WIPE_END
G1 Z.5 F720
G1 X118.486 Y56.82 F10800
G1 Z.3 F720
G1 E1 F1200
M204 S800
;TYPE:Solid infill
;WIDTH:0.902426
G1 X119.804 Y58.138 E.19483
G1 X119.804 Y59.323 E.12386
G1 X117.677 Y57.196 E.31442
G1 X116.492 Y57.196 E.12386
G1 X119.804 Y60.508 E.48958
G1 X119.804 Y61.694 E.12397
G1 X115.306 Y57.196 E.6649
G1 X114.121 Y57.196 E.12386
G1 X119.804 Y62.879 E.84007
G1 X119.804 Y64.064 E.12386
G1 X112.936 Y57.196 E1.01524
G1 X111.751 Y57.196 E.12386
G1 X119.804 Y65.249 E1.19041
G1 X119.804 Y66.434 E.12386
G1 X110.566 Y57.196 E1.36558
G1 X109.38 Y57.196 E.12397
G1 X119.804 Y67.62 E1.54089
