; generated by PrusaSlicer 2.7.2 on 2025-05-14 at 07:47:15 UTC


;
;
; 

; external perimeters extrusion width = 1.00mm
; perimeters extrusion width = 1.00mm
; infill extrusion width = 0.90mm
; solid infill extrusion width = 0.90mm
; top infill extrusion width = 0.80mm
; first layer extrusion width = 0.90mm

M73 P0 R146
M73 Q0 S147
M201 X1000 Y1000 Z200 E5000 ; sets maximum accelerations, mm/sec^2
M203 X200 Y200 Z12 E120 ; sets maximum feedrates, mm / sec
M204 S1250 T1250 ; sets acceleration (S) and retract acceleration (R), mm/sec^2
M205 X8.00 Y8.00 Z0.40 E4.50 ; sets the jerk limits, mm/sec
M205 S0 T0 ; sets the minimum extruding and travel feed rate, mm/sec

; printing object LidOne id:18 copy 0
; stop printing object LidOne id:18 copy 0

;TYPE:Custom
M862.3 P "MK3S" ; printer model check
M862.1 P0.8 ; nozzle diameter check
M115 U3.13.3 ; tell printer latest fw version
G90 ; use absolute coordinates
M83 ; extruder relative mode
M104 S240 ; set extruder temp
M140 S85 ; set bed temp
M190 S85 ; wait for bed temp
M109 S240 ; wait for extruder temp
G28 W ; home all without mesh bed level
G80 X45.7466 Y30.7466 W158.507 H148.507 ; mesh bed levelling

G1 Z0.2 F720
G1 Y-3 F1000 ; go outside print area
G92 E0
G1 X60 E9 F1000 ; intro line
G1 X100 E12.5 F1000 ; intro line

G92 E0
M221 S95
G21 ; set units to millimeters
G90 ; use absolute coordinates
M83 ; use relative distances for extrusion

M900 K0.02 ; Filament gcode LA 1.5
; ; Filament gcode LA 1.0




M107
;LAYER_CHANGE
;Z:0.3
;HEIGHT:0.3
G1 E-1 F2100
G1 Z.5 F720
G1 X64.516 Y36.866 F10800
G1 Z.3 F720
G1 E1 F1200
M204 S800
;TYPE:Skirt/Brim
;WIDTH:0.9
G1 X66.67 Y33.097 E.47506
G1 X67.853 Y31.821 E.19042
G1 X70 Y31.164 E.24571
G1 X200 Y31.164 E14.22645
G1 X201.695 Y31.559 E.19046
M73 Q0 S146
G1 X203.041 Y32.662 E.19044
G1 X203.836 Y35 E.27024
G1 X203.836 Y175 E15.32079
G1 X203.441 Y176.695 E.19046
M73 P0 R145
G1 X202.338 Y178.041 E.19044
G1 X200 Y178.836 E.27024
G1 X70 Y178.836 E14.22645
G1 X68.305 Y178.441 E.19046
G1 X66.67 Y176.903 E.24565
G1 X46.67 Y141.903 E4.41143
G1 X46.164 Y140 E.21549
G1 X46.164 Y70 E7.6604
G1 X46.67 Y68.097 E.21549
G1 X64.456 Y36.97 E3.92323
M204 S1000
; printing object LidOne id:18 copy 0
;WIPE_START
G1 F8640
G1 X64.516 Y36.866 E-.02772
G1 X66.605 Y33.21 E-.97228
;WIPE_END
G1 Z.5 F720
G1 X196.843 Y171.843 F10800
G1 Z.3 F720
G1 E1 F1200
M204 S800
;TYPE:Perimeter
;WIDTH:0.899999
G1 X172.444 Y171.843 E2.67008
;WIDTH:0.902943
G1 X171.732 Y171.842 E.07819
;WIDTH:0.945285
G1 X171.348 Y171.821 E.04437
;WIDTH:0.987628
G1 X170.964 Y171.799 E.04651
G1 X170.455 Y171.812 E.06156
;WIDTH:0.962358
G1 X169.777 Y171.816 E.07973
;WIDTH:0.980485
G1 X169.182 Y171.803 E.0714
G1 X168.885 Y171.818 E.03568
;WIDTH:0.950508
G1 X168.588 Y171.833 E.03451
;WIDTH:0.92053
G1 X167.887 Y171.843 E.07861
;WIDTH:0.899999
G1 X132.444 Y171.843 E3.87867
;WIDTH:0.902939
G1 X131.732 Y171.842 E.07819
;WIDTH:0.945284
G1 X131.348 Y171.821 E.04437
;WIDTH:0.987628
G1 X130.964 Y171.799 E.04651
G1 X130.455 Y171.812 E.06156
;WIDTH:0.962359
G1 X129.777 Y171.816 E.07973
;WIDTH:0.980458
G1 X129.183 Y171.803 E.07128
G1 X128.886 Y171.818 E.03568
;WIDTH:0.950476
G1 X128.589 Y171.833 E.03451
;WIDTH:0.920494
G1 X127.887 Y171.843 E.07871
;WIDTH:0.899999
G1 X92.443 Y171.843 E3.87878
;WIDTH:0.90293
G1 X91.732 Y171.842 E.07808
;WIDTH:0.945278
G1 X91.348 Y171.821 E.04437
;WIDTH:0.987627
G1 X90.963 Y171.799 E.04663
G1 X90.455 Y171.812 E.06144
;WIDTH:0.962358
G1 X89.777 Y171.816 E.07973
;WIDTH:0.980457
G1 X89.183 Y171.803 E.07128
G1 X88.886 Y171.818 E.03568
;WIDTH:0.950475
G1 X88.589 Y171.833 E.03451
;WIDTH:0.920494
G1 X87.887 Y171.843 E.07871
;WIDTH:0.899999
G1 X71.832 Y171.843 E1.75697
G1 X53.157 Y139.162 E4.11915
G1 X53.157 Y137.78 E.15124
;WIDTH:0.913781
G1 X53.164 Y137.038 E.08254
;WIDTH:0.947764
G1 X53.181 Y136.776 E.03037
;WIDTH:0.981746
G1 X53.198 Y136.514 E.03154
;WIDTH:1.01573
G1 X53.215 Y136.252 E.03271
G1 X53.192 Y135.658 E.07406
;WIDTH:0.971194
G1 X53.184 Y134.979 E.08064
;WIDTH:0.969047
G1 X53.191 Y134.385 E.07038
;WIDTH:0.994741
G1 X53.204 Y134.043 E.0417
;WIDTH:1.02044
G1 X53.217 Y133.701 E.04285
G1 X53.195 Y133.404 E.03729
;WIDTH:0.975384
G1 X53.172 Y133.107 E.03554
;WIDTH:0.930331
G1 X53.157 Y132.389 E.08144
;WIDTH:0.899999
G1 X53.157 Y77.78 E5.97609
;WIDTH:0.913778
G1 X53.164 Y77.038 E.08254
;WIDTH:0.947763
G1 X53.181 Y76.776 E.03037
;WIDTH:0.981748
G1 X53.198 Y76.514 E.03154
;WIDTH:1.01573
G1 X53.215 Y76.252 E.03271
G1 X53.192 Y75.658 E.07406
;WIDTH:0.971193
G1 X53.184 Y74.979 E.08064
;WIDTH:0.969047
G1 X53.191 Y74.385 E.07038
;WIDTH:0.994741
G1 X53.204 Y74.043 E.0417
;WIDTH:1.02044
G1 X53.217 Y73.701 E.04285
G1 X53.195 Y73.404 E.03729
;WIDTH:0.975384
G1 X53.172 Y73.107 E.03554
;WIDTH:0.930331
G1 X53.157 Y72.389 E.08144
;WIDTH:0.899999
G1 X53.157 Y70.838 E.16973
G1 X71.832 Y38.157 E4.11915
G1 X87.62 Y38.157 E1.72775
;WIDTH:0.938471
G1 X88.214 Y38.176 E.06803
;WIDTH:0.96972
G1 X88.562 Y38.192 E.0413
;WIDTH:1.00097
G1 X88.909 Y38.207 E.0426
G1 X89.503 Y38.189 E.07289
;WIDTH:0.963953
G1 X90.179 Y38.185 E.07964
;WIDTH:0.977727
G1 X90.773 Y38.196 E.07106
G1 X91.117 Y38.179 E.0412
;WIDTH:0.944227
G1 X91.46 Y38.162 E.03957
;WIDTH:0.910727
G1 X92.054 Y38.157 E.06584
;WIDTH:0.899999
G1 X127.62 Y38.157 E3.89213
;WIDTH:0.938471
G1 X128.214 Y38.176 E.06803
;WIDTH:0.96972
G1 X128.562 Y38.192 E.0413
;WIDTH:1.00097
G1 X128.909 Y38.207 E.0426
G1 X129.503 Y38.189 E.07289
;WIDTH:0.963953
G1 X130.179 Y38.185 E.07964
;WIDTH:0.977719
G1 X130.774 Y38.196 E.07118
G1 X131.117 Y38.179 E.04108
;WIDTH:0.944186
G1 X131.461 Y38.162 E.03968
;WIDTH:0.910654
G1 X132.056 Y38.157 E.06595
;WIDTH:0.899999
G1 X167.62 Y38.157 E3.89192
;WIDTH:0.938443
G1 X168.214 Y38.176 E.06803
;WIDTH:0.969718
G1 X168.561 Y38.192 E.04119
;WIDTH:1.00099
G1 X168.908 Y38.207 E.0426
G1 X169.502 Y38.189 E.07289
;WIDTH:0.96397
G1 X170.179 Y38.185 E.07976
;WIDTH:0.977711
G1 X170.773 Y38.196 E.07106
G1 X171.117 Y38.179 E.0412
;WIDTH:0.944182
G1 X171.461 Y38.162 E.03968
;WIDTH:0.910652
G1 X172.055 Y38.157 E.06583
;WIDTH:0.899999
G1 X196.843 Y38.157 E2.71265
G1 X196.843 Y48.852 E1.1704
G1 X196.843 Y171.723 E13.44628
M204 S1000
;WIPE_START
G1 F8640
G1 X196.843 Y171.843 E-.02771
G1 X192.632 Y171.843 E-.97229
;WIPE_END
G1 Z.5 F720
G1 X197.679 Y172.679 F10800
G1 Z.3 F720
G1 E1 F1200
M204 S800
G1 X71.347 Y172.679 E13.82503
G1 X52.321 Y139.384 E4.19655
G1 X52.321 Y70.616 E7.52557
M73 Q0 S145
G1 X71.347 Y37.321 E4.19655
G1 X197.679 Y37.321 E13.82503
M73 P0 R144
G1 X197.679 Y48.852 E1.26189
G1 X197.679 Y172.559 E13.53777
M204 S1000
;WIPE_START
G1 F8640
M73 P1 R144
M73 Q1 S145
G1 X197.679 Y172.679 E-.02771
G1 X193.468 Y172.679 E-.97229
;WIPE_END
G1 Z.5 F720
G1 X198.514 Y173.514 F10800
G1 Z.3 F720
G1 E1 F1200
M204 S800
G1 X70.862 Y173.514 E13.96949
G1 X51.486 Y139.605 E4.27389
G1 X51.486 Y70.395 E7.57394
G1 X70.862 Y36.486 E4.27389
G1 X198.514 Y36.486 E13.96949
G1 X198.514 Y48.852 E1.35326
G1 X198.514 Y173.394 E13.62915
M204 S1000
;WIPE_START
G1 F8640
G1 X198.514 Y173.514 E-.02771
G1 X194.303 Y173.514 E-.97229
;WIPE_END
G1 Z.5 F720
G1 X199.35 Y174.35 F10800
G1 Z.3 F720
G1 E1 F1200
M204 S800
;TYPE:External perimeter
G1 X70.377 Y174.35 E14.11405
G1 X50.65 Y139.827 E4.35129
G1 X50.65 Y70.173 E7.62253
G1 X70.377 Y35.65 E4.35129
M73 Q1 S144
G1 X199.35 Y35.65 E14.11405
G1 X199.35 Y48.852 E1.44475
M73 P1 R143
G1 X199.35 Y174.23 E13.72063
M204 S1000
;WIPE_START
G1 F8640
G1 X199.35 Y174.35 E-.02771
G1 X195.139 Y174.35 E-.97229
;WIPE_END
G1 Z.5 F720
G1 X175.888 Y45.246 F10800
G1 Z.3 F720
G1 E1 F1200
M204 S800
;TYPE:Perimeter
G1 X175.871 Y45.587 E.03736
G1 X175.782 Y46.173 E.06486
G1 X175.639 Y46.734 E.06336
G1 X175.436 Y47.293 E.06508
G1 X175.182 Y47.821 E.06412
G1 X174.872 Y48.327 E.06494
G1 X174.523 Y48.788 E.06328
G1 X174.119 Y49.224 E.06505
G1 X173.681 Y49.611 E.06396
G1 X173.198 Y49.958 E.06508
G1 X172.694 Y50.248 E.06363
G1 X172.153 Y50.493 E.06499
G1 X171.601 Y50.678 E.06371
G1 X171.022 Y50.811 E.06501
G1 X170.681 Y50.867 E.03782
G1 X169.849 Y50.898 E.09111
G1 X169.334 Y50.865 E.05647
G1 X168.684 Y50.751 E.07222
G1 X168.172 Y50.612 E.05806
G1 X167.571 Y50.376 E.07066
G1 X167.109 Y50.146 E.05648
G1 X166.379 Y49.653 E.0964
G1 X165.979 Y49.324 E.05668
G1 X165.477 Y48.788 E.08037
G1 X165.128 Y48.327 E.06328
G1 X164.818 Y47.821 E.06494
G1 X164.564 Y47.293 E.06412
G1 X164.361 Y46.734 E.06508
G1 X164.218 Y46.173 E.06336
G1 X164.129 Y45.587 E.06486
G1 X164.1 Y45 E.06432
G1 X164.13 Y44.406 E.06509
G1 X164.217 Y43.834 E.06332
G1 X164.363 Y43.259 E.06492
G1 X164.562 Y42.713 E.0636
G1 X164.819 Y42.178 E.06495
G1 X165.124 Y41.678 E.06409
G1 X165.483 Y41.204 E.06507
G1 X165.88 Y40.777 E.0638
G1 X166.326 Y40.384 E.06505
G1 X166.797 Y40.046 E.06344
G1 X167.311 Y39.749 E.06496
G1 X167.841 Y39.509 E.06367
;WIDTH:0.938443
G1 X168.398 Y39.302 E.06802
;WIDTH:0.969718
G1 X168.682 Y39.221 E.03502
;WIDTH:1.00099
G1 X168.967 Y39.14 E.03634
G1 X169.558 Y39.085 E.07281
;WIDTH:0.96397
G1 X170.145 Y39.074 E.06917
;WIDTH:0.977711
G1 X170.739 Y39.108 E.07117
G1 X171.026 Y39.175 E.03525
;WIDTH:0.944182
G1 X171.312 Y39.243 E.03387
;WIDTH:0.910652
G1 X171.882 Y39.409 E.0658
;WIDTH:0.899999
G1 X172.425 Y39.622 E.06383
G1 X172.953 Y39.893 E.06495
G1 X173.498 Y40.255 E.0716
G1 X174.066 Y40.731 E.0811
G1 X174.517 Y41.204 E.07152
G1 X174.876 Y41.678 E.06507
G1 X175.181 Y42.178 E.06409
G1 X175.438 Y42.713 E.06495
G1 X175.637 Y43.259 E.0636
G1 X175.783 Y43.834 E.06492
G1 X175.87 Y44.406 E.06332
G1 X175.9 Y45 E.06509
G1 X175.894 Y45.127 E.01391
M204 S1000
G1 X175.894 Y45.127 F10800
G1 X175.057 Y45.207
M204 S800
G1 F1200
G1 X175.045 Y45.462 E.02794
G1 X174.956 Y46.048 E.06486
G1 X174.854 Y46.449 E.04528
G1 X174.651 Y47.007 E.06498
G1 X174.469 Y47.384 E.04581
G1 X174.159 Y47.891 E.06503
G1 X173.91 Y48.22 E.04515
G1 X173.506 Y48.656 E.06505
G1 X173.193 Y48.932 E.04567
G1 X172.71 Y49.279 E.06508
G1 X172.351 Y49.487 E.0454
G1 X171.809 Y49.731 E.06505
G1 X171.415 Y49.864 E.04551
G1 X170.592 Y50.036 E.09201
G1 X169.829 Y50.062 E.08355
G1 X169.414 Y50.031 E.04554
G1 X168.829 Y49.928 E.065
G1 X168.429 Y49.816 E.04546
G1 X167.876 Y49.599 E.06501
G1 X167.462 Y49.38 E.05125
G1 X166.85 Y48.962 E.0811
G1 X166.493 Y48.655 E.05153
G1 X166.09 Y48.22 E.06489
G1 X165.841 Y47.891 E.04515
G1 X165.531 Y47.384 E.06503
G1 X165.349 Y47.007 E.04581
G1 X165.146 Y46.449 E.06498
G1 X165.044 Y46.048 E.04528
G1 X164.955 Y45.462 E.06486
G1 X164.935 Y45.042 E.04601
G1 X164.965 Y44.449 E.06498
G1 X165.027 Y44.04 E.04527
G1 X165.173 Y43.465 E.06492
G1 X165.315 Y43.075 E.04542
G1 X165.572 Y42.54 E.06495
G1 X166.149 Y41.709 E.11071
G1 X166.878 Y41.011 E.11045
G1 X167.729 Y40.473 E.11018
G1 X168.671 Y40.112 E.1104
G1 X169.077 Y40.02 E.04556
G1 X169.666 Y39.946 E.06496
G1 X170.081 Y39.935 E.04543
G1 X170.674 Y39.98 E.06508
G1 X171.656 Y40.213 E.11045
G1 X172.572 Y40.636 E.11041
G1 X172.961 Y40.895 E.05114
G1 X173.529 Y41.371 E.0811
G1 X173.851 Y41.709 E.05109
G1 X174.21 Y42.183 E.06507
G1 X174.685 Y43.075 E.11059
G1 X174.827 Y43.465 E.04542
G1 X174.973 Y44.04 E.06492
G1 X175.035 Y44.449 E.04527
G1 X175.065 Y45.042 E.06498
G1 X175.063 Y45.087 E.00493
M204 S1000
G1 X175.063 Y45.087 F10800
G1 X174.215 Y45.214
M204 S800
G1 F1200
G1 X174.13 Y45.923 E.07814
G1 X173.865 Y46.722 E.09212
G1 X173.446 Y47.455 E.0924
G1 X172.893 Y48.088 E.09198
G1 X172.223 Y48.601 E.09235
G1 X171.466 Y48.969 E.09211
G1 X170.504 Y49.206 E.10842
G1 X169.808 Y49.227 E.0762
G1 X168.974 Y49.105 E.09224
G1 X168.181 Y48.821 E.09218
G1 X167.933 Y48.69 E.03069
G1 X167.314 Y48.268 E.08198
G1 X166.703 Y47.652 E.09495
G1 X166.244 Y46.948 E.09197
G1 X165.932 Y46.163 E.09244
G1 X165.782 Y45.337 E.09187
G1 X165.8 Y44.491 E.0926
G1 X165.983 Y43.671 E.09194
G1 X166.325 Y42.902 E.0921
G1 X166.815 Y42.214 E.09243
G1 X167.431 Y41.638 E.09229
G1 X168.147 Y41.196 E.09208
G1 X168.937 Y40.904 E.09217
G1 X169.769 Y40.775 E.09214
G1 X170.612 Y40.813 E.09235
G1 X171.429 Y41.017 E.09215
G1 X172.191 Y41.38 E.09237
G1 X172.992 Y42.011 E.11159
G1 X173.544 Y42.688 E.09559
G1 X173.932 Y43.437 E.09231
G1 X174.163 Y44.246 E.09207
G1 X174.231 Y45.085 E.09212
G1 X174.23 Y45.095 E.0011
M204 S1000
G1 X174.23 Y45.095 F10800
G1 X173.394 Y45.098
M204 S800
;TYPE:External perimeter
G1 F1200
G1 X173.396 Y45.128 E.00329
G1 X173.303 Y45.798 E.07402
G1 X173.08 Y46.437 E.07406
G1 X172.734 Y47.019 E.0741
G1 X172.28 Y47.52 E.07399
G1 X171.735 Y47.922 E.07411
G1 X171.122 Y48.208 E.07403
G1 X170.415 Y48.375 E.0795
G1 X169.787 Y48.392 E.06875
G1 X169.119 Y48.282 E.07409
G1 X168.486 Y48.043 E.07404
G1 X167.791 Y47.581 E.09133
G1 X167.316 Y47.084 E.07523
G1 X166.956 Y46.512 E.07396
G1 X166.717 Y45.878 E.07415
G1 X166.608 Y45.212 E.07385
G1 X166.634 Y44.534 E.07425
G1 X166.793 Y43.877 E.07397
G1 X167.078 Y43.264 E.07398
G1 X167.481 Y42.719 E.07418
G1 X167.983 Y42.265 E.07407
G1 X168.565 Y41.92 E.07404
G1 X169.203 Y41.696 E.074
G1 X169.873 Y41.604 E.07401
G1 X170.55 Y41.646 E.07423
G1 X171.203 Y41.822 E.07401
G1 X171.809 Y42.123 E.07405
G1 X172.455 Y42.651 E.0913
G1 X172.878 Y43.192 E.07515
G1 X173.179 Y43.799 E.07415
G1 X173.354 Y44.452 E.07398
G1 X173.387 Y44.978 E.05768
M204 S1000
;WIPE_START
G1 F8640
G1 X173.394 Y45.098 E-.02776
G1 X173.396 Y45.128 E-.00694
G1 X173.303 Y45.798 E-.15619
G1 X173.08 Y46.437 E-.15627
G1 X172.734 Y47.019 E-.15634
G1 X172.28 Y47.52 E-.15611
G1 X171.735 Y47.922 E-.15637
G1 X171.122 Y48.208 E-.15619
G1 X171.005 Y48.236 E-.02783
;WIPE_END
G1 Z.5 F720
G1 X135.345 Y47.49 F10800
G1 Z.3 F720
G1 E1 F1200
M204 S800
;TYPE:Perimeter
G1 X135.223 Y47.751 E.03153
G1 X134.872 Y48.327 E.07382
G1 X134.565 Y48.742 E.05649
G1 X134.119 Y49.224 E.07186
G1 X133.719 Y49.583 E.05882
G1 X133.198 Y49.958 E.07025
G1 X132.752 Y50.222 E.05672
G1 X132.153 Y50.493 E.07195
G1 X131.642 Y50.669 E.05914
G1 X131.022 Y50.811 E.06961
G1 X130.505 Y50.881 E.05709
G1 X129.85 Y50.898 E.0717
G1 X129.33 Y50.864 E.05703
G1 X128.684 Y50.751 E.07177
G1 X128.298 Y50.656 E.0435
G1 X127.571 Y50.376 E.08526
G1 X127.11 Y50.146 E.05638
G1 X126.554 Y49.788 E.07237
G1 X126.143 Y49.468 E.057
G1 X125.673 Y49.011 E.07174
G1 X125.343 Y48.627 E.05541
G1 X124.964 Y48.074 E.07337
G1 X124.718 Y47.636 E.05497
G1 X124.388 Y46.805 E.09785
G1 X124.218 Y46.172 E.07173
G1 X124.129 Y45.585 E.06497
G1 X124.1 Y45.003 E.06377
G1 X124.13 Y44.41 E.06498
G1 X124.217 Y43.834 E.06375
G1 X124.363 Y43.258 E.06503
G1 X124.563 Y42.71 E.06384
G1 X124.821 Y42.175 E.065
G1 X125.124 Y41.679 E.06361
G1 X125.482 Y41.206 E.06492
G1 X125.879 Y40.779 E.0638
G1 X126.324 Y40.386 E.06497
G1 X126.797 Y40.046 E.06375
G1 X127.311 Y39.749 E.06496
G1 X127.842 Y39.509 E.06377
;WIDTH:0.938471
G1 X128.398 Y39.302 E.06791
;WIDTH:0.96972
G1 X128.683 Y39.221 E.03513
;WIDTH:1.00097
G1 X128.967 Y39.14 E.03622
G1 X129.558 Y39.085 E.0728
;WIDTH:0.963953
G1 X130.146 Y39.074 E.06928
;WIDTH:0.977719
G1 X130.74 Y39.108 E.07117
G1 X131.026 Y39.175 E.03514
;WIDTH:0.944186
G1 X131.312 Y39.243 E.03387
;WIDTH:0.910654
G1 X131.883 Y39.409 E.0659
;WIDTH:0.899999
G1 X132.49 Y39.656 E.07172
G1 X133.141 Y40.011 E.08115
G1 X133.674 Y40.384 E.07119
G1 X134.12 Y40.777 E.06505
G1 X134.517 Y41.204 E.0638
G1 X134.876 Y41.678 E.06507
G1 X135.181 Y42.178 E.06409
G1 X135.438 Y42.713 E.06495
G1 X135.637 Y43.259 E.0636
G1 X135.783 Y43.834 E.06492
G1 X135.87 Y44.406 E.06332
G1 X135.9 Y45 E.06509
G1 X135.871 Y45.587 E.06432
G1 X135.782 Y46.173 E.06486
G1 X135.639 Y46.734 E.06336
G1 X135.436 Y47.293 E.06508
G1 X135.395 Y47.381 E.01062
M204 S1000
G1 X135.395 Y47.381 F10800
G1 X134.58 Y47.155
M204 S800
G1 F1200
G1 X134.469 Y47.384 E.02785
G1 X134.159 Y47.891 E.06503
G1 X133.909 Y48.221 E.04531
G1 X133.506 Y48.656 E.06489
G1 X133.193 Y48.932 E.04567
G1 X132.71 Y49.279 E.06508
G1 X132.351 Y49.487 E.0454
G1 X131.799 Y49.736 E.06627
G1 X131.415 Y49.864 E.0443
G1 X130.836 Y49.996 E.06499
G1 X130.423 Y50.048 E.04555
G1 X129.829 Y50.062 E.06502
G1 X129.414 Y50.031 E.04554
G1 X128.83 Y49.928 E.0649
G1 X128.554 Y49.86 E.03111
G1 X127.876 Y49.598 E.07954
G1 X127.506 Y49.409 E.04547
G1 X127.007 Y49.086 E.06505
G1 X126.682 Y48.827 E.04548
G1 X126.257 Y48.413 E.06493
G1 X125.989 Y48.094 E.04559
G1 X125.655 Y47.603 E.06499
