; generated by PrusaSlicer 2.7.2 on 2025-05-10 at 19:26:41 UTC


;
;
; 

; external perimeters extrusion width = 1.00mm
; perimeters extrusion width = 1.00mm
; infill extrusion width = 0.90mm
; solid infill extrusion width = 0.90mm
; top infill extrusion width = 0.80mm
; first layer extrusion width = 0.90mm

M73 P0 R164
M73 Q0 S165
M201 X1000 Y1000 Z200 E5000 ; sets maximum accelerations, mm/sec^2
M203 X200 Y200 Z12 E120 ; sets maximum feedrates, mm / sec
M204 S1250 T1250 ; sets acceleration (S) and retract acceleration (R), mm/sec^2
M205 X8.00 Y8.00 Z0.40 E4.50 ; sets the jerk limits, mm/sec
M205 S0 T0 ; sets the minimum extruding and travel feed rate, mm/sec

; printing object LidOne id:7 copy 0
; stop printing object LidOne id:7 copy 0

;TYPE:Custom
M862.3 P "MK3S" ; printer model check
M862.1 P0.8 ; nozzle diameter check
M115 U3.13.3 ; tell printer latest fw version
G90 ; use absolute coordinates
M83 ; extruder relative mode
M104 S240 ; set extruder temp
M140 S85 ; set bed temp
M190 S85 ; wait for bed temp
M109 S240 ; wait for extruder temp
G28 W ; home all without mesh bed level
G80 X26.811 Y33.6946 W183.507 H148.507 ; mesh bed levelling

G1 Z0.2 F720
G1 Y-3 F1000 ; go outside print area
G92 E0
G1 X60 E9 F1000 ; intro line
G1 X100 E12.5 F1000 ; intro line

G92 E0
M221 S95
G21 ; set units to millimeters
G90 ; use absolute coordinates
M83 ; use relative distances for extrusion

M900 K0.02 ; Filament gcode LA 1.5
; ; Filament gcode LA 1.0




M107
;LAYER_CHANGE
;Z:0.3
;HEIGHT:0.3
G1 E-1 F2100
G1 Z.5 F720
G1 X49.294 Y49.294 F10800
G1 Z.3 F720
G1 E1 F1200
M204 S800
;TYPE:Skirt/Brim
;WIDTH:0.9
G1 X63.352 Y35.236 E2.17566
G1 X64.83 Y34.317 E.19046
G1 X66.064 Y34.112 E.13689
G1 X206.064 Y34.112 E15.32079
G1 X207.759 Y34.507 E.19046
G1 X209.105 Y35.61 E.19044
G1 X209.9 Y37.948 E.27024
M73 Q0 S164
G1 X209.9 Y177.948 E15.32079
G1 X209.505 Y179.643 E.19046
M73 P0 R163
G1 X208.402 Y180.989 E.19044
G1 X206.064 Y181.784 E.27024
G1 X66.064 Y181.784 E15.32079
G1 X64.37 Y181.389 E.19035
G1 X63.352 Y180.66 E.13702
G1 X28.352 Y145.66 E5.41672
G1 X27.433 Y144.183 E.19037
G1 X27.229 Y142.948 E.13698
G1 X27.229 Y72.948 E7.6604
G1 X27.624 Y71.253 E.19046
G1 X28.352 Y70.236 E.13687
G1 X49.209 Y49.379 E3.2279
M204 S1000
; printing object LidOne id:7 copy 0
;WIPE_START
G1 F8640
G1 X49.294 Y49.294 E-.02776
G1 X52.271 Y46.317 E-.97224
;WIPE_END
G1 Z.5 F720
G1 X202.908 Y174.791 F10800
G1 Z.3 F720
G1 E1 F1200
M204 S800
;TYPE:Perimeter
;WIDTH:0.899999
G1 X178.508 Y174.791 E2.67019
;WIDTH:0.902943
G1 X177.796 Y174.79 E.07819
;WIDTH:0.945285
G1 X177.412 Y174.769 E.04437
;WIDTH:0.987628
G1 X177.028 Y174.747 E.04651
G1 X176.52 Y174.76 E.06144
;WIDTH:0.962358
G1 X175.841 Y174.764 E.07985
;WIDTH:0.980485
G1 X175.246 Y174.751 E.0714
G1 X174.95 Y174.766 E.03556
;WIDTH:0.950508
G1 X174.653 Y174.781 E.03451
;WIDTH:0.92053
G1 X173.952 Y174.791 E.07861
;WIDTH:0.899999
G1 X138.508 Y174.791 E3.87878
;WIDTH:0.902941
G1 X137.797 Y174.79 E.07808
;WIDTH:0.945284
G1 X137.412 Y174.769 E.04448
;WIDTH:0.987628
G1 X137.028 Y174.747 E.04651
G1 X136.52 Y174.76 E.06144
;WIDTH:0.962359
G1 X135.842 Y174.764 E.07973
;WIDTH:0.980458
G1 X135.247 Y174.751 E.0714
G1 X134.95 Y174.766 E.03568
;WIDTH:0.950476
G1 X134.653 Y174.781 E.03451
;WIDTH:0.920494
G1 X133.952 Y174.791 E.0786
;WIDTH:0.899999
G1 X98.507 Y174.791 E3.87889
;WIDTH:0.902932
G1 X97.796 Y174.79 E.07808
;WIDTH:0.945279
G1 X97.412 Y174.769 E.04437
;WIDTH:0.987627
G1 X97.028 Y174.747 E.04651
G1 X96.52 Y174.76 E.06144
;WIDTH:0.962358
G1 X95.842 Y174.764 E.07973
;WIDTH:0.980458
G1 X95.247 Y174.751 E.0714
G1 X94.95 Y174.766 E.03568
;WIDTH:0.950476
G1 X94.653 Y174.781 E.03451
;WIDTH:0.920494
G1 X93.952 Y174.791 E.0786
;WIDTH:0.899999
G1 X67.372 Y174.791 E2.90876
G1 X34.221 Y141.64 E5.13056
G1 X34.221 Y74.256 E7.37411
G1 X67.372 Y41.105 E5.13056
G1 X93.685 Y41.105 E2.87954
;WIDTH:0.938471
G1 X94.279 Y41.124 E.06803
;WIDTH:0.96972
G1 X94.626 Y41.14 E.04119
;WIDTH:1.00097
G1 X94.973 Y41.155 E.0426
G1 X95.567 Y41.137 E.07289
;WIDTH:0.963953
G1 X96.244 Y41.133 E.07976
;WIDTH:0.977727
G1 X96.838 Y41.144 E.07106
G1 X97.181 Y41.127 E.04108
;WIDTH:0.944227
G1 X97.525 Y41.11 E.03969
;WIDTH:0.910727
G1 X98.119 Y41.105 E.06584
;WIDTH:0.899999
G1 X133.685 Y41.105 E3.89213
;WIDTH:0.938469
G1 X134.279 Y41.124 E.06803
;WIDTH:0.969719
G1 X134.626 Y41.14 E.04119
;WIDTH:1.00097
G1 X134.973 Y41.155 E.0426
G1 X135.567 Y41.137 E.07289
;WIDTH:0.963953
G1 X136.244 Y41.133 E.07976
;WIDTH:0.977719
G1 X136.838 Y41.144 E.07106
G1 X137.182 Y41.127 E.0412
;WIDTH:0.944188
G1 X137.526 Y41.11 E.03968
;WIDTH:0.910657
G1 X138.12 Y41.105 E.06584
;WIDTH:0.899999
G1 X173.685 Y41.105 E3.89203
;WIDTH:0.938443
G1 X174.278 Y41.124 E.06791
;WIDTH:0.969718
G1 X174.626 Y41.14 E.0413
;WIDTH:1.00099
G1 X174.973 Y41.155 E.0426
G1 X175.566 Y41.137 E.07277
;WIDTH:0.96397
G1 X176.243 Y41.133 E.07976
;WIDTH:0.977711
G1 X176.838 Y41.144 E.07118
G1 X177.182 Y41.127 E.0412
;WIDTH:0.944182
G1 X177.526 Y41.11 E.03968
;WIDTH:0.910652
G1 X178.119 Y41.105 E.06572
;WIDTH:0.899999
G1 X202.908 Y41.105 E2.71276
G1 X202.908 Y51.8 E1.1704
G1 X202.908 Y174.671 E13.44628
M204 S1000
;WIPE_START
G1 F8640
G1 X202.908 Y174.791 E-.02771
G1 X198.697 Y174.791 E-.97229
;WIPE_END
G1 Z.5 F720
G1 X203.743 Y175.627 F10800
G1 Z.3 F720
G1 E1 F1200
M204 S800
G1 X67.026 Y175.627 E14.96151
G1 X33.386 Y141.987 E5.20624
G1 X33.386 Y73.91 E7.44995
M73 Q0 S163
G1 X67.026 Y40.269 E5.20631
M73 P0 R162
G1 X203.743 Y40.269 E14.96151
G1 X203.743 Y51.8 E1.26189
G1 X203.743 Y175.507 E13.53777
M204 S1000
;WIPE_START
G1 F8640
G1 X203.743 Y175.627 E-.02771
G1 X199.532 Y175.627 E-.97229
;WIPE_END
G1 Z.5 F720
G1 X204.579 Y176.462 F10800
G1 Z.3 F720
G1 E1 F1200
M204 S800
G1 X66.68 Y176.462 E15.09086
G1 X32.55 Y142.333 E5.28199
M73 P1 R162
M73 Q1 S163
G1 X32.55 Y73.563 E7.52579
G1 X66.68 Y39.434 E5.28199
G1 X204.579 Y39.434 E15.09086
G1 X204.579 Y51.8 E1.35326
G1 X204.579 Y176.342 E13.62915
M204 S1000
;WIPE_START
G1 F8640
G1 X204.579 Y176.462 E-.02771
G1 X200.368 Y176.462 E-.97229
;WIPE_END
G1 Z.5 F720
G1 X205.414 Y177.298 F10800
G1 Z.3 F720
G1 E1 F1200
M204 S800
;TYPE:External perimeter
G1 X66.334 Y177.298 E15.2201
G1 X31.714 Y142.679 E5.35783
G1 X31.714 Y73.217 E7.60151
M73 Q1 S162
G1 X66.334 Y38.598 E5.35783
M73 P1 R161
G1 X205.414 Y38.598 E15.2201
G1 X205.414 Y51.8 E1.44475
G1 X205.414 Y177.178 E13.72063
M204 S1000
;WIPE_START
G1 F8640
G1 X205.414 Y177.298 E-.02771
G1 X201.203 Y177.298 E-.97229
;WIPE_END
G1 Z.5 F720
G1 X181.952 Y48.194 F10800
G1 Z.3 F720
G1 E1 F1200
M204 S800
;TYPE:Perimeter
G1 X181.935 Y48.535 E.03736
G1 X181.846 Y49.121 E.06486
G1 X181.704 Y49.682 E.06333
G1 X181.501 Y50.241 E.06508
G1 X181.246 Y50.769 E.06417
G1 X180.936 Y51.275 E.06494
G1 X180.587 Y51.736 E.06328
G1 X180.184 Y52.172 E.06497
G1 X179.745 Y52.559 E.06404
G1 X179.262 Y52.906 E.06508
G1 X178.759 Y53.196 E.06354
G1 X178.217 Y53.441 E.06509
G1 X177.665 Y53.626 E.06371
G1 X177.086 Y53.759 E.06501
G1 X176.585 Y53.828 E.05534
G1 X175.834 Y53.847 E.08221
G1 X175.333 Y53.802 E.05505
G1 X174.748 Y53.699 E.065
G1 X174.237 Y53.56 E.05795
G1 X173.635 Y53.324 E.07076
G1 X173.173 Y53.094 E.05648
G1 X172.443 Y52.601 E.0964
G1 X172.043 Y52.272 E.05668
G1 X171.542 Y51.736 E.08029
G1 X171.192 Y51.275 E.06334
G1 X170.882 Y50.769 E.06494
G1 X170.628 Y50.241 E.06412
G1 X170.425 Y49.682 E.06508
G1 X170.282 Y49.121 E.06336
G1 X170.194 Y48.535 E.06485
G1 X170.165 Y47.948 E.06432
G1 X170.195 Y47.354 E.06509
G1 X170.281 Y46.782 E.0633
G1 X170.428 Y46.207 E.06495
G1 X170.626 Y45.661 E.06356
G1 X170.883 Y45.126 E.06495
G1 X171.189 Y44.626 E.06415
G1 X171.548 Y44.152 E.06507
G1 X171.945 Y43.725 E.0638
G1 X172.39 Y43.332 E.06497
G1 X172.861 Y42.994 E.06344
G1 X173.375 Y42.697 E.06496
G1 X173.906 Y42.458 E.06372
;WIDTH:0.938443
G1 X174.463 Y42.25 E.06806
;WIDTH:0.969718
G1 X174.747 Y42.169 E.03502
;WIDTH:1.00099
G1 X175.031 Y42.088 E.03622
G1 X175.622 Y42.033 E.07281
;WIDTH:0.96397
G1 X176.21 Y42.023 E.06928
;WIDTH:0.977711
G1 X176.804 Y42.056 E.07116
G1 X177.09 Y42.123 E.03514
;WIDTH:0.944182
G1 X177.376 Y42.191 E.03387
;WIDTH:0.910652
G1 X177.947 Y42.357 E.0659
;WIDTH:0.899999
G1 X178.489 Y42.57 E.06373
G1 X179.018 Y42.841 E.06504
G1 X179.563 Y43.203 E.0716
G1 X180.13 Y43.679 E.08102
G1 X180.581 Y44.152 E.07152
G1 X180.94 Y44.626 E.06507
G1 X181.246 Y45.126 E.06415
G1 X181.503 Y45.661 E.06495
G1 X181.701 Y46.207 E.06356
G1 X181.847 Y46.782 E.06492
G1 X181.934 Y47.354 E.06332
G1 X181.964 Y47.948 E.06509
G1 X181.958 Y48.075 E.01391
M204 S1000
G1 X181.958 Y48.075 F10800
G1 X181.122 Y48.155
M204 S800
G1 F1200
G1 X181.109 Y48.41 E.02794
G1 X181.02 Y48.996 E.06486
G1 X180.918 Y49.397 E.04528
G1 X180.715 Y49.955 E.06498
G1 X180.534 Y50.332 E.04577
G1 X180.224 Y50.839 E.06503
G1 X179.974 Y51.168 E.04522
G1 X179.571 Y51.604 E.06497
G1 X179.257 Y51.88 E.04575
G1 X178.775 Y52.227 E.06499
G1 X178.415 Y52.435 E.0455
G1 X177.874 Y52.679 E.06495
G1 X177.479 Y52.812 E.04561
G1 X176.9 Y52.944 E.06499
G1 X176.487 Y52.996 E.04555
G1 X175.836 Y53.011 E.07126
G1 X174.894 Y52.876 E.10414
G1 X174.494 Y52.764 E.04546
G1 X173.94 Y52.547 E.06511
G1 X173.527 Y52.328 E.05116
G1 X172.914 Y51.91 E.08119
G1 X172.558 Y51.603 E.05144
G1 X172.155 Y51.168 E.06489
G1 X171.905 Y50.839 E.04522
G1 X171.595 Y50.332 E.06503
G1 X171.414 Y49.955 E.04577
G1 X171.211 Y49.397 E.06498
G1 X171.109 Y48.996 E.04528
G1 X171.02 Y48.41 E.06486
G1 X170.999 Y47.99 E.04602
G1 X171.029 Y47.397 E.06498
G1 X171.091 Y46.988 E.04527
G1 X171.238 Y46.413 E.06495
G1 X171.379 Y46.023 E.04538
G1 X171.636 Y45.488 E.06495
G1 X172.214 Y44.657 E.11077
G1 X172.943 Y43.959 E.11045
G1 X173.793 Y43.421 E.11009
G1 X174.735 Y43.06 E.1104
G1 X175.141 Y42.968 E.04556
G1 X175.73 Y42.894 E.06496
G1 X176.145 Y42.883 E.04543
G1 X176.739 Y42.928 E.06519
G1 X177.72 Y43.161 E.11034
G1 X178.636 Y43.584 E.11041
G1 X179.026 Y43.843 E.05123
G1 X179.593 Y44.319 E.08102
G1 X179.915 Y44.657 E.05109
G1 X180.274 Y45.131 E.06507
G1 X180.75 Y46.023 E.11064
G1 X180.891 Y46.413 E.04538
G1 X181.038 Y46.988 E.06495
G1 X181.099 Y47.397 E.04525
G1 X181.13 Y47.99 E.06498
G1 X181.128 Y48.035 E.00493
M204 S1000
G1 X181.128 Y48.035 F10800
G1 X180.28 Y48.162
M204 S800
G1 F1200
G1 X180.194 Y48.871 E.07816
G1 X179.93 Y49.67 E.09209
G1 X179.511 Y50.403 E.0924
G1 X178.958 Y51.036 E.09198
G1 X178.287 Y51.549 E.09243
G1 X177.53 Y51.917 E.09211
G1 X176.714 Y52.129 E.09226
G1 X175.838 Y52.175 E.096
G1 X175.039 Y52.053 E.08845
G1 X174.246 Y51.769 E.09218
G1 X173.997 Y51.638 E.03079
G1 X173.379 Y51.216 E.08189
G1 X172.768 Y50.6 E.09495
G1 X172.308 Y49.896 E.09203
G1 X171.996 Y49.112 E.09234
G1 X171.846 Y48.285 E.09198
G1 X171.864 Y47.439 E.0926
G1 X172.047 Y46.619 E.09194
G1 X172.389 Y45.85 E.0921
G1 X172.88 Y45.162 E.0925
G1 X173.495 Y44.586 E.09221
G1 X174.211 Y44.144 E.09208
G1 X175.001 Y43.852 E.09217
G1 X175.834 Y43.723 E.09225
G1 X176.676 Y43.761 E.09224
G1 X177.494 Y43.965 E.09226
G1 X178.255 Y44.328 E.09227
G1 X179.056 Y44.959 E.11159
G1 X179.608 Y45.636 E.09559
G1 X179.996 Y46.385 E.09231
G1 X180.228 Y47.194 E.0921
G1 X180.295 Y48.033 E.09211
G1 X180.294 Y48.043 E.0011
M204 S1000
G1 X180.294 Y48.043 F10800
G1 X179.459 Y48.046
M204 S800
;TYPE:External perimeter
G1 F1200
G1 X179.461 Y48.076 E.00329
G1 X179.368 Y48.746 E.07402
G1 X179.144 Y49.385 E.0741
G1 X178.798 Y49.967 E.0741
G1 X178.345 Y50.468 E.07392
G1 X177.799 Y50.87 E.0742
G1 X177.186 Y51.156 E.07403
G1 X176.528 Y51.315 E.07408
G1 X175.84 Y51.34 E.07534
G1 X175.184 Y51.23 E.07279
G1 X174.551 Y50.991 E.07404
G1 X173.855 Y50.529 E.09142
G1 X173.381 Y50.033 E.07508
G1 X173.021 Y49.46 E.07405
G1 X172.782 Y48.826 E.07415
G1 X172.672 Y48.16 E.07387
G1 X172.698 Y47.482 E.07425
G1 X172.857 Y46.825 E.07397
G1 X173.143 Y46.212 E.07403
G1 X173.545 Y45.667 E.07411
G1 X174.048 Y45.213 E.07415
G1 X174.629 Y44.868 E.07395
G1 X175.268 Y44.644 E.0741
G1 X175.938 Y44.552 E.07401
G1 X176.614 Y44.594 E.07412
G1 X177.268 Y44.77 E.07412
G1 X177.874 Y45.071 E.07405
G1 X178.519 Y45.599 E.09122
G1 X178.943 Y46.141 E.07531
G1 X179.243 Y46.747 E.074
G1 X179.418 Y47.4 E.07398
G1 X179.451 Y47.926 E.05768
M204 S1000
;WIPE_START
G1 F8640
G1 X179.459 Y48.046 E-.02777
G1 X179.461 Y48.076 E-.00694
G1 X179.368 Y48.746 E-.15619
G1 X179.144 Y49.385 E-.15635
G1 X178.798 Y49.967 E-.15634
G1 X178.345 Y50.468 E-.15596
G1 X177.799 Y50.87 E-.15656
G1 X177.186 Y51.156 E-.15619
G1 X177.069 Y51.184 E-.0277
;WIPE_END
G1 Z.5 F720
G1 X132.587 Y43.191 F10800
G1 Z.3 F720
G1 E1 F1200
M204 S800
;TYPE:Perimeter
G1 X132.861 Y42.994 E.03693
G1 X133.376 Y42.697 E.06506
G1 X133.906 Y42.457 E.06367
;WIDTH:0.938469
G1 X134.463 Y42.25 E.06802
;WIDTH:0.969719
G1 X134.747 Y42.169 E.03502
;WIDTH:1.00097
G1 X135.031 Y42.088 E.03622
G1 X135.623 Y42.033 E.07293
;WIDTH:0.963953
G1 X136.21 Y42.023 E.06916
;WIDTH:0.977719
G1 X136.804 Y42.056 E.07116
G1 X137.09 Y42.123 E.03514
;WIDTH:0.944188
G1 X137.377 Y42.191 E.03398
;WIDTH:0.910657
G1 X137.947 Y42.357 E.0658
;WIDTH:0.899999
G1 X138.555 Y42.604 E.07182
G1 X139.205 Y42.959 E.08105
G1 X139.739 Y43.332 E.07128
G1 X140.184 Y43.725 E.06497
G1 X140.581 Y44.152 E.0638
G1 X140.94 Y44.626 E.06507
G1 X141.246 Y45.126 E.06415
G1 X141.503 Y45.661 E.06495
G1 X141.701 Y46.207 E.06356
G1 X141.847 Y46.782 E.06492
G1 X141.934 Y47.354 E.06332
G1 X141.964 Y47.948 E.06509
G1 X141.935 Y48.535 E.06432
G1 X141.846 Y49.121 E.06486
G1 X141.704 Y49.682 E.06333
G1 X141.501 Y50.241 E.06508
G1 X141.287 Y50.699 E.05532
G1 X140.936 Y51.275 E.07382
G1 X140.629 Y51.69 E.05649
G1 X140.184 Y52.172 E.07179
G1 X139.783 Y52.531 E.0589
G1 X139.262 Y52.906 E.07025
G1 X138.817 Y53.17 E.05662
G1 X138.217 Y53.441 E.07205
G1 X137.706 Y53.617 E.05914
G1 X137.086 Y53.759 E.06961
G1 X136.569 Y53.829 E.05709
G1 X135.914 Y53.846 E.0717
G1 X135.395 Y53.812 E.05692
G1 X134.749 Y53.699 E.07177
G1 X134.261 Y53.569 E.05527
G1 X133.472 Y53.255 E.09293
G1 X132.618 Y52.736 E.10936
G1 X132.207 Y52.416 E.057
G1 X131.738 Y51.959 E.07166
G1 X131.407 Y51.575 E.05548
G1 X131.029 Y51.022 E.0733
G1 X130.782 Y50.584 E.05503
G1 X130.452 Y49.753 E.09785
G1 X130.282 Y49.12 E.07173
G1 X130.194 Y48.533 E.06496
G1 X130.165 Y47.951 E.06377
G1 X130.194 Y47.358 E.06497
G1 X130.281 Y46.782 E.06375
G1 X130.428 Y46.207 E.06495
G1 X130.627 Y45.658 E.0639
G1 X130.885 Y45.123 E.065
G1 X131.188 Y44.627 E.06361
G1 X131.547 Y44.154 E.06498
G1 X131.943 Y43.727 E.06373
G1 X132.388 Y43.334 E.06497
G1 X132.49 Y43.261 E.01373
M204 S1000
G1 X132.49 Y43.261 F10800
G1 X133.148 Y43.829
M204 S800
G1 F1200
G1 X133.793 Y43.42 E.08358
G1 X134.735 Y43.06 E.11036
G1 X135.141 Y42.968 E.04556
G1 X135.731 Y42.894 E.06507
G1 X136.146 Y42.883 E.04543
G1 X136.739 Y42.928 E.06508
G1 X137.721 Y43.161 E.11045
G1 X138.155 Y43.338 E.05129
G1 X138.805 Y43.692 E.081
G1 X139.186 Y43.959 E.05091
G1 X139.632 Y44.352 E.06505
G1 X140.274 Y45.131 E.11047
G1 X140.75 Y46.023 E.11064
G1 X140.891 Y46.413 E.04538
G1 X141.038 Y46.988 E.06495
G1 X141.099 Y47.397 E.04525
G1 X141.13 Y47.99 E.06498
G1 X141.109 Y48.41 E.04602
G1 X141.02 Y48.996 E.06486
G1 X140.918 Y49.397 E.04528
G1 X140.715 Y49.955 E.06498
G1 X140.534 Y50.333 E.04586
G1 X140.224 Y50.839 E.06494
G1 X139.974 Y51.169 E.04531
G1 X139.571 Y51.604 E.06489
G1 X139.257 Y51.88 E.04575
G1 X138.775 Y52.227 E.06499
G1 X138.415 Y52.435 E.0455
G1 X137.863 Y52.684 E.06627
G1 X137.479 Y52.812 E.0443
G1 X136.9 Y52.944 E.06499
G1 X136.487 Y52.996 E.04555
G1 X135.894 Y53.01 E.06491
G1 X135.479 Y52.979 E.04554
G1 X134.894 Y52.876 E.065
G1 X134.493 Y52.763 E.04559
G1 X133.824 Y52.497 E.07879
G1 X133.072 Y52.034 E.09664
G1 X132.746 Y51.775 E.04556
G1 X132.321 Y51.361 E.06493
G1 X132.054 Y51.042 E.04552
G1 X131.719 Y50.551 E.06505
G1 X131.501 Y50.138 E.05111
G1 X131.23 Y49.448 E.08112
G1 X131.109 Y48.996 E.05121
G1 X131.02 Y48.408 E.06508
G1 X130.999 Y47.993 E.04547
G1 X131.029 Y47.399 E.06509
G1 X131.091 Y46.988 E.04549
G1 X131.237 Y46.413 E.06492
G1 X131.38 Y46.021 E.04566
G1 X131.638 Y45.486 E.065
G1 X132.213 Y44.658 E.11032
G1 X132.941 Y43.96 E.11037
G1 X133.046 Y43.894 E.01357
M204 S1000
G1 X133.046 Y43.894 F10800
G1 X133.604 Y44.519
M204 S800
G1 F1200
