; generated by PrusaSlicer 2.7.2 on 2025-05-10 at 19:27:45 UTC


;
;
; 

; external perimeters extrusion width = 1.00mm
; perimeters extrusion width = 1.00mm
; infill extrusion width = 0.90mm
; solid infill extrusion width = 0.90mm
; top infill extrusion width = 0.80mm
; first layer extrusion width = 0.90mm

M73 P0 R153
M73 Q0 S154
M201 X1000 Y1000 Z200 E5000 ; sets maximum accelerations, mm/sec^2
M203 X200 Y200 Z12 E120 ; sets maximum feedrates, mm / sec
M204 S1250 T1250 ; sets acceleration (S) and retract acceleration (R), mm/sec^2
M205 X8.00 Y8.00 Z0.40 E4.50 ; sets the jerk limits, mm/sec
M205 S0 T0 ; sets the minimum extruding and travel feed rate, mm/sec

; printing object Body id:8 copy 0
; stop printing object Body id:8 copy 0

;TYPE:Custom
M862.3 P "MK3S" ; printer model check
M862.1 P0.8 ; nozzle diameter check
M115 U3.13.3 ; tell printer latest fw version
G90 ; use absolute coordinates
M83 ; extruder relative mode
M104 S240 ; set extruder temp
M140 S85 ; set bed temp
M190 S85 ; wait for bed temp
M109 S240 ; wait for extruder temp
G28 W ; home all without mesh bed level
G80 X45.8172 Y34.7774 W168.615 H148.631 ; mesh bed levelling

G1 Z0.2 F720
G1 Y-3 F1000 ; go outside print area
G92 E0
G1 X60 E9 F1000 ; intro line
G1 X100 E12.5 F1000 ; intro line

G92 E0
M221 S95
G21 ; set units to millimeters
G90 ; use absolute coordinates
M83 ; use relative distances for extrusion

M900 K0.02 ; Filament gcode LA 1.5
; ; Filament gcode LA 1.0




M107
;LAYER_CHANGE
;Z:0.3
;HEIGHT:0.3
G1 E-1 F2100
G1 Z.5 F720
G1 X47.46 Y46.308 F10800
G1 Z.3 F720
G1 E1 F1200
M204 S800
;TYPE:Skirt/Brim
;WIDTH:0.9
G1 X57.468 Y36.316 E1.54763
G1 X58.946 Y35.398 E.1904
G1 X60.181 Y35.195 E.13696
G1 X210.133 Y35.319 E16.40988
G1 X211.876 Y35.716 E.19563
M73 P0 R152
G1 X213.221 Y36.82 E.19042
G1 X214.014 Y39.158 E.27017
G1 X213.898 Y179.158 E15.3208
G1 X213.502 Y180.853 E.19049
G1 X212.398 Y182.198 E.19042
G1 X210.061 Y182.991 E.27007
G1 X60.059 Y182.867 E16.41536
G1 X58.364 Y182.47 E.19051
M73 Q0 S153
G1 X57.348 Y181.741 E.13685
G1 X47.356 Y171.732 E1.54771
G1 X46.438 Y170.254 E.1904
G1 X46.235 Y169.019 E.13696
G1 X46.334 Y49.019 E13.13211
G1 X46.73 Y47.325 E.19038
G1 X47.39 Y46.406 E.12382
M204 S1000
; printing object Body id:8 copy 0
;WIPE_START
G1 F8640
G1 X47.46 Y46.308 E-.02781
G1 X50.44 Y43.333 E-.97219
;WIPE_END
G1 Z.5 F720
G1 X81.223 Y42.224 F10800
G1 Z.3 F720
G1 E1 F1200
M204 S800
;TYPE:Perimeter
;WIDTH:0.899999
G1 X80.907 Y43.133 E.10532
G1 X80.684 Y44.066 E.10498
G1 X80.553 Y45.026 E.10603
G1 X80.519 Y45.997 E.10633
G1 X80.581 Y46.946 E.10407
G1 X80.738 Y47.894 E.10516
G1 X80.988 Y48.822 E.10518
G1 X81.331 Y49.724 E.10561
G1 X81.76 Y50.583 E.10508
G1 X82.274 Y51.397 E.10535
G1 X82.867 Y52.158 E.10558
G1 X83.53 Y52.852 E.10503
G1 X84.261 Y53.479 E.10539
G1 X85.052 Y54.031 E.10556
G1 X85.891 Y54.499 E.10513
G1 X86.774 Y54.883 E.10537
G1 X87.457 Y55.112 E.07883
G1 X87.951 Y55.236 E.05574
G1 X88.785 Y55.396 E.09293
G1 X89.589 Y55.483 E.0885
G1 X90.55 Y55.493 E.10517
G1 X91.338 Y55.432 E.08649
G1 X92.455 Y55.227 E.12428
G1 X93.378 Y54.953 E.10536
G1 X94.269 Y54.589 E.10533
G1 X95.119 Y54.137 E.10535
G1 X95.683 Y53.773 E.07346
G1 X96.121 Y53.443 E.06001
G1 X96.661 Y52.995 E.07678
G1 X97.344 Y52.309 E.10594
G1 X97.95 Y51.566 E.10492
G1 X98.482 Y50.761 E.10559
G1 X98.928 Y49.913 E.10485
G1 X99.291 Y49.019 E.10559
G1 X99.563 Y48.091 E.10583
G1 X99.738 Y47.15 E.10474
G1 X99.821 Y46.189 E.10556
G1 X99.807 Y45.227 E.10529
G1 X99.698 Y44.275 E.10486
G1 X99.494 Y43.33 E.1058
G1 X99.297 Y42.689 E.07339
G1 X99.11 Y42.22 E.05525
G1 X133.373 Y42.248 E3.74954
G1 X133 Y42.631 E.05851
G1 X132.392 Y43.377 E.10532
G1 X131.86 Y44.182 E.10559
G1 X131.412 Y45.034 E.10534
G1 X131.052 Y45.925 E.10516
G1 X130.782 Y46.847 E.10514
G1 X130.604 Y47.793 E.10534
G1 X130.521 Y48.753 E.10545
G1 X130.535 Y49.717 E.10551
G1 X130.645 Y50.674 E.10542
G1 X130.849 Y51.612 E.10505
G1 X131.145 Y52.527 E.10524
G1 X131.531 Y53.408 E.10526
G1 X132.005 Y54.249 E.10565
G1 X132.539 Y55.013 E.10201
G1 X133.528 Y56.104 E.16115
G1 X134.262 Y56.733 E.10578
G1 X135.048 Y57.281 E.10486
G1 X135.889 Y57.751 E.10543
G1 X136.772 Y58.134 E.10533
G1 X137.689 Y58.427 E.10535
G1 X138.629 Y58.628 E.10519
G1 X139.585 Y58.734 E.10526
G1 X140.548 Y58.744 E.10539
G1 X141.506 Y58.659 E.10525
G1 X142.453 Y58.478 E.10551
G1 X143.375 Y58.204 E.10526
G1 X144.266 Y57.839 E.10537
G1 X145.116 Y57.388 E.1053
G1 X145.918 Y56.854 E.10544
G1 X146.661 Y56.243 E.10527
G1 X147.339 Y55.563 E.10508
G1 X147.947 Y54.817 E.10532
G1 X148.48 Y54.012 E.10565
G1 X148.999 Y52.99 E.12544
G1 X149.288 Y52.269 E.085
G1 X149.559 Y51.345 E.10538
G1 X149.736 Y50.401 E.10511
G1 X149.818 Y49.441 E.10544
G1 X149.804 Y48.477 E.10551
G1 X149.695 Y47.522 E.10519
G1 X149.491 Y46.582 E.10526
G1 X149.194 Y45.665 E.10548
G1 X148.808 Y44.786 E.10506
G1 X148.335 Y43.945 E.10559
G1 X147.781 Y43.158 E.10532
G1 X147.35 Y42.643 E.07349
G1 X146.978 Y42.259 E.05851
G1 X183.373 Y42.29 E3.98286
G1 X183.001 Y42.673 E.05843
G1 X182.392 Y43.418 E.1053
G1 X181.86 Y44.224 E.10569
G1 X181.412 Y45.076 E.10534
G1 X181.053 Y45.965 E.10492
G1 X180.781 Y46.89 E.10551
G1 X180.604 Y47.835 E.10521
G1 X180.521 Y48.795 E.10545
G1 X180.535 Y49.758 E.1054
G1 X180.645 Y50.713 E.1052
G1 X180.85 Y51.656 E.10561
G1 X181.146 Y52.568 E.10493
G1 X181.532 Y53.449 E.10526
G1 X182.005 Y54.291 E.10569
G1 X182.559 Y55.078 E.10532
G1 X183.24 Y55.855 E.11307
G1 X183.977 Y56.54 E.11011
G1 X184.259 Y56.772 E.03996
G1 X185.048 Y57.322 E.10525
G1 X185.889 Y57.792 E.10543
G1 X186.771 Y58.175 E.10523
G1 X187.688 Y58.469 E.10538
G1 X188.629 Y58.669 E.10528
G1 X189.585 Y58.775 E.10526
G1 X190.548 Y58.785 E.10539
G1 X191.508 Y58.7 E.10547
G1 X192.452 Y58.519 E.10519
G1 X193.374 Y58.245 E.10526
G1 X194.266 Y57.881 E.10543
G1 X195.114 Y57.431 E.10506
G1 X195.918 Y56.895 E.10574
G1 X196.661 Y56.285 E.1052
G1 X197.339 Y55.604 E.10516
G1 X197.949 Y54.856 E.10563
G1 X198.478 Y54.056 E.10496
G1 X198.928 Y53.201 E.10573
G1 X199.288 Y52.312 E.10496
G1 X199.559 Y51.387 E.10548
G1 X199.736 Y50.442 E.10521
G1 X199.819 Y49.482 E.10545
G1 X199.805 Y48.518 E.10551
G1 X199.695 Y47.564 E.10509
G1 X199.49 Y46.621 E.10561
G1 X199.194 Y45.709 E.10493
G1 X198.807 Y44.824 E.1057
G1 X198.336 Y43.989 E.10491
G1 X197.781 Y43.199 E.10565
G1 X197.35 Y42.685 E.07341
G1 X196.978 Y42.301 E.05851
G1 X207.019 Y42.309 E1.09883
G1 X207.016 Y46.082 E.4129
G1 X206.908 Y175.995 E14.21692
G1 X196.867 Y175.987 E1.09883
G1 X197.24 Y175.604 E.05851
G1 X197.85 Y174.856 E.10563
G1 X198.378 Y174.056 E.1049
G1 X198.829 Y173.201 E.10579
G1 X199.188 Y172.312 E.10492
G1 X199.46 Y171.387 E.10551
G1 X199.637 Y170.442 E.10521
G1 X199.719 Y169.482 E.10544
G1 X199.705 Y168.518 E.10551
G1 X199.596 Y167.564 E.10508
G1 X199.391 Y166.621 E.10561
G1 X199.095 Y165.709 E.10493
G1 X198.708 Y164.824 E.1057
G1 X198.237 Y163.989 E.10491
G1 X197.682 Y163.199 E.10565
G1 X197.054 Y162.472 E.10513
G1 X196.356 Y161.81 E.10528
G1 X195.593 Y161.219 E.10562
G1 X194.778 Y160.709 E.10521
G1 X193.915 Y160.282 E.10537
G1 X193.014 Y159.944 E.10531
G1 X192.085 Y159.696 E.10522
G1 X191.134 Y159.543 E.10541
G1 X190.218 Y159.484 E.10045
G1 X188.734 Y159.577 E.16272
G1 X187.788 Y159.758 E.1054
G1 X186.865 Y160.031 E.10533
G1 X185.974 Y160.396 E.10537
G1 X185.124 Y160.847 E.1053
G1 X184.323 Y161.381 E.10535
G1 X183.58 Y161.992 E.10527
G1 X182.901 Y162.673 E.10524
G1 X182.293 Y163.418 E.10523
G1 X181.76 Y164.224 E.10575
G1 X181.245 Y165.235 E.12417
G1 X180.953 Y165.964 E.08594
G1 X180.682 Y166.89 E.10559
G1 X180.505 Y167.835 E.10521
G1 X180.422 Y168.795 E.10545
G1 X180.436 Y169.758 E.1054
G1 X180.546 Y170.713 E.1052
G1 X180.75 Y171.656 E.10558
G1 X181.046 Y172.568 E.10493
G1 X181.432 Y173.449 E.10526
G1 X181.906 Y174.291 E.10574
G1 X182.459 Y175.078 E.10526
G1 X182.89 Y175.592 E.07341
G1 X183.27 Y175.976 E.05912
G1 X146.867 Y175.946 E3.98373
G1 X147.24 Y175.563 E.05851
G1 X147.848 Y174.817 E.10532
G1 X148.381 Y174.012 E.10565
G1 X148.828 Y173.161 E.10519
G1 X149.189 Y172.269 E.10531
G1 X149.459 Y171.345 E.10535
G1 X149.636 Y170.401 E.10511
G1 X149.719 Y169.441 E.10545
G1 X149.705 Y168.477 E.10551
G1 X149.596 Y167.522 E.10519
G1 X149.391 Y166.582 E.10529
G1 X149.094 Y165.665 E.10548
G1 X148.709 Y164.786 E.10501
G1 X148.235 Y163.945 E.10565
G1 X147.682 Y163.158 E.10526
G1 X147.053 Y162.43 E.10529
G1 X146.355 Y161.768 E.10528
G1 X145.594 Y161.179 E.10531
G1 X144.778 Y160.668 E.10536
G1 X143.915 Y160.241 E.10537
G1 X143.015 Y159.903 E.10521
G1 X142.085 Y159.655 E.10533
G1 X141.134 Y159.501 E.10543
G1 X140.101 Y159.446 E.11321
G1 X139.096 Y159.495 E.11011
G1 X138.734 Y159.536 E.03987
G1 X137.79 Y159.716 E.10517
G1 X136.864 Y159.991 E.10571
G1 X135.975 Y160.355 E.10513
G1 X135.126 Y160.805 E.10515
G1 X134.322 Y161.34 E.10568
G1 X133.579 Y161.951 E.10527
G1 X132.883 Y162.653 E.10818
G1 X132.292 Y163.379 E.10245
G1 X131.76 Y164.182 E.10541
G1 X131.245 Y165.194 E.12426
G1 X130.952 Y165.925 E.08618
G1 X130.682 Y166.847 E.10514
G1 X130.504 Y167.793 E.10534
G1 X130.422 Y168.753 E.10544
G1 X130.436 Y169.717 E.10551
G1 X130.546 Y170.674 E.10542
G1 X130.75 Y171.612 E.10505
G1 X131.046 Y172.527 E.10524
G1 X131.432 Y173.408 E.10526
G1 X131.905 Y174.249 E.10559
G1 X132.505 Y175.09 E.11306
G1 X133.26 Y175.935 E.12401
G1 X96.868 Y175.904 E3.98253
G1 X97.243 Y175.519 E.05882
G1 X97.848 Y174.775 E.10494
G1 X98.38 Y173.97 E.10559
G1 X98.826 Y173.122 E.10485
G1 X99.189 Y172.228 E.10559
G1 X99.461 Y171.301 E.10572
G1 X99.636 Y170.359 E.10485
G1 X99.719 Y169.399 E.10545
G1 X99.705 Y168.436 E.1054
G1 X99.596 Y167.484 E.10486
G1 X99.392 Y166.54 E.10569
G1 X99.094 Y165.622 E.10562
G1 X98.708 Y164.744 E.10496
G1 X98.234 Y163.902 E.10574
G1 X97.666 Y163.098 E.10773
G1 X97.052 Y162.387 E.10281
G1 X96.355 Y161.727 E.10505
G1 X95.831 Y161.308 E.07342
G1 X95.413 Y161.02 E.05555
G1 X94.675 Y160.573 E.09442
G1 X93.915 Y160.2 E.09265
G1 X93.015 Y159.861 E.10525
G1 X92.252 Y159.648 E.08669
G1 X91.134 Y159.46 E.12407
G1 X90.445 Y159.408 E.07561
G1 X89.925 Y159.413 E.05691
G1 X88.986 Y159.461 E.10289
G1 X88.459 Y159.542 E.05835
G1 X87.637 Y159.717 E.09197
G1 X86.866 Y159.949 E.08811
G1 X85.975 Y160.313 E.10533
G1 X85.124 Y160.765 E.10545
G1 X84.325 Y161.297 E.10505
G1 X83.579 Y161.909 E.10559
G1 X82.901 Y162.59 E.10516
G1 X82.291 Y163.339 E.10571
G1 X81.763 Y164.138 E.1048
G1 X81.313 Y164.992 E.10564
G1 X80.948 Y165.896 E.10669
G1 X80.682 Y166.807 E.10386
G1 X80.498 Y167.829 E.11364
G1 X80.422 Y168.845 E.1115
G1 X80.417 Y169.208 E.03973
G1 X80.479 Y170.156 E.10397
G1 X80.636 Y171.103 E.10505
G1 X80.886 Y172.032 E.10528
G1 X81.229 Y172.933 E.1055
G1 X81.658 Y173.793 E.10517
G1 X82.172 Y174.607 E.10535
G1 X82.765 Y175.368 E.10558
G1 X83.256 Y175.893 E.07866
G1 X61.372 Y175.875 E2.39486
G1 X53.229 Y167.718 E1.26132
G1 X53.326 Y50.333 E12.84593
G1 X61.483 Y42.189 E1.2614
M73 P0 R151
G1 X80.538 Y42.203 E2.08527
G1 X81.103 Y42.221 E.06186
M204 S1000
;WIPE_START
G1 F8640
G1 X81.223 Y42.224 E-.02772
G1 X80.907 Y43.133 E-.22221
G1 X80.684 Y44.066 E-.2215
G1 X80.553 Y45.026 E-.22372
G1 X80.519 Y45.997 E-.22434
G1 X80.542 Y46.345 E-.08051
;WIPE_END
G1 Z.5 F720
G1 X82.58 Y41.369 F10800
G1 Z.3 F720
G1 E1 F1200
M204 S800
G1 X82.382 Y41.712 E.04334
G1 X82.008 Y42.511 E.09654
G1 X81.717 Y43.34 E.09615
G1 X81.51 Y44.192 E.09595
G1 X81.388 Y45.067 E.09668
G1 X81.354 Y45.955 E.09725
G1 X81.407 Y46.822 E.09506
G1 X81.548 Y47.688 E.09602
G1 X81.774 Y48.537 E.09615
G1 X82.084 Y49.362 E.09645
G1 X82.474 Y50.148 E.09602
G1 X82.94 Y50.893 E.09616
G1 X83.48 Y51.59 E.09649
G1 X84.084 Y52.226 E.09599
G1 X84.75 Y52.801 E.09629
G1 X85.47 Y53.307 E.0963
G1 X86.235 Y53.738 E.09609
G1 X87.041 Y54.091 E.09629
G1 X88.138 Y54.421 E.12536
G1 X88.889 Y54.567 E.08372
G1 X89.61 Y54.648 E.0794
G1 X90.489 Y54.66 E.0962
G1 X91.192 Y54.607 E.07715
G1 X92.23 Y54.422 E.11538
G1 X93.073 Y54.175 E.09613
G1 X93.888 Y53.845 E.09622
G1 X94.522 Y53.52 E.07797
G1 X94.978 Y53.234 E.0589
G1 X95.601 Y52.789 E.08378
G1 X96.079 Y52.396 E.06772
G1 X96.704 Y51.772 E.09665
G1 X97.26 Y51.094 E.09595
G1 X97.749 Y50.361 E.09643
G1 X98.159 Y49.587 E.09585
G1 X98.493 Y48.772 E.09639
G1 X98.743 Y47.926 E.09654
G1 X98.907 Y47.066 E.09581
G1 X98.985 Y46.189 E.09635
G1 X98.975 Y45.309 E.09631
G1 X98.878 Y44.438 E.09591
G1 X98.695 Y43.576 E.09643
G1 X98.406 Y42.691 E.10188
G1 X97.992 Y41.773 E.1102
G1 X97.773 Y41.383 E.04895
G1 X135.839 Y41.415 E4.16572
G1 X134.942 Y41.994 E.11684
G1 X134.262 Y42.549 E.09605
G1 X133.64 Y43.169 E.09611
G1 X133.082 Y43.849 E.09626
G1 X132.593 Y44.582 E.09643
G1 X132.182 Y45.359 E.09619
G1 X131.85 Y46.172 E.0961
G1 X131.6 Y47.014 E.09612
G1 X131.435 Y47.878 E.09626
G1 X131.357 Y48.754 E.09624
G1 X131.366 Y49.634 E.09631
G1 X131.464 Y50.508 E.09624
G1 X131.648 Y51.367 E.09614
G1 X131.916 Y52.203 E.09607
G1 X132.266 Y53.009 E.09616
G1 X132.695 Y53.779 E.09646
G1 X133.152 Y54.442 E.08812
G1 X133.507 Y54.851 E.05927
G1 X134.081 Y55.478 E.09303
G1 X134.751 Y56.055 E.09676
G1 X135.466 Y56.557 E.0956
G1 X136.233 Y56.989 E.09633
G1 X137.039 Y57.342 E.09629
G1 X137.875 Y57.613 E.09617
G1 X138.734 Y57.799 E.09618
G1 X139.607 Y57.898 E.09615
G1 X140.486 Y57.911 E.0962
G1 X141.362 Y57.835 E.09622
G1 X142.228 Y57.673 E.09641
G1 X143.07 Y57.426 E.09603
G1 X143.886 Y57.096 E.09632
G1 X144.664 Y56.686 E.09624
G1 X145.397 Y56.2 E.09625
G1 X146.078 Y55.645 E.09614
G1 X146.7 Y55.025 E.09611
G1 X147.258 Y54.345 E.09626
G1 X147.746 Y53.612 E.09637
G1 X148.23 Y52.664 E.11648
G1 X148.49 Y52.022 E.0758
G1 X148.74 Y51.179 E.09622
G1 X148.904 Y50.317 E.09602
G1 X148.983 Y49.44 E.09636
G1 X148.973 Y48.56 E.09631
G1 X148.876 Y47.687 E.09612
G1 X148.692 Y46.827 E.09624
G1 X148.423 Y45.989 E.09631
G1 X148.074 Y45.185 E.09592
G1 X147.644 Y44.415 E.09651
G1 X147.141 Y43.695 E.09612
G1 X146.569 Y43.028 E.09616
G1 X145.933 Y42.421 E.09621
G1 X145.24 Y41.88 E.09621
G1 X144.514 Y41.422 E.09394
G1 X185.838 Y41.456 E4.52226
G1 X184.943 Y42.035 E.11665
G1 X184.262 Y42.591 E.09621
G1 X183.64 Y43.211 E.09611
G1 X183.082 Y43.89 E.09618
G1 X182.594 Y44.623 E.09637
G1 X182.182 Y45.4 E.09624
G1 X181.851 Y46.212 E.09596
G1 X181.6 Y47.056 E.09636
G1 X181.435 Y47.919 E.09615
G1 X181.357 Y48.796 E.09635
G1 X181.367 Y49.676 E.09631
G1 X181.464 Y50.548 E.09602
G1 X181.648 Y51.41 E.09646
G1 X181.916 Y52.245 E.09597
G1 X182.266 Y53.051 E.09616
G1 X182.696 Y53.82 E.09642
G1 X183.199 Y54.541 E.09621
G1 X183.809 Y55.243 E.10177
G1 X184.546 Y55.928 E.11011
G1 X184.748 Y56.094 E.02861
G1 X185.466 Y56.599 E.09606
G1 X186.233 Y57.03 E.09628
G1 X187.038 Y57.383 E.09619
G1 X187.875 Y57.654 E.09628
G1 X188.734 Y57.84 E.09618
G1 X189.607 Y57.94 E.09616
G1 X190.486 Y57.952 E.0962
G1 X191.363 Y57.877 E.09632
G1 X192.226 Y57.715 E.09609
G1 X193.07 Y57.467 E.09627
G1 X193.885 Y57.137 E.09622
M73 Q0 S152
G1 X194.662 Y56.728 E.09609
G1 X195.397 Y56.242 E.09643
G1 X196.078 Y55.686 E.09621
G1 X196.7 Y55.066 E.09611
G1 X197.259 Y54.385 E.09642
G1 X197.744 Y53.655 E.09591
G1 X198.158 Y52.876 E.09654
G1 X198.489 Y52.065 E.09586
G1 X198.74 Y51.221 E.09636
G1 X198.905 Y50.358 E.09615
G1 X198.983 Y49.481 E.09635
G1 X198.973 Y48.601 E.09631
G1 X198.876 Y47.728 E.09612
G1 X198.692 Y46.867 E.09635
G1 X198.424 Y46.032 E.09597
G1 X198.073 Y45.224 E.09641
G1 X197.645 Y44.458 E.09602
G1 X197.141 Y43.736 E.09636
G1 X196.569 Y43.069 E.09616
G1 X195.933 Y42.463 E.09614
G1 X195.239 Y41.921 E.09636
G1 X194.513 Y41.463 E.09394
G1 X207.855 Y41.474 E1.46007
G1 X207.852 Y46.082 E.50427
G1 X207.743 Y176.832 E14.30852
G1 X194.401 Y176.821 E1.46007
M73 P1 R151
M73 Q1 S152
G1 X195.298 Y176.242 E.11684
G1 X195.979 Y175.686 E.09621
G1 X196.601 Y175.066 E.09611
G1 X197.16 Y174.385 E.09642
G1 X197.645 Y173.655 E.09591
G1 X198.059 Y172.876 E.09654
G1 X198.39 Y172.065 E.09586
G1 X198.641 Y171.221 E.09636
G1 X198.805 Y170.358 E.09613
G1 X198.884 Y169.481 E.09636
G1 X198.874 Y168.601 E.09631
G1 X198.777 Y167.728 E.09612
G1 X198.593 Y166.867 E.09635
G1 X198.325 Y166.032 E.09597
G1 X197.974 Y165.224 E.09641
G1 X197.545 Y164.458 E.09608
G1 X197.042 Y163.736 E.0963
G1 X196.47 Y163.069 E.09616
G1 X195.834 Y162.462 E.09621
