; generated by PrusaSlicer 2.7.2 on 2025-05-13 at 05:48:43 UTC


;
;
; 

; external perimeters extrusion width = 1.00mm
; perimeters extrusion width = 1.00mm
; infill extrusion width = 0.90mm
; solid infill extrusion width = 0.90mm
; top infill extrusion width = 0.80mm
; first layer extrusion width = 0.90mm

M73 P0 R153
M73 Q0 S154
M201 X1000 Y1000 Z200 E5000 ; sets maximum accelerations, mm/sec^2
M203 X200 Y200 Z12 E120 ; sets maximum feedrates, mm / sec
M204 S1250 T1250 ; sets acceleration (S) and retract acceleration (R), mm/sec^2
M205 X8.00 Y8.00 Z0.40 E4.50 ; sets the jerk limits, mm/sec
M205 S0 T0 ; sets the minimum extruding and travel feed rate, mm/sec

; printing object Pad009 id:10 copy 0
; stop printing object Pad009 id:10 copy 0

;TYPE:Custom
M862.3 P "MK3S" ; printer model check
M862.1 P0.8 ; nozzle diameter check
M115 U3.13.3 ; tell printer latest fw version
G90 ; use absolute coordinates
M83 ; extruder relative mode
M104 S240 ; set extruder temp
M140 S85 ; set bed temp
M190 S85 ; wait for bed temp
M109 S240 ; wait for extruder temp
G28 W ; home all without mesh bed level
G80 X31.2248 Y40.186 W168.507 H148.507 ; mesh bed levelling

G1 Z0.2 F720
G1 Y-3 F1000 ; go outside print area
G92 E0
G1 X60 E9 F1000 ; intro line
G1 X100 E12.5 F1000 ; intro line

G92 E0
M221 S95
G21 ; set units to millimeters
G90 ; use absolute coordinates
M83 ; use relative distances for extrusion

M900 K0.02 ; Filament gcode LA 1.5
; ; Filament gcode LA 1.0




M107
;LAYER_CHANGE
;Z:0.3
;HEIGHT:0.3
G1 E-1 F2100
G1 Z.5 F720
G1 X42.247 Y42.247 F10800
G1 Z.3 F720
G1 E1 F1200
M204 S800
;TYPE:Skirt/Brim
;WIDTH:0.9
G1 X42.766 Y41.727 E.0804
G1 X44.244 Y40.808 E.19046
G1 X45.478 Y40.604 E.13687
G1 X195.478 Y40.604 E16.41513
G1 X197.173 Y40.999 E.19046
G1 X198.519 Y42.102 E.19044
G1 X199.314 Y44.439 E.27014
G1 X199.314 Y184.439 E15.32079
G1 X198.919 Y186.134 E.19046
G1 X197.816 Y187.48 E.19044
G1 X195.478 Y188.275 E.27024
G1 X45.478 Y188.275 E16.41513
G1 X43.783 Y187.88 E.19046
G1 X42.766 Y187.152 E.13687
G1 X32.766 Y177.152 E1.54763
G1 X31.847 Y175.674 E.19046
G1 X31.643 Y174.439 E.13698
G1 X31.643 Y54.439 E13.13211
G1 X32.037 Y52.745 E.19033
M73 P0 R152
G1 X32.766 Y51.727 E.13702
G1 X42.162 Y42.332 E1.45408
M204 S1000
; printing object Pad009 id:10 copy 0
;WIPE_START
G1 F8640
G1 X42.247 Y42.247 E-.02776
G1 X42.766 Y41.727 E-.16964
G1 X44.244 Y40.808 E-.40187
G1 X45.478 Y40.604 E-.2888
G1 X45.963 Y40.604 E-.11193
;WIPE_END
G1 Z.5 F720
G1 X192.321 Y181.283 F10800
G1 Z.3 F720
G1 E1 F1200
M204 S800
;TYPE:Perimeter
;WIDTH:0.899999
G1 X182.281 Y181.283 E1.09872
G1 X182.655 Y180.897 E.05882
G1 X183.261 Y180.152 E.10509
G1 X183.791 Y179.349 E.10529
G1 X184.238 Y178.498 E.10519
G1 X184.599 Y177.604 E.10551
G1 X184.869 Y176.679 E.10545
G1 X185.045 Y175.736 E.10498
G1 X185.127 Y174.775 E.10555
G1 X185.112 Y173.811 E.10551
G1 X185.002 Y172.858 E.10498
G1 X184.797 Y171.916 E.1055
G1 X184.47 Y170.934 E.11327
G1 X184.056 Y170.016 E.1102
G1 X183.888 Y169.697 E.03945
G1 X183.371 Y168.879 E.1059
G1 X182.781 Y168.125 E.10477
G1 X182.114 Y167.427 E.10565
G1 X181.384 Y166.802 E.10517
G1 X180.592 Y166.25 E.10565
G1 X179.753 Y165.783 E.10508
G1 X178.869 Y165.4 E.10543
G1 X177.952 Y165.107 E.10535
G1 X177.011 Y164.908 E.10526
G1 X176.055 Y164.802 E.10526
G1 X175.092 Y164.793 E.10539
G1 X174.133 Y164.879 E.10537
G1 X173.189 Y165.061 E.10521
G1 X172.266 Y165.335 E.10536
G1 X171.376 Y165.7 E.10527
G1 X170.525 Y166.153 E.1055
G1 X169.726 Y166.686 E.10511
G1 X168.982 Y167.298 E.10543
G1 X168.301 Y167.982 E.10563
G1 X167.696 Y168.727 E.10503
G1 X167.166 Y169.53 E.10529
G1 X166.642 Y170.563 E.12676
G1 X166.357 Y171.275 E.08393
G1 X166.087 Y172.2 E.10545
G1 X165.912 Y173.143 E.10496
G1 X165.83 Y174.104 E.10555
G1 X165.844 Y175.068 E.10551
G1 X165.955 Y176.021 E.105
G1 X166.159 Y176.963 E.10548
G1 X166.486 Y177.945 E.11327
G1 X166.901 Y178.863 E.11025
G1 X167.069 Y179.181 E.03936
G1 X167.586 Y180 E.10599
G1 X168.176 Y180.754 E.10477
G1 X168.669 Y181.283 E.07913
G1 X132.281 Y181.283 E3.98209
G1 X132.654 Y180.899 E.05858
G1 X133.261 Y180.152 E.10533
G1 X133.791 Y179.349 E.10529
G1 X134.239 Y178.497 E.10534
G1 X134.599 Y177.604 E.10537
G1 X134.869 Y176.68 E.10535
G1 X135.045 Y175.734 E.1053
G1 X135.126 Y174.703 E.11317
G1 X135.101 Y173.696 E.11023
G1 X135.069 Y173.333 E.03988
G1 X134.911 Y172.384 E.10528
G1 X134.66 Y171.455 E.10531
G1 X134.317 Y170.555 E.1054
G1 X133.886 Y169.695 E.10527
G1 X133.372 Y168.881 E.10535
G1 X132.779 Y168.123 E.10532
G1 X132.114 Y167.427 E.10534
G1 X131.383 Y166.801 E.10532
G1 X130.593 Y166.251 E.10534
M73 Q0 S153
G1 X129.752 Y165.783 E.10532
G1 X128.869 Y165.4 E.10533
G1 X127.952 Y165.107 E.10535
G1 X127.155 Y164.929 E.08937
G1 X126.054 Y164.802 E.12129
G1 X125.092 Y164.793 E.10528
G1 X124.133 Y164.879 E.10537
G1 X123.188 Y165.061 E.10532
G1 X122.266 Y165.335 E.10526
G1 X121.375 Y165.7 E.10537
G1 X120.525 Y166.152 E.10535
G1 X119.725 Y166.686 E.10526
G1 X118.981 Y167.298 E.10543
G1 X118.257 Y168.036 E.11314
G1 X117.42 Y169.122 E.15005
G1 X116.931 Y169.951 E.10533
G1 X116.526 Y170.824 E.10532
G1 X116.211 Y171.733 E.10528
G1 X115.987 Y172.67 E.10543
G1 X115.858 Y173.623 E.10524
G1 X115.825 Y174.585 E.10534
G1 X115.887 Y175.546 E.10538
G1 X116.045 Y176.495 E.10528
G1 X116.297 Y177.424 E.10534
G1 X116.64 Y178.324 E.1054
G1 X117.07 Y179.184 E.10522
G1 X117.585 Y179.998 E.10541
G1 X118.177 Y180.756 E.10525
G1 X118.669 Y181.283 E.0789
G1 X82.281 Y181.283 E3.98209
G1 X82.699 Y180.843 E.06642
G1 X83.327 Y180.056 E.11018
G1 X83.537 Y179.757 E.03998
G1 X84.026 Y178.928 E.10533
G1 X84.43 Y178.055 E.10527
G1 X84.746 Y177.145 E.10542
G1 X84.969 Y176.209 E.1053
G1 X85.098 Y175.256 E.10524
G1 X85.132 Y174.294 E.10534
G1 X85.069 Y173.333 E.10539
G1 X84.911 Y172.384 E.10528
G1 X84.66 Y171.455 E.10531
G1 X84.317 Y170.555 E.1054
G1 X83.886 Y169.695 E.10527
G1 X83.372 Y168.881 E.10535
G1 X82.779 Y168.123 E.10532
G1 X82.114 Y167.427 E.10534
G1 X81.383 Y166.801 E.10532
G1 X80.593 Y166.251 E.10534
G1 X79.909 Y165.859 E.08627
G1 X78.869 Y165.4 E.1244
G1 X77.813 Y165.076 E.12088
G1 X76.973 Y164.903 E.09385
G1 X76.054 Y164.802 E.10118
G1 X75.092 Y164.793 E.10528
G1 X74.386 Y164.846 E.07748
G1 X73.86 Y164.927 E.05824
G1 X73.031 Y165.105 E.09279
G1 X72.266 Y165.335 E.08742
G1 X71.375 Y165.7 E.10537
G1 X70.525 Y166.152 E.10535
G1 X69.725 Y166.687 E.10532
G1 X68.981 Y167.298 E.10536
G1 X68.257 Y168.036 E.11314
G1 X67.629 Y168.823 E.11018
G1 X67.42 Y169.122 E.03992
G1 X66.931 Y169.951 E.10533
G1 X66.526 Y170.824 E.10532
G1 X66.211 Y171.733 E.10528
G1 X65.987 Y172.67 E.10543
G1 X65.858 Y173.623 E.10524
G1 X65.825 Y174.585 E.10534
G1 X65.887 Y175.546 E.10538
G1 X66.045 Y176.495 E.10528
G1 X66.297 Y177.424 E.10534
G1 X66.64 Y178.324 E.1054
G1 X67.07 Y179.184 E.10522
G1 X67.585 Y179.998 E.10541
G1 X68.177 Y180.756 E.10525
G1 X68.669 Y181.283 E.0789
G1 X46.786 Y181.283 E2.39475
G1 X38.635 Y173.132 E1.26148
G1 X38.635 Y55.747 E12.84593
G1 X46.786 Y47.596 E1.26148
G1 X68.676 Y47.596 E2.39551
G1 X68.257 Y48.036 E.06649
G1 X67.629 Y48.823 E.11018
G1 X67.42 Y49.122 E.03992
G1 X66.931 Y49.951 E.10533
G1 X66.526 Y50.824 E.10532
G1 X66.211 Y51.733 E.10528
G1 X65.987 Y52.67 E.10543
G1 X65.858 Y53.623 E.10524
G1 X65.825 Y54.585 E.10534
G1 X65.887 Y55.546 E.10538
G1 X66.045 Y56.495 E.10528
G1 X66.297 Y57.424 E.10534
G1 X66.64 Y58.324 E.1054
G1 X67.07 Y59.184 E.10522
G1 X67.585 Y59.998 E.10541
G1 X68.177 Y60.756 E.10525
G1 X68.842 Y61.452 E.10534
G1 X69.573 Y62.078 E.10532
G1 X70.363 Y62.628 E.10534
G1 X71.204 Y63.096 E.10532
G1 X71.862 Y63.393 E.079
G1 X72.354 Y63.569 E.05718
G1 X73.171 Y63.81 E.09322
G1 X73.945 Y63.971 E.08652
G1 X74.902 Y64.077 E.10537
G1 X75.865 Y64.086 E.10539
G1 X76.589 Y64.031 E.07946
G1 X77.768 Y63.818 E.13111
G1 X78.799 Y63.501 E.11804
G1 X79.581 Y63.179 E.09255
G1 X80.355 Y62.774 E.0956
G1 X81.231 Y62.192 E.11509
G1 X82.035 Y61.522 E.11453
G1 X82.699 Y60.843 E.10393
G1 X83.537 Y59.757 E.15011
G1 X84.026 Y58.928 E.10533
G1 X84.43 Y58.055 E.10527
G1 X84.746 Y57.145 E.10542
G1 X84.969 Y56.209 E.1053
G1 X85.098 Y55.256 E.10524
G1 X85.132 Y54.294 E.10534
G1 X85.069 Y53.333 E.10539
G1 X84.911 Y52.384 E.10528
G1 X84.66 Y51.455 E.10531
G1 X84.317 Y50.555 E.1054
G1 X83.886 Y49.695 E.10527
G1 X83.372 Y48.881 E.10535
G1 X82.779 Y48.123 E.10532
G1 X82.288 Y47.596 E.07882
G1 X118.676 Y47.596 E3.98209
G1 X118.257 Y48.036 E.06649
G1 X117.629 Y48.823 E.11018
G1 X117.42 Y49.122 E.03992
G1 X116.931 Y49.951 E.10533
G1 X116.526 Y50.824 E.10532
G1 X116.211 Y51.733 E.10528
G1 X115.987 Y52.67 E.10543
G1 X115.858 Y53.623 E.10524
G1 X115.825 Y54.585 E.10534
G1 X115.887 Y55.546 E.10538
G1 X116.045 Y56.495 E.10528
G1 X116.297 Y57.424 E.10534
G1 X116.64 Y58.324 E.1054
G1 X117.07 Y59.184 E.10522
G1 X117.585 Y59.998 E.10541
G1 X118.177 Y60.756 E.10525
G1 X118.842 Y61.452 E.10534
G1 X119.582 Y62.084 E.1065
G1 X120.363 Y62.628 E.10416
G1 X121.204 Y63.096 E.10532
G1 X122.087 Y63.479 E.10533
G1 X123.005 Y63.772 E.10545
G1 X123.945 Y63.971 E.10515
G1 X124.902 Y64.077 E.10537
G1 X125.865 Y64.086 E.10539
G1 X126.823 Y64 E.10526
G1 X127.768 Y63.818 E.10532
G1 X128.691 Y63.544 E.10536
G1 X129.581 Y63.179 E.10527
G1 X130.431 Y62.727 E.10535
G1 X131.231 Y62.192 E.10532
G1 X131.975 Y61.581 E.10536
G1 X132.654 Y60.899 E.10532
G1 X133.261 Y60.152 E.10533
G1 X133.791 Y59.349 E.10529
G1 X134.309 Y58.329 E.12519
G1 X134.599 Y57.604 E.08545
G1 X134.869 Y56.68 E.10535
G1 X135.046 Y55.734 E.10532
G1 X135.126 Y54.703 E.11317
G1 X135.101 Y53.696 E.11023
G1 X135.069 Y53.333 E.03988
G1 X134.911 Y52.384 E.10528
G1 X134.66 Y51.455 E.10531
G1 X134.317 Y50.555 E.1054
G1 X133.886 Y49.695 E.10527
G1 X133.372 Y48.881 E.10535
G1 X132.779 Y48.123 E.10532
G1 X132.288 Y47.596 E.07882
G1 X168.676 Y47.596 E3.98209
G1 X168.301 Y47.982 E.05889
G1 X167.696 Y48.727 E.10503
G1 X167.166 Y49.53 E.10529
G1 X166.719 Y50.381 E.10519
G1 X166.357 Y51.275 E.10555
G1 X166.087 Y52.2 E.10545
G1 X165.912 Y53.143 E.10496
G1 X165.83 Y54.104 E.10555
G1 X165.844 Y55.068 E.10551
G1 X165.955 Y56.021 E.105
G1 X166.159 Y56.963 E.10548
G1 X166.357 Y57.603 E.07331
G1 X166.551 Y58.089 E.05727
G1 X167.069 Y59.181 E.13227
G1 X167.586 Y60 E.10599
G1 X167.992 Y60.535 E.0735
G1 X168.321 Y60.911 E.05468
G1 X168.842 Y61.452 E.08219
G1 X169.573 Y62.077 E.10525
G1 X170.364 Y62.629 E.10556
G1 X171.203 Y63.096 E.10508
G1 X172.088 Y63.479 E.10553
G1 X173.004 Y63.771 E.10521
G1 X173.945 Y63.971 E.10528
G1 X174.902 Y64.077 E.10537
G1 X175.865 Y64.086 E.10539
G1 X176.823 Y64 E.10526
G1 X177.768 Y63.818 E.10532
G1 X178.691 Y63.544 E.10536
G1 X179.58 Y63.179 E.10517
G1 X180.432 Y62.726 E.1056
G1 X181.231 Y62.193 E.10511
G1 X181.975 Y61.581 E.10543
G1 X182.655 Y60.897 E.10555
G1 X183.261 Y60.152 E.10509
G1 X183.791 Y59.349 E.10529
G1 X184.238 Y58.498 E.10519
G1 X184.599 Y57.604 E.10551
G1 X184.869 Y56.679 E.10545
G1 X185.045 Y55.736 E.10498
G1 X185.127 Y54.775 E.10555
G1 X185.112 Y53.811 E.10551
G1 X185.002 Y52.858 E.10498
G1 X184.797 Y51.916 E.1055
G1 X184.47 Y50.934 E.11327
G1 X184.056 Y50.016 E.1102
G1 X183.888 Y49.697 E.03945
G1 X183.371 Y48.879 E.1059
G1 X182.781 Y48.125 E.10477
G1 X182.288 Y47.596 E.07913
G1 X192.321 Y47.596 E1.09795
G1 X192.321 Y51.369 E.4129
G1 X192.321 Y181.163 E14.2039
M204 S1000
;WIPE_START
G1 F8640
G1 X192.321 Y181.283 E-.02771
G1 X188.11 Y181.283 E-.97229
;WIPE_END
G1 Z.5 F720
G1 X193.157 Y182.118 F10800
G1 Z.3 F720
G1 E1 F1200
M204 S800
G1 X179.816 Y182.118 E1.45996
G1 X180.71 Y181.539 E.11656
G1 X181.391 Y180.983 E.09621
G1 X182.015 Y180.36 E.09649
G1 X182.57 Y179.681 E.09597
G1 X183.057 Y178.949 E.09621
G1 X183.468 Y178.173 E.0961
G1 X183.801 Y177.358 E.09635
G1 X184.05 Y176.513 E.0964
G1 X184.213 Y175.653 E.09579
G1 X184.291 Y174.775 E.09646
G1 X184.281 Y173.894 E.09642
G1 X184.183 Y173.023 E.09592
G1 X183.999 Y172.162 E.09635
G1 X183.709 Y171.278 E.10181
G1 X183.294 Y170.36 E.11025
G1 X183.174 Y170.132 E.0282
G1 X182.705 Y169.384 E.09662
G1 X182.168 Y168.693 E.09577
G1 X181.562 Y168.054 E.09637
G1 X180.896 Y167.48 E.09622
G1 X180.175 Y166.974 E.09639
G1 X179.409 Y166.545 E.09608
G1 X178.603 Y166.192 E.09629
G1 X177.766 Y165.922 E.09624
G1 X176.907 Y165.737 E.09616
G1 X176.034 Y165.638 E.09615
G1 X175.154 Y165.626 E.09631
G1 X174.278 Y165.702 E.09622
G1 X173.415 Y165.865 E.09611
G1 X172.571 Y166.113 E.09627
G1 X171.757 Y166.444 E.09616
G1 X170.978 Y166.855 E.09639
G1 X170.247 Y167.34 E.096
G1 X169.565 Y167.896 E.09629
G1 X168.942 Y168.519 E.09642
G1 X168.386 Y169.198 E.09604
G1 X167.899 Y169.93 E.09621
G1 X167.412 Y170.888 E.11761
G1 X167.156 Y171.521 E.07472
G1 X166.906 Y172.365 E.09633
G1 X166.743 Y173.226 E.0959
G1 X166.665 Y174.104 E.09646
G1 X166.676 Y174.984 E.09631
G1 X166.774 Y175.856 E.09603
G1 X166.958 Y176.716 E.09624
G1 X167.248 Y177.601 E.10192
G1 X167.662 Y178.519 E.1102
G1 X167.782 Y178.747 E.0282
G1 X168.251 Y179.495 E.09662
G1 X168.789 Y180.186 E.09584
G1 X169.395 Y180.825 E.09637
G1 X170.061 Y181.399 E.09622
G1 X170.605 Y181.791 E.07338
G1 X171.152 Y182.118 E.06974
G1 X129.816 Y182.118 E4.52357
G1 X130.711 Y181.539 E.11665
G1 X131.392 Y180.983 E.09621
G1 X132.014 Y180.362 E.09619
G1 X132.571 Y179.681 E.09628
G1 X133.058 Y178.949 E.09621
G1 X133.469 Y178.172 E.09619
G1 X133.801 Y177.358 E.0962
G1 X134.05 Y176.515 E.09619
G1 X134.214 Y175.651 E.09624
G1 X134.291 Y174.723 E.1019
G1 X134.265 Y173.717 E.11013
G1 X134.243 Y173.458 E.02845
G1 X134.101 Y172.59 E.09625
G1 X133.875 Y171.741 E.09615
G1 X133.564 Y170.918 E.09628
G1 X133.173 Y170.131 E.09617
G1 X132.706 Y169.386 E.09622
G1 X132.167 Y168.691 E.09625
G1 X131.561 Y168.054 E.09622
G1 X130.895 Y167.48 E.09622
G1 X130.175 Y166.975 E.09624
G1 X129.409 Y166.544 E.09618
G1 X128.603 Y166.192 E.09625
G1 X127.766 Y165.922 E.09624
G1 X127.063 Y165.762 E.0789
G1 X126.034 Y165.638 E.11342
G1 X125.154 Y165.626 E.09631
G1 X124.278 Y165.702 E.09622
G1 X123.414 Y165.865 E.09622
G1 X122.571 Y166.113 E.09616
G1 X121.756 Y166.444 E.09626
G1 X120.979 Y166.854 E.09614
G1 X120.246 Y167.34 E.09625
G1 X119.565 Y167.896 E.09621
G1 X118.91 Y168.557 E.10184
G1 X118.133 Y169.558 E.13867
G1 X117.684 Y170.313 E.09613
G1 X117.312 Y171.11 E.09625
G1 X117.021 Y171.94 E.09625
G1 X116.814 Y172.794 E.09616
G1 X116.693 Y173.665 E.09623
G1 X116.66 Y174.544 E.09626
G1 X116.714 Y175.421 E.09616
G1 X116.855 Y176.289 E.09623
G1 X117.082 Y177.138 E.09617
G1 X117.392 Y177.961 E.09624
G1 X117.783 Y178.748 E.09617
G1 X118.251 Y179.493 E.09628
G1 X118.79 Y180.188 E.09625
G1 X119.395 Y180.825 E.09614
G1 X120.061 Y181.399 E.09622
G1 X120.606 Y181.791 E.07347
G1 X121.152 Y182.118 E.06965
G1 X79.816 Y182.118 E4.52357
G1 X80.711 Y181.539 E.11665
G1 X81.392 Y180.983 E.09621
G1 X82.046 Y180.322 E.10176
G1 X82.674 Y179.535 E.11018
G1 X82.823 Y179.321 E.02854
G1 X83.273 Y178.566 E.09619
G1 X83.645 Y177.769 E.09625
G1 X83.936 Y176.939 E.09625
G1 X84.143 Y176.085 E.09616
G1 X84.264 Y175.214 E.09623
G1 X84.297 Y174.335 E.09626
G1 X84.243 Y173.458 E.09616
G1 X84.101 Y172.59 E.09625
G1 X83.875 Y171.741 E.09615
G1 X83.564 Y170.918 E.09628
G1 X83.173 Y170.13 E.09627
G1 X82.706 Y169.386 E.09613
G1 X82.167 Y168.691 E.09625
G1 X81.561 Y168.054 E.09622
G1 X80.895 Y167.48 E.09622
G1 X80.184 Y166.98 E.09512
G1 X79.594 Y166.639 E.07457
G1 X78.603 Y166.192 E.11897
G1 X77.627 Y165.89 E.1118
G1 X76.869 Y165.732 E.08473
G1 X76.034 Y165.638 E.09195
G1 X75.154 Y165.626 E.09631
G1 X74.485 Y165.676 E.07342
G1 X74.006 Y165.75 E.05304
G1 X73.258 Y165.909 E.08369
G1 X72.571 Y166.113 E.07843
G1 X71.756 Y166.444 E.09626
G1 X70.979 Y166.854 E.09614
G1 X70.246 Y167.34 E.09625
G1 X69.565 Y167.896 E.09621
G1 X68.91 Y168.557 E.10184
G1 X68.283 Y169.344 E.11012
G1 X68.133 Y169.558 E.0286
G1 X67.684 Y170.313 E.09613
G1 X67.312 Y171.11 E.09625
G1 X67.021 Y171.94 E.09625
G1 X66.814 Y172.794 E.09616
G1 X66.693 Y173.665 E.09623
G1 X66.66 Y174.544 E.09626
G1 X66.714 Y175.421 E.09616
G1 X66.855 Y176.289 E.09623
G1 X67.082 Y177.138 E.09617
G1 X67.392 Y177.961 E.09624
G1 X67.783 Y178.748 E.09617
G1 X68.251 Y179.493 E.09628
G1 X68.79 Y180.188 E.09625
G1 X69.395 Y180.825 E.09614
G1 X70.061 Y181.399 E.09622
G1 X70.606 Y181.791 E.07347
