; generated by PrusaSlicer 2.7.2 on 2025-05-10 at 19:35:10 UTC


;
;
; 

; external perimeters extrusion width = 1.00mm
; perimeters extrusion width = 1.00mm
; infill extrusion width = 0.90mm
; solid infill extrusion width = 0.90mm
; top infill extrusion width = 0.80mm
; first layer extrusion width = 0.90mm

; external perimeters extrusion width = 1.00mm
; perimeters extrusion width = 1.00mm
; infill extrusion width = 0.90mm
; solid infill extrusion width = 0.90mm
; top infill extrusion width = 0.80mm
; first layer extrusion width = 0.90mm

; external perimeters extrusion width = 1.00mm
; perimeters extrusion width = 1.00mm
; infill extrusion width = 0.90mm
; solid infill extrusion width = 0.90mm
; top infill extrusion width = 0.80mm
; first layer extrusion width = 0.90mm

; external perimeters extrusion width = 1.00mm
; perimeters extrusion width = 1.00mm
; infill extrusion width = 0.90mm
; solid infill extrusion width = 0.90mm
; top infill extrusion width = 0.80mm
; first layer extrusion width = 0.90mm

; external perimeters extrusion width = 1.00mm
; perimeters extrusion width = 1.00mm
; infill extrusion width = 0.90mm
; solid infill extrusion width = 0.90mm
; top infill extrusion width = 0.80mm
; first layer extrusion width = 0.90mm

; external perimeters extrusion width = 1.00mm
; perimeters extrusion width = 1.00mm
; infill extrusion width = 0.90mm
; solid infill extrusion width = 0.90mm
; top infill extrusion width = 0.80mm
; first layer extrusion width = 0.90mm

; external perimeters extrusion width = 1.00mm
; perimeters extrusion width = 1.00mm
; infill extrusion width = 0.90mm
; solid infill extrusion width = 0.90mm
; top infill extrusion width = 0.80mm
; first layer extrusion width = 0.90mm

M73 P0 R166
M73 Q0 S167
M201 X1000 Y1000 Z200 E5000 ; sets maximum accelerations, mm/sec^2
M203 X200 Y200 Z12 E120 ; sets maximum feedrates, mm / sec
M204 S1250 T1250 ; sets acceleration (S) and retract acceleration (R), mm/sec^2
M205 X8.00 Y8.00 Z0.40 E4.50 ; sets the jerk limits, mm/sec
M205 S0 T0 ; sets the minimum extruding and travel feed rate, mm/sec

; printing object BasePlate-Dowel-Connector-6 id:15 copy 0
; stop printing object BasePlate-Dowel-Connector-6 id:15 copy 0
; printing object BasePlate-Dowel-Connector-4 id:13 copy 0
; stop printing object BasePlate-Dowel-Connector-4 id:13 copy 0
; printing object BasePlate-Dowel-Connector-1 id:10 copy 0
; stop printing object BasePlate-Dowel-Connector-1 id:10 copy 0
; printing object BasePlate id:9 copy 0
; stop printing object BasePlate id:9 copy 0
; printing object BasePlate-Dowel-Connector-5 id:14 copy 0
; stop printing object BasePlate-Dowel-Connector-5 id:14 copy 0
; printing object BasePlate-Dowel-Connector-3 id:12 copy 0
; stop printing object BasePlate-Dowel-Connector-3 id:12 copy 0
; printing object BasePlate-Dowel-Connector-2 id:11 copy 0
; stop printing object BasePlate-Dowel-Connector-2 id:11 copy 0

;TYPE:Custom
M862.3 P "MK3S" ; printer model check
M862.1 P0.8 ; nozzle diameter check
M115 U3.13.3 ; tell printer latest fw version
G90 ; use absolute coordinates
M83 ; extruder relative mode
M104 S240 ; set extruder temp
M140 S85 ; set bed temp
M190 S85 ; wait for bed temp
M109 S240 ; wait for extruder temp
G28 W ; home all without mesh bed level
G80 X45.1339 Y34.1583 W180.345 H170.507 ; mesh bed levelling

G1 Z0.2 F720
G1 Y-3 F1000 ; go outside print area
G92 E0
G1 X60 E9 F1000 ; intro line
G1 X100 E12.5 F1000 ; intro line

G92 E0
M221 S95
G21 ; set units to millimeters
G90 ; use absolute coordinates
M83 ; use relative distances for extrusion

M900 K0.02 ; Filament gcode LA 1.5
; ; Filament gcode LA 1.0




M107
;LAYER_CHANGE
;Z:0.3
;HEIGHT:0.3
G1 E-1 F2100
G1 Z.5 F720
G1 X47.355 Y69.16 F10800
G1 Z.3 F720
G1 E1 F1200
M204 S800
;TYPE:Skirt/Brim
;WIDTH:0.9
G1 X87.354 Y44.16 E5.16191
G1 X88.624 Y43.654 E.14961
M73 P0 R165
G1 X133.093 Y34.633 E4.96555
G1 X133.942 Y34.576 E.09312
G1 X155.942 Y34.576 E2.40755
G1 X156.816 Y34.637 E.09588
G1 X221.751 Y43.614 E7.1737
G1 X223.376 Y44.237 E.19045
G1 X224.558 Y45.514 E.19042
G1 X225.061 Y47.413 E.21498
G1 X225.061 Y187.413 E15.32079
G1 X224.667 Y189.108 E.19044
G1 X223.564 Y190.454 E.19044
G1 X221.978 Y191.174 E.19061
G1 X157.075 Y204.145 E7.24306
G1 X155.942 Y204.248 E.1245
G1 X133.942 Y204.248 E2.40755
G1 X133.093 Y204.19 E.09313
G1 X132.17 Y203.995 E.10324
G1 X88.305 Y191.093 E5.00367
G1 X87.354 Y190.666 E.11408
G1 X47.355 Y165.666 E5.16191
G1 X46.126 Y164.433 E.19051
G1 X45.552 Y162.413 E.22981
G1 X45.552 Y72.413 E9.84908
G1 X45.947 Y70.718 E.19046
G1 X47.274 Y69.25 E.21656
M204 S1000
; printing object BasePlate-Dowel-Connector-1 id:10 copy 0
;WIPE_START
G1 F8640
G1 X47.355 Y69.16 E-.02796
G1 X50.925 Y66.929 E-.97204
;WIPE_END
G1 Z.5 F720
G1 X156.338 Y197.845 F10800
G1 Z.3 F720
G1 E1 F1200
M204 S800
;TYPE:Perimeter
;WIDTH:0.833741
G1 X156.202 Y197.628 E.0258
G1 X156.034 Y197.521 E.02007
G1 X155.814 Y197.549 E.02235
G1 X155.636 Y197.66 E.02114
G1 X155.548 Y197.95 E.03054
G1 X155.7 Y198.231 E.03219
G1 X155.856 Y198.293 E.01691
G1 X156.147 Y198.256 E.02956
G1 X156.286 Y198.095 E.02143
G1 X156.338 Y197.845 E.02573
M204 S1000
;WIPE_START
G1 F8640
G1 X156.286 Y198.095 E-.05896
G1 X156.147 Y198.256 E-.04911
G1 X155.856 Y198.293 E-.06773
G1 X155.7 Y198.231 E-.03876
G1 X155.548 Y197.95 E-.07377
G1 X155.636 Y197.66 E-.06998
G1 X155.814 Y197.549 E-.04844
G1 X156.034 Y197.521 E-.05121
G1 X156.202 Y197.628 E-.04599
G1 X156.338 Y197.845 E-.05913
;WIPE_END
G1 E-.43692 F2100
G1 Z.5 F720
G1 X154.882 Y198.475 F10800
G1 Z.3 F720
G1 E1 F1200
M204 S800
;WIDTH:0.899999
G1 X154.745 Y198.027 E.05127
G1 X154.794 Y197.561 E.05128
G1 X155.014 Y197.147 E.05131
G1 X155.379 Y196.852 E.05136
G1 X155.745 Y196.723 E.04247
G1 X156.198 Y196.731 E.04958
G1 X156.491 Y196.841 E.03425
G1 X156.875 Y197.157 E.05442
G1 X157.072 Y197.491 E.04244
G1 X157.137 Y197.768 E.03114
G1 X157.142 Y197.999 E.02529
G1 X157.002 Y198.476 E.0544
G1 X156.771 Y198.788 E.04248
G1 X156.541 Y198.955 E.0311
G1 X156.068 Y199.106 E.05434
G1 X155.821 Y199.095 E.02706
G1 X155.466 Y199.022 E.03966
G1 X155.199 Y198.858 E.03429
G1 X154.959 Y198.568 E.04119
M204 S1000
G1 X154.22 Y198.985 F10800
M204 S800
;TYPE:External perimeter
G1 F1200
G1 X154.136 Y198.872 E.01541
G1 X153.931 Y198.292 E.06732
G1 X153.895 Y197.923 E.04057
G1 X153.986 Y197.314 E.06739
G1 X154.252 Y196.758 E.06745
G1 X154.487 Y196.472 E.04051
G1 X154.982 Y196.106 E.06737
G1 X155.563 Y195.901 E.06742
G1 X156.112 Y195.882 E.06012
G1 X156.583 Y195.976 E.05256
G1 X157.078 Y196.209 E.05987
G1 X157.532 Y196.625 E.06739
G1 X157.844 Y197.155 E.0673
G1 X157.969 Y197.688 E.05991
G1 X157.954 Y198.292 E.06612
G1 X157.748 Y198.872 E.06736
G1 X157.382 Y199.367 E.06737
G1 X157.217 Y199.503 E.0234
G1 X156.752 Y199.792 E.05991
G1 X156.156 Y199.946 E.06736
G1 X155.542 Y199.919 E.06726
G1 X155.318 Y199.851 E.02562
G1 X154.945 Y199.69 E.04446
G1 X154.503 Y199.367 E.05991
G1 X154.292 Y199.082 E.03881
M204 S1000
; stop printing object BasePlate-Dowel-Connector-1 id:10 copy 0
; printing object BasePlate-Dowel-Connector-6 id:15 copy 0
;WIPE_START
G1 F8640
G1 X154.22 Y198.985 E-.02789
G1 X154.136 Y198.872 E-.03251
G1 X153.931 Y198.292 E-.14204
G1 X153.895 Y197.923 E-.08561
G1 X153.986 Y197.314 E-.14218
G1 X154.252 Y196.758 E-.14232
G1 X154.487 Y196.472 E-.08547
G1 X154.982 Y196.106 E-.14215
G1 X155.563 Y195.901 E-.14226
G1 X155.812 Y195.892 E-.05757
;WIPE_END
G1 Z.5 F720
G1 X145.326 Y197.929 F10800
G1 Z.3 F720
G1 E1 F1200
M204 S800
;TYPE:Perimeter
;WIDTH:0.833727
G1 X145.269 Y197.679 E.02584
G1 X145.099 Y197.542 E.022
G1 X144.912 Y197.515 E.01904
G1 X144.623 Y197.669 E.03299
G1 X144.561 Y197.826 E.01701
G1 X144.594 Y198.101 E.02791
G1 X144.844 Y198.3 E.03219
G1 X145.004 Y198.298 E.01612
G1 X145.217 Y198.187 E.0242
G1 X145.324 Y197.986 E.02294
G1 X145.326 Y197.929 E.00575
M204 S1000
;WIPE_START
G1 F8640
G1 X145.324 Y197.986 E-.01317
G1 X145.217 Y198.187 E-.05258
G1 X145.004 Y198.298 E-.05546
G1 X144.844 Y198.3 E-.03695
G1 X144.594 Y198.101 E-.07378
G1 X144.561 Y197.826 E-.06395
G1 X144.623 Y197.669 E-.03898
G1 X144.912 Y197.515 E-.07561
G1 X145.099 Y197.542 E-.04363
G1 X145.269 Y197.679 E-.05041
G1 X145.326 Y197.929 E-.05921
;WIPE_END
G1 E-.43627 F2100
G1 Z.5 F720
G1 X144.938 Y196.704 F10800
G1 Z.3 F720
G1 E1 F1200
M204 S800
;WIDTH:0.899999
G1 X145.414 Y196.8 E.05314
G1 X145.797 Y197.057 E.05047
G1 X145.986 Y197.313 E.03482
G1 X146.136 Y197.787 E.05441
G1 X146.128 Y197.964 E.01939
G1 X146.12 Y198.141 E.01939
G1 X146.002 Y198.475 E.03877
G1 X145.791 Y198.761 E.03889
G1 X145.506 Y198.972 E.03881
G1 X145.338 Y199.031 E.01949
G1 X144.942 Y199.12 E.04442
G1 X144.628 Y199.073 E.03475
G1 X144.187 Y198.845 E.05433
G1 X143.885 Y198.486 E.05134
G1 X143.748 Y198.037 E.05137
G1 X143.759 Y197.79 E.02706
G1 X143.832 Y197.436 E.03955
G1 X143.996 Y197.169 E.03429
G1 X144.379 Y196.852 E.05441
G1 X144.546 Y196.793 E.01938
G1 X144.821 Y196.731 E.03085
M204 S1000
G1 X144.821 Y196.731 F10800
G1 X144.787 Y195.881
M204 S800
;TYPE:External perimeter
G1 F1200
G1 X145.369 Y195.909 E.06376
G1 X145.742 Y196.027 E.04281
G1 X146.234 Y196.335 E.06352
G1 X146.533 Y196.637 E.04651
G1 X146.822 Y197.102 E.05991
G1 X146.976 Y197.698 E.06736
G1 X146.963 Y198.001 E.03319
G1 X146.95 Y198.302 E.03297
G1 X146.748 Y198.872 E.06618
G1 X146.388 Y199.358 E.06619
G1 X145.902 Y199.718 E.06619
G1 X145.322 Y199.923 E.06732
G1 X145.109 Y199.944 E.02342
G1 X144.718 Y199.938 E.04279
G1 X144.186 Y199.814 E.05978
G1 X143.655 Y199.501 E.06745
G1 X143.239 Y199.047 E.06739
G1 X143.062 Y198.722 E.0405
G1 X142.908 Y198.126 E.06736
G1 X142.935 Y197.512 E.06726
G1 X143.003 Y197.288 E.02562
G1 X143.164 Y196.914 E.04456
G1 X143.487 Y196.472 E.05991
G1 X143.982 Y196.106 E.06737
G1 X144.562 Y195.901 E.06732
G1 X144.667 Y195.891 E.01154
M204 S1000
; stop printing object BasePlate-Dowel-Connector-6 id:15 copy 0
; printing object BasePlate-Dowel-Connector-3 id:12 copy 0
;WIPE_START
G1 F8640
G1 X144.787 Y195.881 E-.0278
G1 X145.369 Y195.909 E-.13454
G1 X145.742 Y196.027 E-.09033
G1 X146.234 Y196.335 E-.13403
G1 X146.533 Y196.637 E-.09813
G1 X146.822 Y197.102 E-.12642
G1 X146.976 Y197.698 E-.14214
G1 X146.963 Y198.001 E-.07003
G1 X146.95 Y198.302 E-.06957
G1 X146.795 Y198.739 E-.10701
;WIPE_END
G1 Z.5 F720
G1 X134.326 Y197.929 F10800
G1 Z.3 F720
G1 E1 F1200
M204 S800
;TYPE:Perimeter
;WIDTH:0.833745
G1 X134.269 Y197.679 E.02584
G1 X134.099 Y197.542 E.022
G1 X133.911 Y197.515 E.01914
G1 X133.636 Y197.66 E.03132
G1 X133.547 Y197.95 E.03056
G1 X133.667 Y198.187 E.02677
M73 Q0 S166
G1 X133.868 Y198.294 E.02294
G1 X134.158 Y198.25 E.02955
G1 X134.305 Y198.04 E.02583
G1 X134.326 Y197.929 E.01138
M204 S1000
;WIPE_START
G1 F8640
G1 X134.305 Y198.04 E-.02608
G1 X134.158 Y198.25 E-.05919
G1 X133.868 Y198.294 E-.06773
G1 X133.667 Y198.187 E-.05258
G1 X133.547 Y197.95 E-.06134
G1 X133.636 Y197.66 E-.07004
G1 X133.911 Y197.515 E-.07178
G1 X134.099 Y197.542 E-.04386
G1 X134.269 Y197.679 E-.05041
G1 X134.326 Y197.929 E-.05921
;WIPE_END
G1 E-.43778 F2100
G1 Z.5 F720
G1 X133.717 Y196.754 F10800
G1 Z.3 F720
G1 E1 F1200
M204 S800
;WIDTH:0.899999
G1 X133.937 Y196.704 E.02469
G1 X134.414 Y196.8 E.05325
G1 X134.796 Y197.057 E.05038
G1 X134.985 Y197.313 E.03482
G1 X135.136 Y197.786 E.05434
G1 X135.128 Y197.964 E.0195
G1 X135.12 Y198.141 E.01939
G1 X135.002 Y198.476 E.03887
G1 X134.771 Y198.788 E.04248
G1 X134.541 Y198.955 E.0311
G1 X134.067 Y199.106 E.05444
G1 X133.713 Y199.09 E.03878
G1 X133.378 Y198.972 E.03887
G1 X133.093 Y198.761 E.03881
G1 X132.882 Y198.476 E.03881
G1 X132.745 Y198.027 E.05137
G1 X132.794 Y197.561 E.05128
G1 X133.014 Y197.147 E.05131
G1 X133.378 Y196.852 E.05127
G1 X133.546 Y196.793 E.01949
G1 X133.6 Y196.78 E.00608
M204 S1000
G1 X133.6 Y196.78 F10800
G1 X133.523 Y195.914
M204 S800
;TYPE:External perimeter
G1 F1200
G1 X133.562 Y195.901 E.0045
G1 X133.77 Y195.881 E.02287
G1 X134.369 Y195.909 E.06562
G1 X134.742 Y196.027 E.04281
G1 X135.234 Y196.335 E.06352
G1 X135.533 Y196.637 E.04651
G1 X135.822 Y197.102 E.05991
G1 X135.976 Y197.698 E.06736
G1 X135.963 Y198 E.03308
G1 X135.95 Y198.302 E.03308
G1 X135.748 Y198.872 E.06618
G1 X135.381 Y199.367 E.06743
G1 X135.216 Y199.503 E.0234
G1 X134.752 Y199.792 E.05982
G1 X134.156 Y199.946 E.06736
G1 X133.552 Y199.92 E.06616
G1 X132.982 Y199.718 E.06618
G1 X132.496 Y199.358 E.06619
G1 X132.136 Y198.872 E.06619
G1 X131.931 Y198.292 E.06732
G1 X131.895 Y197.923 E.04057
G1 X131.986 Y197.314 E.06739
G1 X132.251 Y196.758 E.0674
G1 X132.487 Y196.472 E.04058
G1 X132.982 Y196.106 E.06737
G1 X133.41 Y195.954 E.0497
M204 S1000
; stop printing object BasePlate-Dowel-Connector-3 id:12 copy 0
; printing object BasePlate id:9 copy 0
;WIPE_START
G1 F8640
G1 X133.523 Y195.914 E-.02768
G1 X133.562 Y195.901 E-.00949
G1 X133.77 Y195.881 E-.04825
G1 X134.369 Y195.909 E-.13846
G1 X134.742 Y196.027 E-.09033
G1 X135.234 Y196.335 E-.13403
G1 X135.533 Y196.637 E-.09813
G1 X135.822 Y197.102 E-.12642
G1 X135.976 Y197.698 E-.14214
G1 X135.963 Y198 E-.0698
G1 X135.95 Y198.302 E-.0698
G1 X135.884 Y198.488 E-.04547
;WIPE_END
G1 Z.5 F720
G1 X82.062 Y160.711 F10800
G1 Z.3 F720
G1 E1 F1200
M204 S800
;TYPE:Perimeter
G1 X81.891 Y160.435 E.03553
G1 X81.559 Y160.06 E.05481
G1 X81.15 Y159.736 E.0571
G1 X80.65 Y159.473 E.06182
G1 X80.103 Y159.31 E.06246
G1 X79.545 Y159.256 E.06135
G1 X52.544 Y159.256 E2.95483
G1 X52.544 Y75.57 E9.15811
G1 X79.782 Y75.56 E2.98077
G1 X80.355 Y75.456 E.06373
G1 X80.844 Y75.266 E.05741
G1 X81.285 Y74.996 E.05659
G1 X81.697 Y74.625 E.06067
G1 X82.016 Y74.209 E.05737
G1 X82.26 Y73.731 E.05873
G1 X91.525 Y50.57 E2.72988
G1 X111.969 Y50.57 E2.23727
;WIDTH:0.914129
G1 X112.593 Y50.577 E.06945
;WIDTH:0.927617
G1 X113.271 Y50.584 E.07665
G1 X113.895 Y50.564 E.07058
;WIDTH:0.888692
G1 X114.558 Y50.56 E.07157
;WIDTH:0.903787
G1 X115.854 Y50.57 E.14247
;WIDTH:0.900594
G1 X116.477 Y50.57 E.06823
;WIDTH:0.899999
G1 X186.969 Y50.57 E7.71423
;WIDTH:0.914125
G1 X187.593 Y50.577 E.06945
;WIDTH:0.927616
G1 X188.271 Y50.584 E.07665
G1 X188.895 Y50.564 E.07058
;WIDTH:0.888692
G1 X189.558 Y50.56 E.07157
;WIDTH:0.903791
G1 X190.856 Y50.57 E.14269
;WIDTH:0.900587
G1 X191.478 Y50.57 E.06812
;WIDTH:0.899999
G1 X218.069 Y50.57 E2.90996
G1 X218.069 Y62.215 E1.27436
;WIDTH:0.900013
G1 X218.069 Y184.256 E13.35566
G1 X191.151 Y184.256 E2.94579
;WIDTH:0.909952
G1 X189.86 Y184.262 E.14296
M73 P0 R164
;WIDTH:0.887953
G1 X189.153 Y184.266 E.07626
;WIDTH:0.905096
G1 X187.948 Y184.256 E.13268
;WIDTH:0.901107
G1 X187.261 Y184.256 E.07528
;WIDTH:0.900012
G1 X116.151 Y184.256 E7.78197
;WIDTH:0.912668
G1 X114.777 Y184.263 E.15264
;WIDTH:0.887435
G1 X113.999 Y184.263 E.08386
;WIDTH:0.929668
G1 X113.248 Y184.241 E.08514
G1 X112.624 Y184.253 E.07072
;WIDTH:0.906376
G1 X111.927 Y184.256 E.07686
;WIDTH:0.899999
G1 X91.525 Y184.256 E2.23268
G1 X82.156 Y160.864 E2.75758
G1 X82.125 Y160.813 E.00653
M204 S1000
G1 X82.125 Y160.813 F10800
G1 X81.391 Y161.227
M204 S800
G1 F1200
G1 X81.294 Y161.039 E.02315
G1 X80.959 Y160.644 E.05668
G1 X80.55 Y160.35 E.05512
G1 X80.062 Y160.157 E.05743
G1 X79.545 Y160.092 E.05702
G1 X51.709 Y160.092 E3.04621
G1 X51.709 Y74.734 E9.34108
G1 X79.545 Y74.734 E3.04621
G1 X79.926 Y74.699 E.04187
G1 X80.427 Y74.539 E.05755
G1 X80.881 Y74.251 E.05884
G1 X81.239 Y73.867 E.05745
G1 X81.484 Y73.421 E.05569
G1 X90.959 Y49.734 E2.79186
G1 X218.905 Y49.734 E14.00166
G1 X218.905 Y62.215 E1.36585
G1 X218.905 Y185.092 E13.44694
G1 X90.959 Y185.092 E14.00166
G1 X81.484 Y161.405 E2.79186
M73 P1 R164
M73 Q1 S166
G1 X81.447 Y161.333 E.00886
M73 Q1 S165
M204 S1000
G1 X81.447 Y161.333 F10800
G1 X80.668 Y161.671
M204 S800
G1 F1200
G1 X80.594 Y161.496 E.02079
G1 X80.305 Y161.184 E.04654
G1 X79.94 Y160.992 E.04513
G1 X79.545 Y160.927 E.04381
G1 X50.873 Y160.927 E3.1377
G1 X50.873 Y73.899 E9.52384
G1 X78.776 Y73.899 E3.05354
G1 X79.774 Y73.878 E.10924
G1 X80.177 Y73.727 E.0471
G1 X80.49 Y73.468 E.04446
G1 X80.708 Y73.111 E.04578
G1 X90.393 Y48.899 E2.85374
G1 X219.74 Y48.899 E14.15498
G1 X219.74 Y62.215 E1.45723
G1 X219.74 Y185.927 E13.53832
G1 X90.393 Y185.927 E14.15498
G1 X81.061 Y162.596 E2.74987
