; generated by PrusaSlicer 2.7.2 on 2025-05-10 at 19:35:53 UTC


;
;
; 

; external perimeters extrusion width = 1.00mm
; perimeters extrusion width = 1.00mm
; infill extrusion width = 0.90mm
; solid infill extrusion width = 0.90mm
; top infill extrusion width = 0.80mm
; first layer extrusion width = 0.90mm

M73 P0 R171
M73 Q0 S172
M201 X1000 Y1000 Z200 E5000 ; sets maximum accelerations, mm/sec^2
M203 X200 Y200 Z12 E120 ; sets maximum feedrates, mm / sec
M204 S1250 T1250 ; sets acceleration (S) and retract acceleration (R), mm/sec^2
M205 X8.00 Y8.00 Z0.40 E4.50 ; sets the jerk limits, mm/sec
M205 S0 T0 ; sets the minimum extruding and travel feed rate, mm/sec

; printing object BasePlate id:8 copy 0
; stop printing object BasePlate id:8 copy 0

;TYPE:Custom
M862.3 P "MK3S" ; printer model check
M862.1 P0.8 ; nozzle diameter check
M115 U3.13.3 ; tell printer latest fw version
G90 ; use absolute coordinates
M83 ; extruder relative mode
M104 S240 ; set extruder temp
M140 S85 ; set bed temp
M190 S85 ; wait for bed temp
M109 S240 ; wait for extruder temp
G28 W ; home all without mesh bed level
G80 X36.1226 Y35.9059 W186.668 H148.507 ; mesh bed levelling

G1 Z0.2 F720
G1 Y-3 F1000 ; go outside print area
G92 E0
G1 X60 E9 F1000 ; intro line
G1 X100 E12.5 F1000 ; intro line

G92 E0
M221 S95
G21 ; set units to millimeters
G90 ; use absolute coordinates
M83 ; use relative distances for extrusion

M900 K0.02 ; Filament gcode LA 1.5
; ; Filament gcode LA 1.0




M107
;LAYER_CHANGE
;Z:0.3
;HEIGHT:0.3
G1 E-1 F2100
G1 Z.5 F720
G1 X38.038 Y37.118 F10800
G1 Z.3 F720
G1 E1 F1200
M204 S800
;TYPE:Skirt/Brim
;WIDTH:0.9
G1 X40.376 Y36.324 E.27021
G1 X208.538 Y36.324 E18.40268
G1 X210.233 Y36.719 E.19046
G1 X211.25 Y37.447 E.13687
G1 X221.25 Y47.447 E1.54763
G1 X222.169 Y48.925 E.19046
G1 X222.373 Y50.159 E.13687
G1 X222.373 Y170.159 E13.13211
G1 X221.978 Y171.854 E.19046
M73 P0 R170
G1 X221.25 Y172.872 E.13696
G1 X211.25 Y182.872 E1.54763
G1 X209.772 Y183.791 E.19046
G1 X208.538 Y183.995 E.13687
G1 X40.376 Y183.995 E18.40268
G1 X38.681 Y183.6 E.19046
G1 X37.335 Y182.497 E.19044
G1 X36.54 Y180.159 E.27024
G1 X36.54 Y40.159 E15.32079
G1 X36.935 Y38.464 E.19046
M73 Q0 S171
G1 X37.962 Y37.211 E.17729
M204 S1000
; printing object BasePlate id:8 copy 0
;WIPE_START
G1 F8640
G1 X38.038 Y37.118 E-.02773
G1 X40.376 Y36.324 E-.57013
G1 X42.118 Y36.324 E-.40214
;WIPE_END
G1 Z.5 F720
G1 X43.533 Y43.316 F10800
G1 Z.3 F720
G1 E1 F1200
M204 S800
;TYPE:Perimeter
;WIDTH:0.899999
G1 X106.12 Y43.316 E6.84916
;WIDTH:0.914191
G1 X106.744 Y43.323 E.06945
;WIDTH:0.927634
G1 X107.422 Y43.33 E.07665
G1 X108.046 Y43.311 E.07058
;WIDTH:0.888695
G1 X108.708 Y43.306 E.07147
;WIDTH:0.903796
G1 X110.006 Y43.317 E.1427
;WIDTH:0.900587
G1 X110.629 Y43.316 E.06823
;WIDTH:0.899999
G1 X191.12 Y43.316 E8.80846
;WIDTH:0.914192
G1 X191.744 Y43.323 E.06945
;WIDTH:0.927634
G1 X192.422 Y43.33 E.07665
G1 X193.046 Y43.311 E.07058
;WIDTH:0.888695
G1 X193.708 Y43.306 E.07147
;WIDTH:0.903793
G1 X195.006 Y43.317 E.1427
;WIDTH:0.900587
G1 X195.629 Y43.316 E.06823
;WIDTH:0.899999
G1 X207.23 Y43.316 E1.26955
G1 X215.381 Y51.467 E1.26148
G1 X215.381 Y54.907 E.37645
;WIDTH:0.900013
G1 X215.381 Y168.852 E12.46967
G1 X207.23 Y177.003 E1.26149
G1 X195.302 Y177.003 E1.30535
;WIDTH:0.90995
G1 X194.011 Y177.009 E.14296
;WIDTH:0.887952
G1 X193.303 Y177.013 E.07636
;WIDTH:0.905147
G1 X192.098 Y177.002 E.13269
;WIDTH:0.901123
G1 X191.413 Y177.003 E.07506
;WIDTH:0.900012
G1 X110.302 Y177.003 E8.87644
;WIDTH:0.90995
G1 X109.011 Y177.009 E.14296
;WIDTH:0.887953
G1 X108.303 Y177.013 E.07636
;WIDTH:0.905146
G1 X107.098 Y177.002 E.13269
;WIDTH:0.901123
G1 X106.413 Y177.003 E.07506
;WIDTH:0.899999
G1 X43.533 Y177.003 E6.88122
G1 X43.533 Y113.27 E6.97457
G1 X43.666 Y113.486 E.02776
G1 X44.015 Y113.948 E.06336
G1 X44.419 Y114.383 E.06497
G1 X44.916 Y114.812 E.07185
G1 X45.529 Y115.23 E.08119
G1 X46.109 Y115.536 E.07176
G1 X46.662 Y115.753 E.06501
G1 X47.222 Y115.91 E.06365
G1 X47.806 Y116.014 E.06492
G1 X48.387 Y116.057 E.06376
G1 X48.981 Y116.042 E.06502
G1 X49.559 Y115.97 E.06374
G1 X50.138 Y115.838 E.06499
G1 X50.691 Y115.652 E.06385
G1 X51.232 Y115.408 E.06495
G1 X51.735 Y115.117 E.06359
G1 X52.218 Y114.77 E.06508
G1 X52.657 Y114.383 E.06404
G1 X53.113 Y113.889 E.07357
G1 X53.41 Y113.486 E.05478
G1 X53.788 Y112.862 E.07984
G1 X54.001 Y112.377 E.05797
G1 X54.192 Y111.85 E.06134
G1 X54.32 Y111.333 E.05829
G1 X54.416 Y110.689 E.07125
G1 X54.437 Y110.159 E.05805
G1 X54.404 Y109.506 E.07155
G1 X54.321 Y108.994 E.05676
G1 X54.161 Y108.367 E.07081
G1 X53.976 Y107.873 E.05773
G1 X53.694 Y107.287 E.07117
G1 X53.413 Y106.837 E.05806
G1 X52.97 Y106.258 E.07978
G1 X52.604 Y105.89 E.0568
G1 X51.965 Y105.356 E.09113
G1 X51.491 Y105.052 E.06162
G1 X50.963 Y104.781 E.06495
G1 X50.42 Y104.568 E.06383
G1 X49.848 Y104.407 E.06503
G1 X49.274 Y104.306 E.06378
G1 X48.681 Y104.261 E.06508
G1 X48.099 Y104.276 E.06371
G1 X47.51 Y104.35 E.06496
G1 X46.942 Y104.48 E.06377
G1 X46.379 Y104.669 E.06499
G1 X45.848 Y104.908 E.06372
G1 X45.334 Y105.205 E.06496
G1 X44.863 Y105.544 E.06351
G1 X44.417 Y105.937 E.06505
G1 X44.021 Y106.364 E.06373
G1 X43.533 Y107.048 E.09195
G1 X43.533 Y43.436 E6.96133
M204 S1000
;WIPE_START
G1 F8640
G1 X43.533 Y43.316 E-.02771
G1 X47.744 Y43.316 E-.97229
;WIPE_END
G1 Z.5 F720
G1 X42.697 Y42.481 F10800
G1 Z.3 F720
G1 E1 F1200
M204 S800
G1 X207.576 Y42.481 E18.04339
G1 X216.216 Y51.121 E1.33715
G1 X216.216 Y54.907 E.41432
G1 X216.216 Y169.198 E12.50734
G1 X207.576 Y177.838 E1.33715
M73 P0 R169
G1 X42.697 Y177.838 E18.04339
G1 X42.697 Y112.376 E7.16378
M73 Q0 S170
;WIDTH:0.913821
G1 X42.704 Y111.782 E.06608
;WIDTH:0.926976
G1 X42.697 Y110.728 E.11907
;WIDTH:0.898453
G1 X42.682 Y110.182 E.05966
;WIDTH:0.896238
G1 X42.695 Y109.636 E.0595
;WIDTH:0.922546
G1 X42.7 Y108.497 E.12801
;WIDTH:0.905677
G1 X42.697 Y107.972 E.05784
;WIDTH:0.899999
G1 X42.697 Y42.601 E7.15382
M204 S1000
;WIPE_START
G1 F8640
G1 X42.697 Y42.481 E-.02771
G1 X46.908 Y42.481 E-.97229
;WIPE_END
G1 Z.5 F720
G1 X41.862 Y41.645 F10800
G1 Z.3 F720
G1 E1 F1200
M204 S800
G1 X207.922 Y41.645 E18.17263
G1 X217.052 Y50.775 E1.41299
M73 P1 R169
M73 Q1 S170
G1 X217.052 Y54.907 E.45218
G1 X217.052 Y169.544 E12.5452
G1 X207.922 Y178.674 E1.41299
G1 X41.862 Y178.674 E18.17263
G1 X41.862 Y41.765 E14.98252
M204 S1000
;WIPE_START
G1 F8640
G1 X41.862 Y41.645 E-.02771
G1 X46.073 Y41.645 E-.97229
;WIPE_END
G1 Z.5 F720
G1 X41.026 Y40.809 F10800
G1 Z.3 F720
G1 E1 F1200
M204 S800
;TYPE:External perimeter
G1 X208.268 Y40.809 E18.30199
G1 X217.888 Y50.429 E1.48882
M73 P1 R168
G1 X217.888 Y54.907 E.49005
G1 X217.888 Y169.89 E12.58307
G1 X208.268 Y179.509 E1.48875
G1 X41.026 Y179.509 E18.30199
G1 X41.026 Y40.929 E15.16538
M73 Q1 S169
M204 S1000
;WIPE_START
G1 F8640
G1 X41.026 Y40.809 E-.02771
G1 X45.237 Y40.809 E-.97229
;WIPE_END
G1 Z.5 F720
G1 X198.9 Y52.934 F10800
G1 Z.3 F720
G1 E1 F1200
M204 S800
;TYPE:Perimeter
G1 X198.531 Y53.575 E.08094
G1 X198.179 Y54.04 E.06382
G1 X197.754 Y54.498 E.06838
G1 X197.317 Y54.883 E.06373
G1 X196.811 Y55.247 E.06821
G1 X196.307 Y55.538 E.06369
G1 X195.739 Y55.794 E.06818
G1 X195.186 Y55.98 E.06385
G1 X194.578 Y56.119 E.06825
G1 X194 Y56.191 E.06374
G1 X193.376 Y56.207 E.06831
G1 X192.87 Y56.175 E.05548
G1 X192.181 Y56.055 E.07654
G1 X191.676 Y55.918 E.05726
G1 X191.041 Y55.669 E.07464
G1 X190.564 Y55.43 E.05839
G1 X189.998 Y55.065 E.0737
G1 X189.588 Y54.745 E.05692
G1 X189.097 Y54.268 E.07491
G1 X188.768 Y53.887 E.05509
G1 X188.369 Y53.304 E.07731
G1 X188.091 Y52.792 E.06376
G1 X187.849 Y52.217 E.06827
G1 X187.678 Y51.664 E.06334
G1 X187.554 Y51.052 E.06833
G1 X187.497 Y50.397 E.07195
G1 X187.516 Y49.619 E.08517
G1 X187.606 Y48.968 E.07192
G1 X187.761 Y48.364 E.06824
G1 X187.958 Y47.821 E.06321
G1 X188.228 Y47.259 E.06823
G1 X188.534 Y46.759 E.06415
G1 X188.911 Y46.262 E.06827
G1 X189.306 Y45.836 E.06358
G1 X189.774 Y45.423 E.06831
G1 X190.246 Y45.083 E.06366
G1 X190.786 Y44.772 E.06819
G1 X191.319 Y44.531 E.06401
;WIDTH:0.914192
G1 X191.908 Y44.326 E.06941
;WIDTH:0.927634
G1 X192.475 Y44.19 E.06592
G1 X193.097 Y44.132 E.07062
;WIDTH:0.888695
G1 X193.678 Y44.121 E.06273
;WIDTH:0.903793
G1 X194.301 Y44.156 E.06859
G1 X194.875 Y44.259 E.06411
;WIDTH:0.900587
G1 X195.475 Y44.429 E.06829
;WIDTH:0.899999
G1 X196.015 Y44.641 E.06349
G1 X196.57 Y44.925 E.06823
G1 X197.059 Y45.241 E.06371
G1 X197.547 Y45.63 E.06829
G1 X197.966 Y46.038 E.064
G1 X198.366 Y46.516 E.06821
G1 X198.694 Y46.997 E.06371
G1 X198.993 Y47.545 E.06832
G1 X199.219 Y48.082 E.06376
G1 X199.402 Y48.677 E.06812
G1 X199.517 Y49.244 E.06331
G1 X199.58 Y49.866 E.06842
G1 X199.572 Y50.525 E.07212
G1 X199.475 Y51.297 E.08515
G1 X199.322 Y51.93 E.07127
G1 X199.27 Y52.074 E.01675
G1 X199.035 Y52.7 E.07317
G1 X198.96 Y52.83 E.01642
M204 S1000
G1 X198.96 Y52.83 F10800
G1 X198.172 Y52.532
M204 S800
G1 F1200
G1 X197.818 Y53.139 E.0769
G1 X197.566 Y53.471 E.04561
G1 X197.141 Y53.929 E.06838
G1 X196.83 Y54.204 E.04543
G1 X196.323 Y54.568 E.0683
G1 X195.964 Y54.776 E.0454
G1 X195.395 Y55.033 E.06832
G1 X195 Y55.165 E.04558
G1 X194.392 Y55.304 E.06825
G1 X193.98 Y55.356 E.04544
G1 X193.355 Y55.371 E.06842
G1 X192.94 Y55.34 E.04554
G1 X192.327 Y55.232 E.06812
G1 X191.927 Y55.119 E.04549
G1 X191.346 Y54.891 E.0683
G1 X190.975 Y54.701 E.04561
G1 X190.451 Y54.363 E.06824
G1 X190.127 Y54.105 E.04532
G1 X189.68 Y53.669 E.06833
G1 X189.411 Y53.349 E.04575
G1 X189.06 Y52.833 E.06829
G1 X188.861 Y52.468 E.04549
G1 X188.619 Y51.893 E.06827
G1 X188.497 Y51.498 E.04524
G1 X188.373 Y50.886 E.06833
G1 X188.332 Y50.418 E.05141
G1 X188.352 Y49.64 E.08517
G1 X188.416 Y49.175 E.05137
G1 X188.57 Y48.571 E.06821
G1 X188.711 Y48.183 E.04518
G1 X188.982 Y47.621 E.06828
G1 X189.2 Y47.264 E.04578
G1 X189.577 Y46.767 E.06827
G1 X190.327 Y46.05 E.11355
G1 X191.204 Y45.495 E.11358
G1 X192.176 Y45.125 E.11382
G1 X192.581 Y45.033 E.04545
G1 X193.2 Y44.955 E.06828
G1 X193.616 Y44.945 E.04554
G1 X194.238 Y44.992 E.06826
G1 X195.248 Y45.233 E.11363
G1 X196.189 Y45.669 E.11349
G1 X197.027 Y46.283 E.11369
G1 X197.325 Y46.575 E.04566
G1 X197.726 Y47.052 E.0682
G1 X198.259 Y47.944 E.11371
G1 X198.42 Y48.328 E.04557
G1 X198.604 Y48.923 E.06816
G1 X198.695 Y49.416 E.05486
G1 X198.748 Y49.95 E.05872
G1 X198.743 Y50.421 E.05155
G1 X198.645 Y51.193 E.08516
G1 X198.484 Y51.789 E.06756
G1 X198.271 Y52.362 E.0669
G1 X198.233 Y52.428 E.00833
M204 S1000
G1 X198.233 Y52.428 F10800
G1 X197.448 Y52.124
M204 S800
G1 F1200
G1 X197.105 Y52.704 E.07374
G1 X196.529 Y53.361 E.09562
G1 X195.835 Y53.89 E.0955
G1 X195.051 Y54.271 E.09539
G1 X194.206 Y54.489 E.0955
G1 X193.335 Y54.536 E.09546
G1 X192.472 Y54.409 E.09546
G1 X191.651 Y54.114 E.09547
G1 X190.905 Y53.661 E.09551
G1 X190.263 Y53.071 E.09542
G1 X189.751 Y52.363 E.09562
G1 X189.389 Y51.569 E.0955
G1 X189.192 Y50.72 E.09538
G1 X189.167 Y50.439 E.03087
G1 X189.187 Y49.661 E.08517
G1 X189.38 Y48.778 E.09891
G1 X189.735 Y47.983 E.09528
G1 X190.243 Y47.271 E.09572
G1 X190.88 Y46.676 E.09539
G1 X191.622 Y46.219 E.09537
G1 X192.442 Y45.917 E.09563
G1 X193.304 Y45.784 E.09545
G1 X194.176 Y45.825 E.09553
G1 X195.021 Y46.037 E.09534
G1 X195.808 Y46.413 E.09545
G1 X196.506 Y46.937 E.09551
G1 X197.086 Y47.589 E.0955
G1 X197.525 Y48.344 E.09557
G1 X197.805 Y49.169 E.09534
G1 X197.917 Y50.034 E.09545
G1 X197.914 Y50.316 E.03086
G1 X197.816 Y51.089 E.08527
G1 X197.699 Y51.503 E.04708
G1 X197.508 Y52.021 E.06042
M204 S1000
G1 X197.508 Y52.021 F10800
G1 X196.748 Y51.664
M204 S800
;TYPE:External perimeter
G1 F1200
G1 X196.73 Y51.712 E.00561
G1 X196.392 Y52.268 E.07121
G1 X195.917 Y52.792 E.0774
G1 X195.348 Y53.211 E.07733
G1 X194.708 Y53.509 E.07726
G1 X194.02 Y53.675 E.07745
G1 X193.314 Y53.701 E.07731
G1 X192.617 Y53.586 E.07731
G1 X191.956 Y53.336 E.07734
G1 X191.358 Y52.959 E.07736
G1 X190.846 Y52.472 E.07733
G1 X190.441 Y51.892 E.07741
G1 X190.16 Y51.245 E.07719
G1 X190.011 Y50.554 E.07736
G1 X190.022 Y49.682 E.09543
G1 X190.19 Y48.985 E.07846
G1 X190.488 Y48.345 E.07726
G1 X190.909 Y47.776 E.07746
G1 X191.433 Y47.303 E.07725
G1 X192.04 Y46.942 E.07729
G1 X192.708 Y46.71 E.07739
G1 X193.408 Y46.613 E.07734
G1 X194.113 Y46.658 E.07731
G1 X194.795 Y46.841 E.07727
G1 X195.427 Y47.156 E.07728
G1 X195.985 Y47.59 E.07736
G1 X196.446 Y48.126 E.07737
G1 X196.791 Y48.743 E.07736
G1 X197.006 Y49.415 E.07721
G1 X197.086 Y50.118 E.07743
G1 X196.987 Y50.984 E.09539
G1 X196.913 Y51.218 E.02686
G1 X196.79 Y51.552 E.03895
M204 S1000
;WIPE_START
G1 F8640
G1 X196.748 Y51.664 E-.02762
G1 X196.73 Y51.712 E-.01184
G1 X196.392 Y52.268 E-.15024
G1 X195.917 Y52.792 E-.16331
G1 X195.348 Y53.211 E-.16316
G1 X194.708 Y53.509 E-.16301
G1 X194.02 Y53.675 E-.16342
G1 X193.338 Y53.7 E-.1574
;WIPE_END
G1 Z.5 F720
G1 X135.669 Y116.043 F10800
G1 Z.3 F720
G1 E1 F1200
M204 S800
;TYPE:Perimeter
G1 X135.378 Y116.025 E.03191
G1 X134.722 Y115.91 E.07288
G1 X134.227 Y115.778 E.05606
G1 X133.609 Y115.536 E.07263
G1 X133.119 Y115.288 E.0601
G1 X132.416 Y114.812 E.09291
G1 X132.002 Y114.47 E.05877
G1 X131.515 Y113.948 E.07813
G1 X131.199 Y113.539 E.05656
G1 X130.856 Y112.98 E.07177
G1 X130.626 Y112.518 E.05648
G1 X130.399 Y111.894 E.07267
G1 X130.264 Y111.382 E.05795
G1 X130.167 Y110.746 E.0704
G1 X130.135 Y110.218 E.05789
G1 X130.168 Y109.566 E.07144
G1 X130.241 Y109.048 E.05725
G1 X130.401 Y108.418 E.07113
G1 X130.568 Y107.939 E.05551
G1 X130.856 Y107.338 E.07293
G1 X131.129 Y106.881 E.05826
G1 X131.554 Y106.321 E.07693
G1 X131.918 Y105.937 E.0579
G1 X132.363 Y105.544 E.06497
G1 X132.769 Y105.244 E.05524
G1 X133.348 Y104.908 E.07326
G1 X133.809 Y104.693 E.05567
G1 X134.442 Y104.48 E.07309
G1 X134.938 Y104.36 E.05585
G1 X135.599 Y104.276 E.07292
G1 X136.121 Y104.258 E.05716
G1 X136.774 Y104.306 E.07165
G1 X137.278 Y104.388 E.05588
G1 X137.92 Y104.568 E.07297
G1 X138.406 Y104.753 E.05691
G1 X138.991 Y105.052 E.0719
G1 X139.437 Y105.334 E.05775
G1 X140.104 Y105.89 E.09503
G1 X140.481 Y106.271 E.05866
G1 X140.913 Y106.837 E.07792
G1 X141.199 Y107.296 E.05918
G1 X141.476 Y107.873 E.07004
G1 X141.659 Y108.359 E.05683
G1 X141.821 Y108.994 E.07172
G1 X141.904 Y109.507 E.05687
G1 X141.937 Y110.159 E.07144
G1 X141.917 Y110.688 E.05793
G1 X141.82 Y111.333 E.07138
G1 X141.696 Y111.84 E.05712
G1 X141.474 Y112.452 E.07124
G1 X141.243 Y112.94 E.05908
G1 X140.91 Y113.486 E.06999
G1 X140.597 Y113.908 E.0575
G1 X140.157 Y114.383 E.07086
G1 X139.764 Y114.737 E.05788
G1 X139.235 Y115.117 E.07128
G1 X138.792 Y115.38 E.05638
G1 X138.191 Y115.652 E.07219
G1 X137.702 Y115.822 E.05665
G1 X137.059 Y115.97 E.07221
G1 X136.554 Y116.04 E.05579
G1 X135.887 Y116.057 E.07302
G1 X135.789 Y116.051 E.01074
M204 S1000
G1 X135.789 Y116.051 F10800
G1 X135.704 Y115.21
M204 S800
G1 F1200
G1 X135.451 Y115.191 E.02776
G1 X134.867 Y115.087 E.06492
G1 X134.467 Y114.975 E.04546
G1 X133.914 Y114.758 E.06501
G1 X133.5 Y114.539 E.05125
G1 X132.887 Y114.122 E.08113
G1 X132.532 Y113.815 E.05136
G1 X132.128 Y113.38 E.06497
G1 X131.878 Y113.05 E.04531
G1 X131.568 Y112.544 E.06494
G1 X131.36 Y112.092 E.05445
G1 X131.184 Y111.608 E.05636
G1 X131.082 Y111.207 E.04528
G1 X130.993 Y110.621 E.06486
G1 X130.972 Y110.202 E.04591
G1 X131.003 Y109.608 E.06509
G1 X131.064 Y109.2 E.04515
G1 X131.211 Y108.624 E.06505
G1 X131.352 Y108.235 E.04528
G1 X131.609 Y107.7 E.06495
G1 X131.828 Y107.342 E.04593
G1 X132.21 Y106.838 E.06921
G1 X132.47 Y106.564 E.04134
G1 X132.916 Y106.171 E.06505
G1 X133.252 Y105.929 E.04531
G1 X133.768 Y105.631 E.06521
G1 X134.146 Y105.461 E.04536
G1 X134.708 Y105.272 E.06489
G1 X135.114 Y105.179 E.04558
G1 X135.703 Y105.105 E.06496
G1 X136.119 Y105.095 E.04554
G1 X136.712 Y105.139 E.06507
G1 X137.122 Y105.211 E.04555
G1 X137.694 Y105.372 E.06503
G1 X138.081 Y105.525 E.04554
G1 X138.61 Y105.796 E.06504
G1 X138.999 Y106.054 E.05108
G1 X139.566 Y106.53 E.08102
G1 X139.888 Y106.868 E.05109
G1 X140.247 Y107.342 E.06507
G1 X140.466 Y107.7 E.04593
G1 X140.723 Y108.235 E.06495
G1 X140.864 Y108.624 E.04528
G1 X141.011 Y109.2 E.06505
G1 X141.073 Y109.608 E.04516
G1 X141.103 Y110.202 E.06509
G1 X141.082 Y110.621 E.04591
G1 X140.993 Y111.208 E.06497
