; generated by PrusaSlicer 2.7.2 on 2025-05-10 at 19:37:12 UTC


;
;
; 

; external perimeters extrusion width = 1.00mm
; perimeters extrusion width = 1.00mm
; infill extrusion width = 0.90mm
; solid infill extrusion width = 0.90mm
; top infill extrusion width = 0.80mm
; first layer extrusion width = 0.90mm

; external perimeters extrusion width = 1.00mm
; perimeters extrusion width = 1.00mm
; infill extrusion width = 0.90mm
; solid infill extrusion width = 0.90mm
; top infill extrusion width = 0.80mm
; first layer extrusion width = 0.90mm

; external perimeters extrusion width = 1.00mm
; perimeters extrusion width = 1.00mm
; infill extrusion width = 0.90mm
; solid infill extrusion width = 0.90mm
; top infill extrusion width = 0.80mm
; first layer extrusion width = 0.90mm

; external perimeters extrusion width = 1.00mm
; perimeters extrusion width = 1.00mm
; infill extrusion width = 0.90mm
; solid infill extrusion width = 0.90mm
; top infill extrusion width = 0.80mm
; first layer extrusion width = 0.90mm

; external perimeters extrusion width = 1.00mm
; perimeters extrusion width = 1.00mm
; infill extrusion width = 0.90mm
; solid infill extrusion width = 0.90mm
; top infill extrusion width = 0.80mm
; first layer extrusion width = 0.90mm

; external perimeters extrusion width = 1.00mm
; perimeters extrusion width = 1.00mm
; infill extrusion width = 0.90mm
; solid infill extrusion width = 0.90mm
; top infill extrusion width = 0.80mm
; first layer extrusion width = 0.90mm

; external perimeters extrusion width = 1.00mm
; perimeters extrusion width = 1.00mm
; infill extrusion width = 0.90mm
; solid infill extrusion width = 0.90mm
; top infill extrusion width = 0.80mm
; first layer extrusion width = 0.90mm

M73 P0 R268
M73 Q0 S271
M201 X1000 Y1000 Z200 E5000 ; sets maximum accelerations, mm/sec^2
M203 X200 Y200 Z12 E120 ; sets maximum feedrates, mm / sec
M204 S1250 T1250 ; sets acceleration (S) and retract acceleration (R), mm/sec^2
M205 X8.00 Y8.00 Z0.40 E4.50 ; sets the jerk limits, mm/sec
M205 S0 T0 ; sets the minimum extruding and travel feed rate, mm/sec

; printing object SideWall id:16 copy 0
; stop printing object SideWall id:16 copy 0
; printing object SideWall-Dowel-Connector-3 id:19 copy 0
; stop printing object SideWall-Dowel-Connector-3 id:19 copy 0
; printing object SideWall-Dowel-Connector-2 id:18 copy 0
; stop printing object SideWall-Dowel-Connector-2 id:18 copy 0
; printing object SideWall-Dowel-Connector-4 id:20 copy 0
; stop printing object SideWall-Dowel-Connector-4 id:20 copy 0
; printing object SideWall-Dowel-Connector-1 id:17 copy 0
; stop printing object SideWall-Dowel-Connector-1 id:17 copy 0
; printing object SideWall-Dowel-Connector-5 id:21 copy 0
; stop printing object SideWall-Dowel-Connector-5 id:21 copy 0
; printing object SideWall-Dowel-Connector-6 id:22 copy 0
; stop printing object SideWall-Dowel-Connector-6 id:22 copy 0

;TYPE:Custom
M862.3 P "MK3S" ; printer model check
M862.1 P0.8 ; nozzle diameter check
M115 U3.13.3 ; tell printer latest fw version
G90 ; use absolute coordinates
M83 ; extruder relative mode
M104 S240 ; set extruder temp
M140 S85 ; set bed temp
M190 S85 ; wait for bed temp
M109 S240 ; wait for extruder temp
G28 W ; home all without mesh bed level
G80 X35.9683 Y23.2538 W177.36 H160.507 ; mesh bed levelling

G1 Z0.2 F720
G1 Y-3 F1000 ; go outside print area
G92 E0
G1 X60 E9 F1000 ; intro line
G1 X100 E12.5 F1000 ; intro line

G92 E0
M221 S95
G21 ; set units to millimeters
G90 ; use absolute coordinates
M83 ; use relative distances for extrusion

M900 K0.02 ; Filament gcode LA 1.5
; ; Filament gcode LA 1.0




M107
;LAYER_CHANGE
;Z:0.3
;HEIGHT:0.3
G1 E-1 F2100
M73 Q0 S270
G1 Z.5 F720
G1 X37.884 Y35.467 F10800
G1 Z.3 F720
G1 E1 F1200
M204 S800
;TYPE:Skirt/Brim
;WIDTH:0.9
G1 X39.633 Y34.717 E.20826
G1 X110.458 Y23.723 E7.8435
G1 X133.264 Y23.672 E2.49576
G1 X134.163 Y23.736 E.09863
G1 X209.627 Y34.712 E8.34524
G1 X211.247 Y35.346 E.19038
G1 X212.42 Y36.632 E.19048
G1 X212.91 Y38.507 E.21208
G1 X212.91 Y168.507 E14.22645
G1 X212.516 Y170.202 E.19044
G1 X211.413 Y171.548 E.19044
G1 X209.627 Y172.303 E.2122
G1 X134.002 Y183.3 E8.363
G1 X111.263 Y183.343 E2.48843
G1 X109.979 Y183.212 E.14124
G1 X68.884 Y172.212 E4.65552
G1 X66.906 Y170.933 E.25777
G1 X37.251 Y134.614 E5.13116
G1 X36.386 Y132.188 E.28186
G1 X36.386 Y38.507 E10.25191
G1 X36.781 Y36.813 E.19035
G1 X37.808 Y35.559 E.17738
M204 S1000
; printing object SideWall-Dowel-Connector-4 id:20 copy 0
;WIPE_START
G1 F8640
G1 X37.884 Y35.467 E-.02755
G1 X39.633 Y34.717 E-.43941
G1 X41.914 Y34.363 E-.53304
;WIPE_END
G1 Z.5 F720
G1 X111.647 Y30.024 F10800
G1 Z.3 F720
G1 E1 F1200
M204 S800
;TYPE:Perimeter
;WIDTH:0.833731
G1 X111.59 Y29.775 E.02574
G1 X111.42 Y29.637 E.02206
G1 X111.233 Y29.61 E.01904
G1 X110.957 Y29.755 E.03141
G1 X110.866 Y30.061 E.03217
G1 X110.932 Y30.216 E.01697
G1 X111.164 Y30.396 E.02959
G1 X111.377 Y30.379 E.02153
G1 X111.565 Y30.252 E.02286
G1 X111.643 Y30.12 E.01545
G1 X111.647 Y30.024 E.00968
M204 S1000
;WIPE_START
G1 F8640
G1 X111.643 Y30.12 E-.02219
G1 X111.565 Y30.252 E-.0354
G1 X111.377 Y30.379 E-.05239
G1 X111.164 Y30.396 E-.04934
G1 X110.932 Y30.216 E-.0678
G1 X110.866 Y30.061 E-.0389
G1 X110.957 Y29.755 E-.07371
G1 X111.233 Y29.61 E-.07199
G1 X111.42 Y29.637 E-.04363
G1 X111.59 Y29.775 E-.05056
G1 X111.647 Y30.024 E-.05898
;WIPE_END
G1 E-.43511 F2100
G1 Z.5 F720
G1 X110.331 Y30.743 F10800
G1 Z.3 F720
G1 E1 F1200
M204 S800
;WIDTH:0.899999
G1 X110.141 Y30.455 E.03776
G1 X110.068 Y30.151 E.03421
G1 X110.115 Y29.656 E.05441
G1 X110.335 Y29.242 E.05131
G1 X110.699 Y28.947 E.05127
G1 X110.867 Y28.888 E.01949
G1 X111.258 Y28.799 E.04388
G1 X111.735 Y28.895 E.05325
G1 X112.117 Y29.153 E.05045
G1 X112.306 Y29.408 E.03473
G1 X112.457 Y29.882 E.05444
G1 X112.449 Y30.059 E.01939
G1 X112.416 Y30.349 E.03194
G1 X112.196 Y30.763 E.05131
G1 X111.934 Y31.002 E.03881
G1 X111.614 Y31.155 E.03882
G1 X111.23 Y31.213 E.0425
G1 X110.949 Y31.169 E.03113
G1 X110.508 Y30.94 E.05438
G1 X110.41 Y30.833 E.01588
M204 S1000
G1 X110.41 Y30.833 F10800
G1 X109.624 Y31.213
M204 S800
;TYPE:External perimeter
G1 F1200
G1 X109.561 Y31.143 E.01031
G1 X109.451 Y30.937 E.02556
G1 X109.3 Y30.559 E.04454
G1 X109.216 Y30.018 E.05991
G1 X109.307 Y29.409 E.06739
G1 X109.572 Y28.854 E.0673
G1 X109.808 Y28.568 E.04058
G1 X110.303 Y28.201 E.06743
G1 X110.883 Y27.996 E.06732
G1 X111.091 Y27.976 E.02287
G1 X111.69 Y28.004 E.06562
G1 X112.063 Y28.122 E.04281
G1 X112.555 Y28.43 E.06352
G1 X112.854 Y28.733 E.04658
G1 X113.143 Y29.197 E.05982
G1 X113.297 Y29.794 E.06747
G1 X113.284 Y30.096 E.03308
G1 X113.27 Y30.409 E.03429
G1 X113.165 Y30.764 E.04051
G1 X112.853 Y31.294 E.0673
G1 X112.407 Y31.703 E.06622
G1 X111.861 Y31.963 E.06618
G1 X111.252 Y32.054 E.06739
G1 X111.039 Y32.034 E.02341
G1 X110.506 Y31.909 E.05991
G1 X109.976 Y31.597 E.0673
G1 X109.705 Y31.301 E.04392
M204 S1000
; stop printing object SideWall-Dowel-Connector-4 id:20 copy 0
; printing object SideWall-Dowel-Connector-5 id:21 copy 0
;WIPE_START
G1 F8640
G1 X109.624 Y31.213 E-.02762
G1 X109.561 Y31.143 E-.02175
G1 X109.451 Y30.937 E-.05392
G1 X109.3 Y30.559 E-.09399
G1 X109.216 Y30.018 E-.12642
G1 X109.307 Y29.409 E-.14218
G1 X109.572 Y28.854 E-.14201
G1 X109.808 Y28.568 E-.08562
G1 X110.303 Y28.201 E-.14228
G1 X110.883 Y27.996 E-.14204
G1 X110.979 Y27.987 E-.02217
;WIPE_END
G1 Z.5 F720
G1 X122.656 Y30.079 F10800
G1 Z.3 F720
G1 E1 F1200
M204 S800
;TYPE:Perimeter
;WIDTH:0.833719
G1 X122.593 Y29.804 E.02843
G1 X122.464 Y29.661 E.0194
G1 X122.24 Y29.607 E.02322
G1 X121.955 Y29.757 E.03245
G1 X121.882 Y29.921 E.01809
G1 X121.915 Y30.196 E.02791
G1 X122.165 Y30.396 E.03226
G1 X122.377 Y30.379 E.02143
G1 X122.579 Y30.253 E.02399
G1 X122.656 Y30.079 E.01917
M204 S1000
;WIPE_START
G1 F8640
G1 X122.579 Y30.253 E-.04394
G1 X122.377 Y30.379 E-.05497
G1 X122.165 Y30.396 E-.04911
G1 X121.915 Y30.196 E-.07392
G1 X121.882 Y29.921 E-.06395
G1 X121.955 Y29.757 E-.04145
G1 X122.24 Y29.607 E-.07437
G1 X122.464 Y29.661 E-.0532
G1 X122.593 Y29.804 E-.04447
G1 X122.656 Y30.079 E-.06514
;WIPE_END
G1 E-.43548 F2100
G1 Z.5 F720
G1 X121.112 Y29.729 F10800
G1 Z.3 F720
G1 E1 F1200
M204 S800
;WIDTH:0.899999
G1 X121.153 Y29.531 E.02213
G1 X121.317 Y29.264 E.03429
G1 X121.7 Y28.947 E.05441
G1 X122.066 Y28.818 E.04247
G1 X122.519 Y28.827 E.04958
G1 X122.939 Y29.005 E.04992
G1 X123.173 Y29.22 E.03478
G1 X123.411 Y29.656 E.05436
G1 X123.454 Y30.162 E.05557
G1 X123.444 Y30.263 E.01111
G1 X123.265 Y30.683 E.04996
G1 X123.05 Y30.917 E.03478
G1 X122.614 Y31.155 E.05436
G1 X122.23 Y31.213 E.0425
G1 X121.949 Y31.169 E.03113
G1 X121.508 Y30.94 E.05438
G1 X121.206 Y30.581 E.05134
G1 X121.069 Y30.133 E.05127
G1 X121.08 Y29.886 E.02706
G1 X121.088 Y29.847 E.00436
M204 S1000
G1 X121.088 Y29.847 F10800
G1 X120.272 Y29.555
M204 S800
;TYPE:External perimeter
G1 F1200
G1 X120.325 Y29.383 E.0197
G1 X120.485 Y29.01 E.04442
G1 X120.808 Y28.568 E.05991
G1 X121.303 Y28.201 E.06743
G1 X121.883 Y27.996 E.06732
G1 X122.092 Y27.976 E.02298
G1 X122.69 Y28.004 E.06551
G1 X123.231 Y28.213 E.06347
G1 X123.582 Y28.452 E.04647
G1 X123.954 Y28.854 E.05994
G1 X124.219 Y29.409 E.0673
G1 X124.31 Y30.017 E.06728
G1 X124.285 Y30.25 E.02564
G1 X124.266 Y30.434 E.02024
G1 X124.06 Y30.971 E.06294
G1 X123.818 Y31.326 E.04702
G1 X123.417 Y31.698 E.05986
G1 X122.861 Y31.963 E.0674
G1 X122.252 Y32.054 E.06739
G1 X122.039 Y32.034 E.02341
G1 X121.507 Y31.909 E.0598
G1 X120.976 Y31.597 E.0674
G1 X120.56 Y31.143 E.06739
G1 X120.383 Y30.817 E.04059
G1 X120.229 Y30.221 E.06736
G1 X120.253 Y29.672 E.06014
M204 S1000
; stop printing object SideWall-Dowel-Connector-5 id:21 copy 0
; printing object SideWall-Dowel-Connector-1 id:17 copy 0
;WIPE_START
G1 F8640
G1 X120.272 Y29.555 E-.02737
G1 X120.325 Y29.383 E-.04156
G1 X120.485 Y29.01 E-.09372
G1 X120.808 Y28.568 E-.12641
G1 X121.303 Y28.201 E-.14228
G1 X121.883 Y27.996 E-.14204
G1 X122.092 Y27.976 E-.04848
G1 X122.69 Y28.004 E-.13823
G1 X123.231 Y28.213 E-.13392
G1 X123.582 Y28.452 E-.09805
G1 X123.605 Y28.477 E-.00794
;WIPE_END
G1 Z.5 F720
G1 X133.658 Y30.045 F10800
G1 Z.3 F720
G1 E1 F1200
M204 S800
;TYPE:Perimeter
;WIDTH:0.833739
G1 X133.562 Y29.74 E.03222
G1 X133.355 Y29.616 E.02431
G1 X133.121 Y29.632 E.02363
G1 X132.932 Y29.812 E.0263
G1 X132.879 Y29.99 E.01871
G1 X132.936 Y30.24 E.02584
G1 X133.135 Y30.37 E.02395
G1 X133.32 Y30.388 E.01873
G1 X133.516 Y30.313 E.02114
G1 X133.658 Y30.045 E.03056
M204 S1000
;WIPE_START
G1 F8640
G1 X133.516 Y30.313 E-.07003
G1 X133.32 Y30.388 E-.04846
G1 X133.135 Y30.37 E-.04292
G1 X132.936 Y30.24 E-.05489
G1 X132.879 Y29.99 E-.05921
G1 X132.932 Y29.812 E-.04288
G1 X133.121 Y29.632 E-.06027
G1 X133.355 Y29.616 E-.05416
G1 X133.562 Y29.74 E-.05572
G1 X133.658 Y30.045 E-.07383
;WIPE_END
G1 E-.43763 F2100
G1 Z.5 F720
G1 X133.248 Y28.824 F10800
G1 Z.3 F720
G1 E1 F1200
M204 S800
;WIDTH:0.899999
G1 X133.519 Y28.827 E.02966
G1 X133.939 Y29.005 E.04992
G1 X134.173 Y29.22 E.03478
G1 X134.411 Y29.656 E.05436
G1 X134.461 Y30.123 E.0514
G1 X134.323 Y30.571 E.0513
G1 X134.029 Y30.935 E.0512
G1 X133.614 Y31.155 E.0514
G1 X133.148 Y31.205 E.05129
G1 X132.7 Y31.067 E.0513
G1 X132.388 Y30.836 E.04248
G1 X132.22 Y30.606 E.03117
G1 X132.07 Y30.133 E.0543
G1 X132.11 Y29.666 E.05129
G1 X132.331 Y29.252 E.05136
G1 X132.613 Y28.993 E.0419
G1 X133.033 Y28.821 E.04967
G1 X133.128 Y28.822 E.0104
M204 S1000
G1 X133.128 Y28.822 F10800
G1 X133.251 Y27.961
M204 S800
;TYPE:External perimeter
G1 F1200
G1 X133.263 Y27.959 E.00133
G1 X133.69 Y28.004 E.04699
G1 X134.231 Y28.213 E.06347
G1 X134.582 Y28.452 E.04647
G1 X134.954 Y28.854 E.05994
G1 X135.219 Y29.409 E.0673
G1 X135.283 Y29.835 E.04714
G1 X135.293 Y30.203 E.04029
G1 X135.275 Y30.387 E.02023
G1 X135.069 Y30.967 E.06736
G1 X134.703 Y31.462 E.06737
G1 X134.417 Y31.698 E.04058
G1 X133.861 Y31.963 E.0674
G1 X133.252 Y32.054 E.06739
G1 X132.884 Y32.019 E.04045
G1 X132.303 Y31.813 E.06746
G1 X131.808 Y31.447 E.06737
G1 X131.672 Y31.282 E.0234
G1 X131.384 Y30.817 E.05986
G1 X131.229 Y30.221 E.06739
G1 X131.256 Y29.606 E.06737
G1 X131.362 Y29.251 E.04054
G1 X131.674 Y28.72 E.0674
G1 X132.127 Y28.305 E.06723
G1 X132.334 Y28.195 E.02565
G1 X132.695 Y28.05 E.04257
G1 X133.133 Y27.98 E.04854
M204 S1000
; stop printing object SideWall-Dowel-Connector-1 id:17 copy 0
; printing object SideWall id:16 copy 0
;WIPE_START
G1 F8640
G1 X133.251 Y27.961 E-.0276
G1 X133.263 Y27.959 E-.00281
G1 X133.69 Y28.004 E-.09914
G1 X134.231 Y28.213 E-.13392
G1 X134.582 Y28.452 E-.09805
G1 X134.954 Y28.854 E-.12647
G1 X135.219 Y29.409 E-.14201
G1 X135.283 Y29.835 E-.09947
G1 X135.293 Y30.203 E-.085
G1 X135.275 Y30.387 E-.04269
G1 X135.069 Y30.967 E-.14212
G1 X135.067 Y30.97 E-.00072
;WIPE_END
G1 Z.5 F720
G1 X205.918 Y41.664 F10800
G1 Z.3 F720
G1 E1 F1200
M204 S800
;TYPE:Perimeter
G1 X205.918 Y47.144 E.5997
G1 X205.918 Y165.351 E12.93588
G1 X71.8 Y165.351 E14.67709
G1 X43.549 Y130.751 E4.88826
G1 X43.549 Y41.664 E9.74916
M73 P0 R267
G1 X205.798 Y41.664 E17.75558
M204 S1000
;WIPE_START
G1 F8640
M73 Q0 S269
G1 X205.918 Y41.664 E-.02771
G1 X205.918 Y45.875 E-.97229
;WIPE_END
G1 Z.5 F720
G1 X206.754 Y40.829 F10800
G1 Z.3 F720
G1 E1 F1200
M204 S800
G1 X206.754 Y47.144 E.69108
G1 X206.754 Y166.186 E13.02726
G1 X71.403 Y166.186 E14.81202
G1 X42.713 Y131.048 E4.96425
G1 X42.713 Y40.829 E9.87304
G1 X206.634 Y40.829 E17.93856
M204 S1000
;WIPE_START
G1 F8640
G1 X206.754 Y40.829 E-.02771
G1 X206.754 Y45.04 E-.97229
;WIPE_END
G1 Z.5 F720
G1 X207.589 Y39.993 F10800
G1 Z.3 F720
G1 E1 F1200
M204 S800
G1 X207.589 Y47.144 E.78256
G1 X207.589 Y167.022 E13.11875
G1 X71.007 Y167.022 E14.94674
G1 X41.877 Y131.346 E5.04031
G1 X41.877 Y39.993 E9.99714
G1 X207.469 Y39.993 E18.12142
M73 P0 R266
M204 S1000
;WIPE_START
G1 F8640
M73 Q0 S268
G1 X207.589 Y39.993 E-.02771
G1 X207.589 Y44.204 E-.97229
;WIPE_END
G1 Z.5 F720
G1 X208.425 Y39.157 F10800
G1 Z.3 F720
G1 E1 F1200
M204 S800
;TYPE:External perimeter
G1 X208.425 Y47.144 E.87405
G1 X208.425 Y167.857 E13.21012
G1 X70.61 Y167.857 E15.08167
G1 X41.042 Y131.644 E5.11615
G1 X41.042 Y39.157 E10.12124
G1 X208.305 Y39.157 E18.30428
M204 S1000
;WIPE_START
G1 F8640
G1 X208.425 Y39.157 E-.02771
G1 X208.425 Y43.368 E-.97229
;WIPE_END
G1 Z.5 F720
G1 X197.88 Y52.353 F10800
G1 Z.3 F720
G1 E1 F1200
M204 S800
;TYPE:Perimeter
G1 X198.344 Y52.947 E.08249
G1 X198.861 Y53.765 E.1059
G1 X199.029 Y54.084 E.03945
G1 X199.444 Y55.002 E.11025
G1 X199.771 Y55.984 E.11327
G1 X199.975 Y56.926 E.10548
G1 X200.086 Y57.879 E.105
G1 X200.1 Y58.843 E.10551
G1 X200.018 Y59.804 E.10555
G1 X199.843 Y60.747 E.10496
G1 X199.573 Y61.672 E.10545
G1 X199.211 Y62.566 E.10555
G1 X198.764 Y63.417 E.10519
G1 X198.234 Y64.22 E.10529
G1 X197.629 Y64.965 E.10503
G1 X196.948 Y65.649 E.10563
G1 X196.204 Y66.261 E.10543
G1 X195.405 Y66.794 E.10511
G1 X194.554 Y67.247 E.1055
G1 X193.664 Y67.612 E.10527
G1 X192.741 Y67.886 E.10536
G1 X191.797 Y68.068 E.10521
G1 X190.838 Y68.154 E.10537
G1 X189.875 Y68.145 E.10539
G1 X188.919 Y68.039 E.10526
G1 X187.977 Y67.839 E.10538
G1 X187.061 Y67.547 E.10521
G1 X186.177 Y67.164 E.10543
G1 X185.338 Y66.696 E.10513
G1 X184.546 Y66.145 E.10558
G1 X183.816 Y65.52 E.10517
G1 X183.149 Y64.822 E.10565
G1 X182.559 Y64.068 E.10477
G1 X182.042 Y63.249 E.10599
G1 X181.874 Y62.931 E.03936
G1 X181.46 Y62.013 E.1102
G1 X181.133 Y61.031 E.11327
G1 X180.928 Y60.089 E.1055
G1 X180.818 Y59.136 E.10498
G1 X180.803 Y58.172 E.10551
G1 X180.885 Y57.211 E.10555
G1 X181.061 Y56.268 E.10498
M73 P1 R266
G1 X181.331 Y55.343 E.10545
G1 X181.431 Y55.068 E.03202
G1 X181.692 Y54.449 E.07352
G1 X182.139 Y53.598 E.10519
G1 X182.669 Y52.795 E.10529
G1 X183.275 Y52.05 E.10509
G1 X183.955 Y51.366 E.10555
G1 X184.699 Y50.754 E.10543
G1 X185.498 Y50.221 E.10511
G1 X186.35 Y49.768 E.1056
G1 X187.239 Y49.403 E.10517
G1 X188.162 Y49.129 E.10536
G1 X189.107 Y48.947 E.10532
M73 Q1 S268
G1 X190.065 Y48.861 E.10526
G1 X191.028 Y48.87 E.10539
G1 X191.984 Y48.975 E.10525
G1 X192.926 Y49.176 E.10541
G1 X193.842 Y49.468 E.10521
G1 X194.726 Y49.851 E.10543
G1 X195.566 Y50.318 E.10518
G1 X196.357 Y50.869 E.10549
