; generated by PrusaSlicer 2.7.2 on 2025-05-13 at 19:34:51 UTC


;
;
; 

; external perimeters extrusion width = 1.00mm
; perimeters extrusion width = 1.00mm
; infill extrusion width = 0.90mm
; solid infill extrusion width = 0.90mm
; top infill extrusion width = 0.80mm
; first layer extrusion width = 0.90mm

M73 P0 R243
M73 Q0 S245
M201 X1000 Y1000 Z200 E5000 ; sets maximum accelerations, mm/sec^2
M203 X200 Y200 Z12 E120 ; sets maximum feedrates, mm / sec
M204 S1250 T1250 ; sets acceleration (S) and retract acceleration (R), mm/sec^2
M205 X8.00 Y8.00 Z0.40 E4.50 ; sets the jerk limits, mm/sec
M205 S0 T0 ; sets the minimum extruding and travel feed rate, mm/sec

; printing object Pocket012 id:14 copy 0
; stop printing object Pocket012 id:14 copy 0

;TYPE:Custom
M862.3 P "MK3S" ; printer model check
M862.1 P0.8 ; nozzle diameter check
M115 U3.13.3 ; tell printer latest fw version
G90 ; use absolute coordinates
M83 ; extruder relative mode
M104 S240 ; set extruder temp
M140 S85 ; set bed temp
M190 S85 ; wait for bed temp
M109 S240 ; wait for extruder temp
G28 W ; home all without mesh bed level
G80 X55.4061 Y33.2128 W161.237 H138.507 ; mesh bed levelling

G1 Z0.2 F720
G1 Y-3 F1000 ; go outside print area
G92 E0
G1 X60 E9 F1000 ; intro line
G1 X100 E12.5 F1000 ; intro line

G92 E0
M221 S95
G21 ; set units to millimeters
G90 ; use absolute coordinates
M83 ; use relative distances for extrusion

M900 K0.02 ; Filament gcode LA 1.5
; ; Filament gcode LA 1.0




M107
;LAYER_CHANGE
;Z:0.3
;HEIGHT:0.3
G1 E-1 F2100
G1 Z.5 F720
G1 X77.694 Y56.592 F10800
G1 Z.3 F720
G1 E1 F1200
M204 S800
;TYPE:Skirt/Brim
;WIDTH:0.9
G1 X93.27 Y35.207 E2.89521
G1 X94.588 Y34.07 E.19049
G1 X96.37 Y33.631 E.20084
G1 X212.39 Y33.631 E12.69656
G1 X214.084 Y34.025 E.19033
M73 Q0 S244
G1 X215.43 Y35.128 E.19044
G1 X216.225 Y37.466 E.27024
G1 X216.225 Y167.466 E14.22645
G1 X215.83 Y169.161 E.19046
G1 X214.727 Y170.507 E.19044
G1 X212.39 Y171.302 E.27014
G1 X59.66 Y171.302 E16.71389
G1 X57.965 Y170.907 E.19046
G1 X56.619 Y169.804 E.19044
G1 X55.824 Y167.466 E.27024
G1 X55.824 Y87.865 E8.71107
G1 X56.559 Y85.607 E.25986
G1 X77.623 Y56.689 E3.91515
M204 S1000
; printing object Pocket012 id:14 copy 0
;WIPE_START
G1 F8640
G1 X77.694 Y56.592 E-.02776
G1 X80.173 Y53.189 E-.97224
;WIPE_END
G1 Z.5 F720
G1 X209.233 Y164.309 F10800
G1 Z.3 F720
G1 E1 F1200
M204 S800
;TYPE:Perimeter
;WIDTH:0.899999
G1 X62.986 Y164.309 E16.00442
G1 X62.986 Y89.108 E8.22956
G1 X98.303 Y40.623 E6.5643
M73 P0 R242
G1 X209.233 Y40.623 E12.13953
G1 X209.233 Y91.143 E5.52861
G1 X209.233 Y164.189 E7.99373
M204 S1000
;WIPE_START
G1 F8640
G1 X209.233 Y164.309 E-.02771
G1 X205.022 Y164.309 E-.97229
;WIPE_END
G1 Z.5 F720
G1 X210.068 Y165.145 F10800
G1 Z.3 F720
G1 E1 F1200
M204 S800
G1 X62.151 Y165.145 E16.18717
G1 X62.151 Y88.836 E8.35081
G1 X97.878 Y39.787 E6.64061
M73 Q0 S243
G1 X210.068 Y39.787 E12.27742
G1 X210.068 Y91.143 E5.6201
G1 X210.068 Y165.025 E8.08521
M204 S1000
;WIPE_START
G1 F8640
G1 X210.068 Y165.145 E-.02771
G1 X205.857 Y165.145 E-.97229
;WIPE_END
G1 Z.5 F720
G1 X210.904 Y165.981 F10800
G1 Z.3 F720
G1 E1 F1200
M204 S800
G1 X61.315 Y165.981 E16.37014
G1 X61.315 Y88.564 E8.47206
G1 X97.453 Y38.952 E6.71689
G1 X210.904 Y38.952 E12.41541
G1 X210.904 Y91.143 E5.71148
M73 P0 R241
G1 X210.904 Y165.861 E8.1767
M204 S1000
;WIPE_START
G1 F8640
G1 X210.904 Y165.981 E-.02771
G1 X206.693 Y165.981 E-.97229
;WIPE_END
G1 Z.5 F720
G1 X211.74 Y166.816 F10800
G1 Z.3 F720
G1 E1 F1200
M204 S800
;TYPE:External perimeter
G1 X60.48 Y166.816 E16.55301
G1 X60.48 Y88.292 E8.59321
G1 X97.028 Y38.116 E6.7932
G1 X211.74 Y38.116 E12.55341
G1 X211.74 Y91.143 E5.80296
M73 Q0 S242
G1 X211.74 Y166.696 E8.26808
M204 S1000
;WIPE_START
G1 F8640
G1 X211.74 Y166.816 E-.02771
G1 X207.529 Y166.816 E-.97229
;WIPE_END
G1 Z.5 F720
G1 X186.67 Y140.605 F10800
G1 Z.3 F720
G1 E1 F1200
M204 S800
;TYPE:Perimeter
G1 X187.192 Y141.151 E.08266
G1 X187.782 Y141.906 E.10486
G1 X188.299 Y142.724 E.1059
G1 X188.467 Y143.043 E.03945
G1 X188.882 Y143.961 E.11025
G1 X189.208 Y144.943 E.11323
G1 X189.413 Y145.885 E.1055
G1 X189.523 Y146.837 E.10487
G1 X189.538 Y147.802 E.10562
G1 X189.456 Y148.763 E.10555
G1 X189.281 Y149.705 E.10485
G1 X189.011 Y150.631 E.10556
G1 X188.649 Y151.525 E.10555
G1 X188.202 Y152.375 E.1051
G1 X187.672 Y153.179 E.10538
G1 X187.067 Y153.924 E.10503
G1 X186.386 Y154.608 E.10563
G1 X185.642 Y155.22 E.10543
G1 X184.843 Y155.753 E.10511
G1 X183.992 Y156.206 E.1055
G1 X183.102 Y156.57 E.10523
G1 X182.179 Y156.845 E.1054
G1 X181.235 Y157.026 E.10519
G1 X180.276 Y157.113 E.10538
G1 X179.313 Y157.103 E.10539
G1 X178.357 Y156.998 E.10525
G1 X177.415 Y156.798 E.10538
G1 X176.499 Y156.506 E.10521
G1 X175.615 Y156.123 E.10543
G1 X174.776 Y155.655 E.10513
G1 X173.984 Y155.104 E.10558
G1 X173.253 Y154.479 E.10525
G1 X172.587 Y153.781 E.10558
G1 X171.997 Y153.027 E.10477
G1 X171.48 Y152.208 E.10599
G1 X171.312 Y151.89 E.03936
G1 X170.898 Y150.972 E.1102
G1 X170.571 Y149.99 E.11327
G1 X170.366 Y149.048 E.1055
G1 X170.256 Y148.095 E.10498
G1 X170.248 Y146.931 E.12738
G1 X170.323 Y146.169 E.08379
G1 X170.508 Y145.18 E.11011
G1 X170.768 Y144.302 E.10021
G1 X171.13 Y143.408 E.10555
G1 X171.577 Y142.557 E.10519
G1 X172.107 Y141.754 E.10529
G1 X172.713 Y141.009 E.10509
G1 X173.393 Y140.325 E.10555
G1 X174.137 Y139.713 E.10543
G1 X174.936 Y139.179 E.10517
G1 X175.787 Y138.727 E.10545
G1 X176.677 Y138.362 E.10527
G1 X177.6 Y138.087 E.1054
M73 P1 R241
G1 X178.544 Y137.906 E.10519
G1 X179.503 Y137.82 E.10537
G1 X180.466 Y137.829 E.10539
G1 X181.422 Y137.934 E.10525
G1 X182.364 Y138.134 E.10538
G1 X183.28 Y138.427 E.10524
G1 X184.164 Y138.81 E.10543
G1 X185.003 Y139.277 E.10508
M73 Q1 S242
G1 X185.795 Y139.828 E.10558
G1 X186.526 Y140.454 E.10532
G1 X186.587 Y140.518 E.00968
M204 S1000
G1 X186.587 Y140.518 F10800
G1 X186.073 Y141.185
M204 S800
G1 F1200
G1 X186.579 Y141.719 E.08051
G1 X187.117 Y142.411 E.09592
G1 X187.585 Y143.159 E.09656
G1 X187.705 Y143.387 E.0282
G1 X188.12 Y144.304 E.11015
G1 X188.41 Y145.189 E.10192
G1 X188.594 Y146.05 E.09635
G1 X188.692 Y146.921 E.09592
G1 X188.703 Y147.802 E.09642
G1 X188.625 Y148.679 E.09635
G1 X188.462 Y149.54 E.0959
G1 X188.212 Y150.384 E.09633
G1 X187.879 Y151.2 E.09645
G1 X187.468 Y151.976 E.0961
G1 X186.982 Y152.708 E.09615
G1 X186.426 Y153.387 E.09604
G1 X185.803 Y154.01 E.09642
G1 X185.121 Y154.566 E.09629
G1 X184.39 Y155.051 E.096
G1 X183.611 Y155.462 E.09639
G1 X182.797 Y155.793 E.09616
G1 X181.953 Y156.041 E.09627
G1 X181.089 Y156.204 E.09622
G1 X180.213 Y156.28 E.09622
G1 X179.334 Y156.268 E.0962
G1 X178.461 Y156.169 E.09615
G1 X177.601 Y155.983 E.09629
G1 X176.765 Y155.714 E.09611
G1 X175.959 Y155.361 E.09629
G1 X175.193 Y154.931 E.09613
G1 X174.472 Y154.426 E.09633
G1 X173.806 Y153.852 E.09622
G1 X173.2 Y153.213 E.09637
G1 X172.663 Y152.522 E.09577
G1 X172.194 Y151.773 E.09671
G1 X172.074 Y151.546 E.0281
G1 X171.659 Y150.628 E.11025
G1 X171.369 Y149.743 E.10192
G1 X171.185 Y148.883 E.09624
G1 X171.087 Y148.011 E.09603
G1 X171.084 Y146.955 E.11556
G1 X171.154 Y146.253 E.0772
G1 X171.325 Y145.359 E.09961
G1 X171.567 Y144.548 E.09262
G1 X171.9 Y143.733 E.09635
G1 X172.311 Y142.957 E.0961
G1 X172.797 Y142.224 E.09625
G1 X173.353 Y141.545 E.09604
G1 X173.976 Y140.923 E.09634
G1 X174.658 Y140.366 E.09636
G1 X175.39 Y139.881 E.09609
G1 X176.168 Y139.47 E.09629
G1 X176.982 Y139.14 E.09612
G1 X177.826 Y138.892 E.09627
G1 X178.69 Y138.729 E.09622
G1 X179.566 Y138.653 E.09622
G1 X180.445 Y138.664 E.0962
G1 X181.318 Y138.763 E.09615
G1 X182.178 Y138.949 E.09629
G1 X183.014 Y139.219 E.09614
G1 X183.82 Y139.571 E.09625
G1 X184.586 Y140.001 E.09613
G1 X185.307 Y140.507 E.09639
G1 X185.973 Y141.08 E.09615
G1 X185.99 Y141.098 E.00271
M204 S1000
G1 X185.99 Y141.098 F10800
G1 X185.431 Y141.718
M204 S800
G1 F1200
G1 X185.966 Y142.287 E.08547
G1 X186.451 Y142.916 E.08692
G1 X186.872 Y143.594 E.08734
G1 X187.358 Y144.648 E.12701
G1 X187.611 Y145.435 E.09047
G1 X187.775 Y146.215 E.08722
G1 X187.861 Y147.005 E.08696
G1 X187.867 Y147.802 E.08722
G1 X187.793 Y148.595 E.08716
G1 X187.642 Y149.375 E.08694
G1 X187.414 Y150.138 E.08715
G1 X187.11 Y150.875 E.08724
G1 X186.735 Y151.576 E.087
G1 X186.291 Y152.237 E.08714
G1 X185.786 Y152.85 E.08692
G1 X185.219 Y153.411 E.08729
G1 X184.6 Y153.913 E.08722
G1 X183.936 Y154.349 E.08693
G1 X183.23 Y154.718 E.08718
G1 X182.491 Y155.015 E.08716
G1 X181.727 Y155.236 E.08704
G1 X180.944 Y155.381 E.08714
G1 X180.151 Y155.446 E.08707
G1 X179.355 Y155.433 E.08712
G1 X178.564 Y155.34 E.08716
G1 X177.787 Y155.169 E.08707
G1 X177.031 Y154.921 E.08707
G1 X176.303 Y154.599 E.08711
G1 X175.61 Y154.207 E.08713
G1 X174.96 Y153.747 E.08714
G1 X174.359 Y153.225 E.08711
G1 X173.813 Y152.645 E.08717
G1 X173.328 Y152.016 E.08692
G1 X172.907 Y151.338 E.08734
G1 X172.421 Y150.284 E.12701
G1 X172.168 Y149.497 E.09047
G1 X172.004 Y148.717 E.08722
G1 X171.918 Y147.927 E.08696
G1 X171.912 Y147.131 E.08711
G1 X171.986 Y146.337 E.08727
G1 X172.141 Y145.537 E.08918
G1 X172.365 Y144.794 E.08492
G1 X172.67 Y144.058 E.08719
G1 X173.045 Y143.356 E.0871
G1 X173.488 Y142.695 E.08708
G1 X173.993 Y142.082 E.08692
G1 X174.56 Y141.521 E.08729
G1 X175.179 Y141.02 E.08715
G1 X175.843 Y140.583 E.08699
G1 X176.549 Y140.214 E.08718
G1 X177.288 Y139.918 E.08712
G1 X178.052 Y139.696 E.08707
G1 X178.835 Y139.552 E.08712
G1 X179.628 Y139.486 E.08708
G1 X180.424 Y139.5 E.08712
G1 X181.215 Y139.592 E.08715
G1 X181.992 Y139.764 E.08709
G1 X182.748 Y140.011 E.08704
G1 X183.476 Y140.333 E.08711
G1 X184.169 Y140.725 E.08713
G1 X184.819 Y141.185 E.08714
G1 X185.341 Y141.638 E.07564
M204 S1000
G1 X185.341 Y141.638 F10800
G1 X184.864 Y142.33
M204 S800
;TYPE:External perimeter
G1 F1200
G1 X184.867 Y142.334 E.00055
G1 X185.353 Y142.855 E.07797
G1 X185.785 Y143.421 E.07792
G1 X186.158 Y144.029 E.07806
G1 X186.597 Y144.992 E.11582
G1 X186.813 Y145.682 E.07912
G1 X186.956 Y146.38 E.07797
G1 X187.029 Y147.089 E.078
G1 X187.031 Y147.802 E.07803
G1 X186.962 Y148.512 E.07806
G1 X186.823 Y149.21 E.07788
G1 X186.615 Y149.892 E.07803
G1 X186.34 Y150.55 E.07804
G1 X186.001 Y151.176 E.07791
G1 X185.601 Y151.767 E.0781
G1 X185.145 Y152.314 E.07793
G1 X184.636 Y152.813 E.078
G1 X184.08 Y153.259 E.078
G1 X183.482 Y153.648 E.07807
G1 X182.849 Y153.975 E.07797
G1 X182.186 Y154.237 E.07801
G1 X181.5 Y154.432 E.07805
G1 X180.799 Y154.558 E.07794
G1 X180.089 Y154.613 E.07793
G1 X179.376 Y154.597 E.07805
G1 X178.668 Y154.511 E.07805
G1 X177.974 Y154.354 E.07787
G1 X177.297 Y154.129 E.07807
G1 X176.647 Y153.838 E.07794
G1 X176.028 Y153.483 E.07809
G1 X175.448 Y153.069 E.07798
G1 X174.912 Y152.599 E.07801
G1 X174.426 Y152.077 E.07805
G1 X173.994 Y151.511 E.07792
G1 X173.621 Y150.903 E.07806
G1 X173.182 Y149.94 E.11582
G1 X172.966 Y149.251 E.07902
G1 X172.823 Y148.552 E.07808
G1 X172.75 Y147.844 E.07789
G1 X172.748 Y147.131 E.07803
G1 X172.817 Y146.421 E.07806
G1 X172.957 Y145.716 E.07866
G1 X173.164 Y145.041 E.07726
G1 X173.439 Y144.383 E.07804
G1 X173.778 Y143.756 E.078
G1 X174.178 Y143.166 E.07801
G1 X174.634 Y142.619 E.07793
G1 X175.143 Y142.119 E.07808
G1 X175.7 Y141.673 E.07809
G1 X176.297 Y141.285 E.07792
G1 X176.93 Y140.958 E.07797
G1 X177.593 Y140.696 E.07801
G1 X178.279 Y140.501 E.07805
G1 X178.98 Y140.375 E.07794
G1 X179.691 Y140.319 E.07805
G1 X180.403 Y140.335 E.07794
G1 X181.111 Y140.422 E.07806
G1 X181.806 Y140.578 E.07795
G1 X182.482 Y140.803 E.07797
G1 X183.132 Y141.094 E.07794
G1 X183.751 Y141.449 E.07809
G1 X184.331 Y141.863 E.07798
G1 X184.773 Y142.251 E.06436
M204 S1000
;WIPE_START
G1 F8640
G1 X184.864 Y142.33 E-.02783
G1 X184.867 Y142.334 E-.00115
G1 X185.353 Y142.855 E-.16452
G1 X185.785 Y143.421 E-.16441
G1 X186.158 Y144.029 E-.1647
G1 X186.597 Y144.992 E-.24437
G1 X186.813 Y145.682 E-.16695
G1 X186.87 Y145.962 E-.06607
;WIPE_END
G1 Z.5 F720
G1 X137.894 Y142.083 F10800
G1 Z.3 F720
G1 E1 F1200
M204 S800
;TYPE:Perimeter
G1 X138.298 Y142.722 E.08273
G1 X138.728 Y143.582 E.10522
G1 X139.071 Y144.482 E.1054
G1 X139.323 Y145.41 E.10523
G1 X139.48 Y146.36 E.10537
G1 X139.543 Y147.32 E.10528
G1 X139.516 Y148.153 E.09121
G1 X139.38 Y149.236 E.11945
G1 X139.157 Y150.172 E.1053
G1 X138.842 Y151.081 E.10528
G1 X138.437 Y151.955 E.10542
G1 X137.948 Y152.783 E.10523
G1 X137.738 Y153.082 E.03998
G1 X137.111 Y153.869 E.11012
G1 X136.387 Y154.607 E.11314
G1 X135.643 Y155.219 E.10543
G1 X134.843 Y155.753 E.10526
G1 X133.993 Y156.205 E.10535
G1 X133.102 Y156.57 E.10537
G1 X132.18 Y156.845 E.10529
G1 X131.235 Y157.026 E.1053
G1 X130.276 Y157.113 E.10538
G1 X129.313 Y157.103 E.10539
G1 X128.357 Y156.998 E.10525
G1 X127.415 Y156.798 E.10538
G1 X126.498 Y156.505 E.10535
G1 X125.615 Y156.123 E.10529
G1 X124.775 Y155.654 E.10528
G1 X123.985 Y155.104 E.10534
G1 X123.253 Y154.478 E.1054
G1 X122.589 Y153.783 E.10519
G1 X121.996 Y153.025 E.10532
G1 X121.481 Y152.211 E.10541
G1 X121.051 Y151.35 E.10532
G1 X120.708 Y150.451 E.1053
G1 X120.457 Y149.522 E.10531
G1 X120.299 Y148.572 E.10539
G1 X120.236 Y147.612 E.10528
G1 X120.27 Y146.65 E.10534
G1 X120.399 Y145.696 E.10535
G1 X120.622 Y144.76 E.1053
G1 X120.798 Y144.25 E.05904
G1 X121.102 Y143.476 E.091
G1 X121.576 Y142.557 E.11316
G1 X122.106 Y141.754 E.10529
G1 X122.714 Y141.007 E.1054
G1 X123.392 Y140.325 E.10524
G1 X124.136 Y139.713 E.10543
G1 X124.936 Y139.179 E.10526
G1 X125.786 Y138.727 E.10535
G1 X126.677 Y138.362 E.10537
G1 X127.599 Y138.087 E.10529
G1 X128.544 Y137.906 E.1053
G1 X129.503 Y137.819 E.10538
G1 X130.466 Y137.829 E.10539
G1 X131.422 Y137.934 E.10525
G1 X132.364 Y138.134 E.10538
G1 X133.281 Y138.427 E.10535
G1 X134.257 Y138.854 E.11658
G1 X135.005 Y139.278 E.09409
G1 X135.795 Y139.828 E.10534
G1 X136.526 Y140.454 E.10532
G1 X137.191 Y141.149 E.10526
G1 X137.783 Y141.908 E.10534
G1 X137.83 Y141.981 E.0095
M204 S1000
G1 X137.83 Y141.981 F10800
G1 X137.194 Y142.534
M204 S800
G1 F1200
G1 X137.585 Y143.157 E.08049
G1 X137.975 Y143.945 E.09622
G1 X138.286 Y144.767 E.09618
G1 X138.513 Y145.617 E.09628
G1 X138.654 Y146.485 E.09623
G1 X138.708 Y147.362 E.09616
G1 X138.681 Y148.111 E.08202
G1 X138.554 Y149.112 E.11042
G1 X138.347 Y149.966 E.09616
G1 X138.056 Y150.796 E.09625
G1 X137.684 Y151.592 E.09615
G1 X137.235 Y152.348 E.09622
G1 X137.085 Y152.561 E.02851
G1 X136.457 Y153.348 E.11018
G1 X135.803 Y154.009 E.10176
G1 X135.122 Y154.566 E.09628
G1 X134.389 Y155.051 E.09618
G1 X133.612 Y155.462 E.09619
G1 X132.797 Y155.793 E.09626
G1 X131.953 Y156.041 E.09627
G1 X131.09 Y156.204 E.09611
G1 X130.213 Y156.28 E.09633
G1 X129.334 Y156.268 E.0962
G1 X128.461 Y156.169 E.09615
G1 X127.601 Y155.984 E.09627
G1 X126.765 Y155.713 E.09617
G1 X125.959 Y155.361 E.09625
G1 X125.192 Y154.931 E.09623
G1 X124.472 Y154.426 E.09624
G1 X123.806 Y153.852 E.09622
G1 X123.201 Y153.215 E.09614
G1 X122.662 Y152.52 E.09625
G1 X122.194 Y151.775 E.09628
G1 X121.804 Y150.988 E.09612
G1 X121.493 Y150.165 E.09628
G1 X121.266 Y149.316 E.09617
G1 X121.125 Y148.448 E.09623
G1 X121.071 Y147.57 E.09626
G1 X121.104 Y146.692 E.09615
G1 X121.225 Y145.821 E.09623
G1 X121.432 Y144.966 E.09627
G1 X121.88 Y143.782 E.13854
G1 X122.31 Y142.957 E.10181
G1 X122.797 Y142.224 E.09631
G1 X123.354 Y141.544 E.09619
G1 X123.976 Y140.923 E.09619
G1 X124.657 Y140.367 E.09621
G1 X125.39 Y139.881 E.09625
G1 X126.168 Y139.471 E.09624
G1 X126.982 Y139.14 E.09616
G1 X127.826 Y138.892 E.09627
G1 X128.69 Y138.729 E.09622
G1 X129.566 Y138.653 E.09622
G1 X130.445 Y138.664 E.0962
G1 X131.318 Y138.763 E.09615
G1 X132.178 Y138.949 E.09629
G1 X133.015 Y139.219 E.09624
G1 X133.82 Y139.571 E.09615
G1 X134.587 Y140.002 E.09628
G1 X135.307 Y140.507 E.09624
G1 X135.973 Y141.081 E.09622
G1 X136.578 Y141.718 E.09614
G1 X137.117 Y142.412 E.09616
G1 X137.13 Y142.432 E.00261
M204 S1000
G1 X137.13 Y142.432 F10800
G1 X136.473 Y142.952
M204 S800
G1 F1200
G1 X136.872 Y143.593 E.08263
G1 X137.222 Y144.307 E.08702
G1 X137.501 Y145.053 E.08716
G1 X137.703 Y145.823 E.08712
G1 X137.828 Y146.609 E.0871
G1 X137.874 Y147.404 E.08715
G1 X137.847 Y148.07 E.07294
G1 X137.728 Y148.987 E.10119
G1 X137.537 Y149.76 E.08714
G1 X137.271 Y150.51 E.08708
