; generated by PrusaSlicer 2.7.2 on 2025-05-13 at 05:53:51 UTC


;
;
; 

; external perimeters extrusion width = 1.00mm
; perimeters extrusion width = 1.00mm
; infill extrusion width = 0.90mm
; solid infill extrusion width = 0.90mm
; top infill extrusion width = 0.80mm
; first layer extrusion width = 0.90mm

M73 P0 R215
M73 Q0 S216
M201 X1000 Y1000 Z200 E5000 ; sets maximum accelerations, mm/sec^2
M203 X200 Y200 Z12 E120 ; sets maximum feedrates, mm / sec
M204 S1250 T1250 ; sets acceleration (S) and retract acceleration (R), mm/sec^2
M205 X8.00 Y8.00 Z0.40 E4.50 ; sets the jerk limits, mm/sec
M205 S0 T0 ; sets the minimum extruding and travel feed rate, mm/sec

; printing object Pocket010 id:11 copy 0
; stop printing object Pocket010 id:11 copy 0

;TYPE:Custom
M862.3 P "MK3S" ; printer model check
M862.1 P0.8 ; nozzle diameter check
M115 U3.13.3 ; tell printer latest fw version
G90 ; use absolute coordinates
M83 ; extruder relative mode
M104 S240 ; set extruder temp
M140 S85 ; set bed temp
M190 S85 ; wait for bed temp
M109 S240 ; wait for extruder temp
G28 W ; home all without mesh bed level
G80 X33.0216 Y32.7981 W163.229 H138.507 ; mesh bed levelling

G1 Z0.2 F720
G1 Y-3 F1000 ; go outside print area
G92 E0
G1 X60 E9 F1000 ; intro line
G1 X100 E12.5 F1000 ; intro line

G92 E0
M221 S95
G21 ; set units to millimeters
G90 ; use absolute coordinates
M83 ; use relative distances for extrusion

M900 K0.02 ; Filament gcode LA 1.5
; ; Filament gcode LA 1.0




M107
;LAYER_CHANGE
;Z:0.3
;HEIGHT:0.3
G1 E-1 F2100
G1 Z.5 F720
G1 X34.937 Y34.011 F10800
G1 Z.3 F720
G1 E1 F1200
M204 S800
;TYPE:Skirt/Brim
;WIDTH:0.9
G1 X37.275 Y33.216 E.27024
G1 X61.422 Y33.216 E2.64251
G1 X63.137 Y33.621 E.19284
G1 X193.712 Y98.908 E15.97598
G1 X195.052 Y100.019 E.19049
G1 X195.833 Y102.339 E.26789
G1 X195.833 Y167.051 E7.08171
G1 X195.438 Y168.746 E.19046
G1 X194.335 Y170.092 E.19044
G1 X191.997 Y170.887 E.27024
G1 X37.275 Y170.887 E16.93188
G1 X35.58 Y170.492 E.19046
G1 X34.234 Y169.389 E.19044
G1 X33.439 Y167.051 E.27024
G1 X33.439 Y37.051 E14.22645
G1 X33.834 Y35.357 E.19035
M73 P0 R214
M73 Q0 S215
G1 X34.861 Y34.103 E.17738
M204 S1000
; printing object Pocket010 id:11 copy 0
;WIPE_START
G1 F8640
G1 X34.937 Y34.011 E-.02755
G1 X37.275 Y33.216 E-.57021
G1 X39.017 Y33.216 E-.40224
;WIPE_END
G1 Z.5 F720
G1 X40.432 Y40.208 F10800
G1 Z.3 F720
G1 E1 F1200
M204 S800
;TYPE:Perimeter
;WIDTH:0.899999
G1 X60.677 Y40.208 E2.21549
G1 X188.415 Y104.078 E15.62893
G1 X188.415 Y117.033 E1.41772
G1 X188.415 Y163.895 E5.1283
G1 X40.432 Y163.895 E16.19439
G1 X40.432 Y40.328 E13.52245
M204 S1000
;WIPE_START
G1 F8640
G1 X40.432 Y40.208 E-.02771
G1 X44.643 Y40.208 E-.97229
;WIPE_END
G1 Z.5 F720
G1 X39.596 Y39.373 F10800
G1 Z.3 F720
G1 E1 F1200
M204 S800
G1 X60.874 Y39.373 E2.32854
G1 X189.251 Y103.561 E15.70704
G1 X189.251 Y117.033 E1.4743
G1 X189.251 Y164.73 E5.21968
G1 X39.596 Y164.73 E16.37737
G1 X39.596 Y39.493 E13.7052
M204 S1000
;WIPE_START
G1 F8640
G1 X39.596 Y39.373 E-.02771
G1 X43.807 Y39.373 E-.97229
;WIPE_END
G1 Z.5 F720
G1 X38.761 Y38.537 F10800
G1 Z.3 F720
G1 E1 F1200
M204 S800
G1 X61.071 Y38.537 E2.44148
G1 X190.086 Y103.045 E15.78515
G1 X190.086 Y117.033 E1.53076
M73 P0 R213
M73 Q0 S214
G1 X190.086 Y165.566 E5.31117
G1 X38.761 Y165.566 E16.56012
G1 X38.761 Y38.657 E13.88818
M204 S1000
;WIPE_START
G1 F8640
G1 X38.761 Y38.537 E-.02771
G1 X42.972 Y38.537 E-.97229
;WIPE_END
G1 Z.5 F720
G1 X37.925 Y37.701 F10800
G1 Z.3 F720
G1 E1 F1200
M204 S800
;TYPE:External perimeter
G1 X61.269 Y37.701 E2.55463
G1 X190.922 Y102.528 E15.86321
G1 X190.922 Y117.033 E1.58734
G1 X190.922 Y166.401 E5.40255
G1 X37.925 Y166.401 E16.7431
G1 X37.925 Y37.821 E14.07104
M73 P1 R213
M73 Q1 S214
M204 S1000
;WIPE_START
G1 F8640
G1 X37.925 Y37.701 E-.02771
G1 X42.136 Y37.701 E-.97229
;WIPE_END
G1 Z.5 F720
G1 X158.752 Y156.321 F10800
G1 Z.3 F720
G1 E1 F1200
M204 S800
;TYPE:Perimeter
G1 X158.032 Y156.091 E.08272
G1 X157.147 Y155.708 E.10553
G1 X156.308 Y155.241 E.10508
G1 X155.517 Y154.689 E.10556
G1 X154.786 Y154.064 E.10525
G1 X154.119 Y153.366 E.10565
G1 X153.529 Y152.612 E.10477
G1 X153.013 Y151.794 E.10584
G1 X152.845 Y151.475 E.03945
G1 X152.43 Y150.557 E.11025
G1 X152.103 Y149.575 E.11327
G1 X151.898 Y148.633 E.1055
G1 X151.788 Y147.68 E.10498
G1 X151.773 Y146.716 E.10551
G1 X151.855 Y145.755 E.10555
G1 X152.031 Y144.812 E.10498
G1 X152.301 Y143.888 E.10535
G1 X152.598 Y143.147 E.08736
G1 X153.109 Y142.142 E.12338
G1 X153.639 Y141.339 E.10529
G1 X154.245 Y140.594 E.10509
G1 X154.925 Y139.91 E.10555
G1 X155.67 Y139.298 E.10551
G1 X156.469 Y138.765 E.10511
G1 X157.32 Y138.312 E.1055
G1 X158.209 Y137.947 E.10517
G1 X159.132 Y137.673 E.10536
G1 X160.077 Y137.491 E.10532
G1 X161.036 Y137.405 E.10537
G1 X161.998 Y137.414 E.10528
G1 X162.955 Y137.519 E.10536
G1 X163.897 Y137.72 E.10541
G1 X164.813 Y138.012 E.10521
G1 X165.697 Y138.395 E.10543
G1 X166.536 Y138.862 E.10508
G1 X167.327 Y139.414 E.10556
G1 X168.058 Y140.039 E.10525
G1 X168.725 Y140.737 E.10565
G1 X169.315 Y141.491 E.10477
G1 X169.831 Y142.309 E.10584
G1 X170 Y142.628 E.03951
G1 X170.414 Y143.546 E.1102
G1 X170.741 Y144.528 E.11327
G1 X170.946 Y145.47 E.1055
G1 X171.056 Y146.423 E.10498
G1 X171.071 Y147.387 E.10551
G1 X170.989 Y148.348 E.10555
G1 X170.813 Y149.291 E.10498
G1 X170.543 Y150.216 E.10545
G1 X170.31 Y150.807 E.06952
G1 X170.056 Y151.372 E.06779
G1 X169.735 Y151.961 E.07341
G1 X169.205 Y152.764 E.10529
G1 X168.599 Y153.509 E.10509
G1 X167.919 Y154.193 E.10555
G1 X167.174 Y154.805 E.10551
G1 X166.376 Y155.338 E.10502
G1 X165.524 Y155.791 E.1056
G1 X164.635 Y156.156 E.10517
G1 X163.712 Y156.43 E.10536
G1 X162.767 Y156.612 E.10532
G1 X161.808 Y156.698 E.10537
G1 X160.846 Y156.689 E.10528
G1 X159.889 Y156.584 E.10536
G1 X158.948 Y156.383 E.1053
G1 X158.866 Y156.357 E.00941
M204 S1000
G1 X158.866 Y156.357 F10800
G1 X158.998 Y155.525
M204 S800
G1 F1200
G1 X158.297 Y155.299 E.0806
G1 X157.491 Y154.946 E.09629
G1 X156.726 Y154.517 E.09598
G1 X156.005 Y154.011 E.09639
G1 X155.339 Y153.437 E.09622
G1 X154.732 Y152.798 E.09645
G1 X154.195 Y152.107 E.09577
G1 X153.726 Y151.359 E.09662
G1 X153.606 Y151.131 E.0282
G1 X153.192 Y150.213 E.1102
G1 X152.902 Y149.329 E.10181
G1 X152.718 Y148.468 E.09635
G1 X152.62 Y147.596 E.09603
G1 X152.609 Y146.716 E.09631
G1 X152.687 Y145.838 E.09646
G1 X152.85 Y144.978 E.09579
G1 X153.099 Y144.134 E.0963
G1 X153.367 Y143.472 E.07816
G1 X153.843 Y142.542 E.11433
G1 X154.33 Y141.81 E.09621
G1 X154.885 Y141.131 E.09597
G1 X155.509 Y140.508 E.09649
G1 X156.191 Y139.952 E.09629
G1 X156.922 Y139.467 E.096
G1 X157.701 Y139.056 E.09639
G1 X158.515 Y138.725 E.09616
G1 X159.359 Y138.477 E.09627
G1 X160.222 Y138.314 E.09611
G1 X161.098 Y138.238 E.09622
G1 X161.978 Y138.25 E.09631
G1 X162.851 Y138.349 E.09615
G1 X163.71 Y138.534 E.09616
G1 X164.547 Y138.804 E.09624
G1 X165.353 Y139.157 E.09629
G1 X166.119 Y139.586 E.09608
G1 X166.84 Y140.092 E.09639
G1 X167.505 Y140.666 E.09613
G1 X168.112 Y141.305 E.09645
G1 X168.649 Y141.996 E.09577
G1 X169.118 Y142.744 E.09662
G1 X169.238 Y142.972 E.0282
G1 X169.652 Y143.89 E.1102
G1 X169.942 Y144.774 E.10181
G1 X170.127 Y145.635 E.09637
G1 X170.225 Y146.506 E.09592
G1 X170.235 Y147.387 E.09642
G1 X170.157 Y148.265 E.09646
G1 X169.994 Y149.125 E.09579
G1 X169.745 Y149.97 E.0964
G1 X169.322 Y150.972 E.11902
G1 X169.001 Y151.561 E.07341
G1 X168.514 Y152.293 E.09621
G1 X167.959 Y152.972 E.09597
G1 X167.335 Y153.595 E.09649
G1 X166.654 Y154.151 E.09621
G1 X165.922 Y154.636 E.09609
G1 X165.143 Y155.047 E.09639
G1 X164.329 Y155.378 E.09616
G1 X163.485 Y155.626 E.09627
G1 X162.622 Y155.789 E.09611
G1 X161.746 Y155.865 E.09622
G1 X160.867 Y155.853 E.0962
G1 X159.993 Y155.754 E.09626
G1 X159.134 Y155.569 E.09616
G1 X159.112 Y155.562 E.00253
M204 S1000
G1 X159.112 Y155.562 F10800
G1 X159.268 Y154.737
M204 S800
G1 F1200
G1 X158.563 Y154.507 E.08115
G1 X157.835 Y154.185 E.08711
G1 X157.143 Y153.793 E.08703
G1 X156.492 Y153.333 E.08723
G1 X155.892 Y152.811 E.08703
G1 X155.346 Y152.231 E.08717
G1 X154.861 Y151.602 E.08692
G1 X154.368 Y150.787 E.10424
G1 X153.953 Y149.869 E.11025
G1 X153.7 Y149.082 E.09047
G1 X153.537 Y148.303 E.0871
G1 X153.451 Y147.513 E.08696
G1 X153.445 Y146.716 E.08722
G1 X153.518 Y145.922 E.08726
G1 X153.669 Y145.143 E.08684
G1 X153.898 Y144.381 E.08707
G1 X154.137 Y143.796 E.06916
G1 X154.577 Y142.942 E.10513
G1 X155.02 Y142.28 E.08717
G1 X155.526 Y141.667 E.08699
G1 X156.092 Y141.106 E.08721
G1 X156.711 Y140.605 E.08715
G1 X157.376 Y140.168 E.08708
G1 X158.082 Y139.799 E.08718
G1 X158.82 Y139.503 E.08702
G1 X159.585 Y139.281 E.08717
G1 X160.367 Y139.137 E.08702
G1 X161.161 Y139.071 E.08719
G1 X161.957 Y139.085 E.08712
G1 X162.747 Y139.178 E.08705
G1 X163.524 Y139.349 E.08707
G1 X164.281 Y139.596 E.08714
G1 X165.009 Y139.918 E.08711
G1 X165.701 Y140.31 E.08703
G1 X166.352 Y140.77 E.08723
G1 X166.953 Y141.292 E.08711
G1 X167.499 Y141.872 E.08717
G1 X167.983 Y142.501 E.08685
G1 X168.476 Y143.316 E.10424
G1 X168.891 Y144.234 E.11025
G1 X169.144 Y145.021 E.09047
G1 X169.307 Y145.8 E.0871
G1 X169.393 Y146.59 E.08696
G1 X169.4 Y147.387 E.08722
G1 X169.326 Y148.181 E.08727
G1 X169.175 Y148.96 E.08684
G1 X168.946 Y149.723 E.08718
G1 X168.642 Y150.46 E.08724
G1 X168.267 Y151.161 E.087
G1 X167.824 Y151.823 E.08717
G1 X167.318 Y152.436 E.08699
G1 X166.752 Y152.997 E.08721
G1 X166.133 Y153.498 E.08715
G1 X165.468 Y153.935 E.08708
G1 X164.762 Y154.304 E.08718
G1 X164.024 Y154.6 E.08702
G1 X163.259 Y154.822 E.08717
G1 X162.477 Y154.966 E.08702
G1 X161.683 Y155.032 E.08719
G1 X160.887 Y155.018 E.08712
G1 X160.097 Y154.925 E.08705
G1 X159.384 Y154.768 E.0799
M204 S1000
G1 X159.384 Y154.768 F10800
G1 X159.506 Y153.94
M204 S800
;TYPE:External perimeter
G1 F1200
G1 X158.829 Y153.715 E.07807
G1 X158.179 Y153.423 E.07798
G1 X157.56 Y153.069 E.07803
G1 X156.98 Y152.654 E.07805
G1 X156.444 Y152.184 E.07801
G1 X155.959 Y151.663 E.0779
G1 X155.526 Y151.097 E.07799
G1 X155.129 Y150.443 E.08372
G1 X154.715 Y149.525 E.1102
G1 X154.499 Y148.836 E.07902
G1 X154.356 Y148.138 E.07797
G1 X154.282 Y147.429 E.07801
G1 X154.28 Y146.716 E.07803
G1 X154.35 Y146.006 E.07807
G1 X154.488 Y145.308 E.07786
G1 X154.696 Y144.627 E.07792
G1 X154.907 Y144.121 E.06
G1 X155.311 Y143.341 E.09613
G1 X155.711 Y142.751 E.07801
G1 X156.166 Y142.204 E.07786
G1 X156.676 Y141.705 E.07808
G1 X157.232 Y141.259 E.078
G1 X157.829 Y140.87 E.07798
G1 X158.463 Y140.543 E.07807
G1 X159.125 Y140.281 E.07791
G1 X159.811 Y140.086 E.07805
G1 X160.513 Y139.96 E.07805
G1 X161.223 Y139.905 E.07793
G1 X161.936 Y139.92 E.07804
G1 X162.643 Y140.007 E.07795
G1 X163.338 Y140.163 E.07795
G1 X164.015 Y140.388 E.07807
G1 X164.665 Y140.68 E.07798
G1 X165.284 Y141.034 E.07803
G1 X165.864 Y141.449 E.07805
G1 X166.4 Y141.919 E.07801
G1 X166.886 Y142.44 E.07797
G1 X167.318 Y143.006 E.07792
G1 X167.715 Y143.66 E.08372
G1 X168.129 Y144.578 E.1102
G1 X168.345 Y145.267 E.07902
G1 X168.488 Y145.965 E.07797
G1 X168.562 Y146.674 E.07801
G1 X168.564 Y147.387 E.07803
G1 X168.494 Y148.097 E.07807
G1 X168.356 Y148.795 E.07786
G1 X168.148 Y149.477 E.07803
G1 X167.872 Y150.135 E.07809
G1 X167.533 Y150.762 E.078
G1 X167.133 Y151.352 E.07801
G1 X166.678 Y151.899 E.07786
G1 X166.168 Y152.398 E.07808
G1 X165.612 Y152.844 E.078
G1 X165.015 Y153.233 E.07798
G1 X164.381 Y153.56 E.07807
G1 X163.719 Y153.822 E.07791
G1 X163.033 Y154.017 E.07805
G1 X162.332 Y154.143 E.07794
G1 X161.621 Y154.198 E.07804
G1 X160.908 Y154.183 E.07804
G1 X160.201 Y154.096 E.07795
G1 X159.623 Y153.966 E.06483
M204 S1000
;WIPE_START
G1 F8640
G1 X159.506 Y153.94 E-.02767
G1 X158.829 Y153.715 E-.16473
G1 X158.179 Y153.423 E-.16454
G1 X157.56 Y153.069 E-.16465
G1 X156.98 Y152.654 E-.16468
G1 X156.444 Y152.184 E-.16461
G1 X156.004 Y151.711 E-.14912
;WIPE_END
G1 Z.5 F720
G1 X105.36 Y154.555 F10800
G1 Z.3 F720
G1 E1 F1200
M204 S800
;TYPE:Perimeter
G1 X104.786 Y154.064 E.08266
G1 X104.119 Y153.366 E.10565
G1 X103.529 Y152.612 E.10477
G1 X103.013 Y151.793 E.10593
G1 X102.845 Y151.475 E.03936
G1 X102.43 Y150.557 E.11025
G1 X102.103 Y149.575 E.11327
G1 X101.898 Y148.633 E.1055
G1 X101.788 Y147.68 E.10498
G1 X101.773 Y146.716 E.10551
G1 X101.855 Y145.755 E.10555
G1 X102.031 Y144.812 E.10498
G1 X102.301 Y143.887 E.10545
G1 X102.598 Y143.146 E.08736
G1 X103.109 Y142.142 E.12328
G1 X103.639 Y141.339 E.10529
G1 X104.245 Y140.594 E.10509
G1 X104.925 Y139.91 E.10555
G1 X105.67 Y139.298 E.10551
G1 X106.469 Y138.765 E.10511
G1 X107.32 Y138.312 E.1055
G1 X108.209 Y137.947 E.10517
G1 X109.133 Y137.673 E.10547
G1 X110.077 Y137.491 E.10521
G1 X111.036 Y137.405 E.10537
G1 X111.999 Y137.414 E.10539
G1 X112.955 Y137.519 E.10525
G1 X113.896 Y137.72 E.1053
M73 P1 R212
G1 X114.813 Y138.012 E.10532
G1 X115.697 Y138.395 E.10543
G1 X116.536 Y138.862 E.10508
G1 X117.327 Y139.414 E.10556
G1 X118.058 Y140.039 E.10525
G1 X118.725 Y140.737 E.10565
G1 X119.315 Y141.491 E.10477
G1 X119.831 Y142.309 E.10584
G1 X120.345 Y143.394 E.13139
G1 X120.543 Y143.887 E.05814
G1 X120.741 Y144.528 E.07342
G1 X120.946 Y145.47 E.1055
G1 X121.056 Y146.423 E.10498
G1 X121.071 Y147.387 E.10551
G1 X120.989 Y148.348 E.10555
G1 X120.813 Y149.291 E.10498
G1 X120.543 Y150.216 E.10545
G1 X120.182 Y151.11 E.10551
G1 X119.735 Y151.961 E.10519
G1 X119.205 Y152.764 E.10529
G1 X118.599 Y153.509 E.10509
G1 X117.919 Y154.193 E.10555
G1 X117.174 Y154.805 E.10551
G1 X116.376 Y155.338 E.10502
G1 X115.524 Y155.791 E.1056
G1 X114.635 Y156.156 E.10517
G1 X113.712 Y156.43 E.10536
G1 X112.767 Y156.612 E.10532
G1 X111.808 Y156.698 E.10537
G1 X110.846 Y156.689 E.10528
G1 X109.889 Y156.584 E.10536
G1 X108.948 Y156.383 E.1053
G1 X108.032 Y156.091 E.10521
G1 X107.147 Y155.708 E.10553
G1 X106.308 Y155.241 E.10508
G1 X105.517 Y154.689 E.10556
G1 X105.451 Y154.633 E.00947
M204 S1000
G1 X105.451 Y154.633 F10800
G1 X105.896 Y153.917
M204 S800
G1 F1200
G1 X105.339 Y153.437 E.08047
G1 X104.732 Y152.798 E.09645
G1 X104.195 Y152.107 E.09577
M73 Q1 S213
G1 X103.726 Y151.359 E.09662
G1 X103.606 Y151.131 E.0282
G1 X103.192 Y150.213 E.1102
G1 X102.902 Y149.328 E.10192
G1 X102.718 Y148.468 E.09624
G1 X102.62 Y147.596 E.09603
G1 X102.609 Y146.716 E.09631
G1 X102.687 Y145.838 E.09646
G1 X102.85 Y144.977 E.0959
G1 X103.099 Y144.134 E.09619
G1 X103.368 Y143.471 E.0783
G1 X103.843 Y142.542 E.11418
G1 X104.33 Y141.81 E.09621
G1 X104.886 Y141.131 E.09604
G1 X105.509 Y140.508 E.09642
G1 X106.191 Y139.952 E.09629
G1 X106.922 Y139.467 E.096
G1 X107.701 Y139.056 E.09639
G1 X108.515 Y138.725 E.09616
G1 X109.359 Y138.477 E.09627
G1 X110.222 Y138.314 E.09611
G1 X111.098 Y138.238 E.09622
G1 X111.978 Y138.25 E.09631
G1 X112.851 Y138.349 E.09615
G1 X113.71 Y138.534 E.09616
G1 X114.547 Y138.804 E.09624
G1 X115.353 Y139.157 E.09629
G1 X116.119 Y139.586 E.09608
G1 X116.84 Y140.092 E.09639
G1 X117.505 Y140.666 E.09613
G1 X118.112 Y141.305 E.09645
G1 X118.649 Y141.996 E.09577
G1 X119.118 Y142.744 E.09662
G1 X119.584 Y143.738 E.12014
G1 X119.745 Y144.134 E.04678
G1 X119.942 Y144.774 E.07328
G1 X120.127 Y145.635 E.09637
G1 X120.225 Y146.506 E.09592
G1 X120.235 Y147.387 E.09642
G1 X120.157 Y148.265 E.09646
G1 X119.994 Y149.126 E.0959
G1 X119.745 Y149.97 E.0963
G1 X119.412 Y150.785 E.09635
G1 X119.001 Y151.561 E.0961
G1 X118.514 Y152.293 E.09621
G1 X117.959 Y152.972 E.09597
G1 X117.335 Y153.595 E.09649
G1 X116.654 Y154.151 E.09621
G1 X115.922 Y154.636 E.09609
G1 X115.143 Y155.047 E.09639
G1 X114.329 Y155.378 E.09616
G1 X113.485 Y155.626 E.09627
G1 X112.622 Y155.789 E.09611
G1 X111.746 Y155.865 E.09622
G1 X110.867 Y155.853 E.0962
G1 X109.993 Y155.754 E.09626
G1 X109.134 Y155.569 E.09616
G1 X108.297 Y155.299 E.09624
G1 X107.491 Y154.946 E.09629
G1 X106.726 Y154.517 E.09598
G1 X106.005 Y154.011 E.09639
G1 X105.987 Y153.996 E.00256
M204 S1000
G1 X105.987 Y153.996 F10800
G1 X106.469 Y153.312
M204 S800
G1 F1200
G1 X105.892 Y152.811 E.08362
G1 X105.346 Y152.231 E.08717
G1 X104.861 Y151.602 E.08692
G1 X104.44 Y150.924 E.08734
G1 X103.953 Y149.869 E.12716
G1 X103.7 Y149.082 E.09047
G1 X103.537 Y148.303 E.0871
G1 X103.451 Y147.513 E.08696
G1 X103.445 Y146.716 E.08722
G1 X103.518 Y145.922 E.08726
