; generated by PrusaSlicer 2.7.2 on 2025-05-10 at 19:38:20 UTC


;
;
; 

; external perimeters extrusion width = 1.00mm
; perimeters extrusion width = 1.00mm
; infill extrusion width = 0.90mm
; solid infill extrusion width = 0.90mm
; top infill extrusion width = 0.80mm
; first layer extrusion width = 0.90mm

M73 P0 R181
M73 Q0 S182
M201 X1000 Y1000 Z200 E5000 ; sets maximum accelerations, mm/sec^2
M203 X200 Y200 Z12 E120 ; sets maximum feedrates, mm / sec
M204 S1250 T1250 ; sets acceleration (S) and retract acceleration (R), mm/sec^2
M205 X8.00 Y8.00 Z0.40 E4.50 ; sets the jerk limits, mm/sec
M205 S0 T0 ; sets the minimum extruding and travel feed rate, mm/sec

; printing object SideWall id:15 copy 0
; stop printing object SideWall id:15 copy 0

;TYPE:Custom
M862.3 P "MK3S" ; printer model check
M862.1 P0.8 ; nozzle diameter check
M115 U3.13.3 ; tell printer latest fw version
G90 ; use absolute coordinates
M83 ; extruder relative mode
M104 S240 ; set extruder temp
M140 S85 ; set bed temp
M190 S85 ; wait for bed temp
M109 S240 ; wait for extruder temp
G28 W ; home all without mesh bed level
G80 X56.3455 Y43.8498 W140.459 H138.507 ; mesh bed levelling

G1 Z0.2 F720
G1 Y-3 F1000 ; go outside print area
G92 E0
G1 X60 E9 F1000 ; intro line
G1 X100 E12.5 F1000 ; intro line

G92 E0
M221 S95
G21 ; set units to millimeters
G90 ; use absolute coordinates
M83 ; use relative distances for extrusion

M900 K0.02 ; Filament gcode LA 1.5
; ; Filament gcode LA 1.0




M107
;LAYER_CHANGE
;Z:0.3
;HEIGHT:0.3
G1 E-1 F2100
G1 Z.5 F720
G1 X57.158 Y46.408 F10800
G1 Z.3 F720
G1 E1 F1200
M204 S800
;TYPE:Skirt/Brim
;WIDTH:0.9
G1 X58.261 Y45.062 E.19044
G1 X60.599 Y44.268 E.27021
G1 X192.551 Y44.268 E14.44006
G1 X194.246 Y44.662 E.19044
G1 X195.592 Y45.766 E.19051
G1 X196.386 Y48.103 E.27011
G1 X196.386 Y112.816 E7.08182
G1 X195.992 Y114.511 E.19044
G1 X194.266 Y116.246 E.26782
G1 X63.691 Y181.534 E15.97603
G1 X61.976 Y181.939 E.19284
G1 X60.599 Y181.939 E.15069
G1 X58.904 Y181.544 E.19046
G1 X57.558 Y180.441 E.19044
G1 X56.763 Y178.103 E.27024
G1 X56.763 Y48.103 E14.22645
G1 X57.131 Y46.525 E.17732
M204 S1000
; printing object SideWall id:15 copy 0
;WIPE_START
G1 F8640
G1 X57.158 Y46.408 E-.02773
G1 X58.261 Y45.062 E-.40182
G1 X60.599 Y44.268 E-.57013
G1 X60.6 Y44.268 E-.00032
;WIPE_END
G1 Z.5 F720
G1 X63.756 Y173.684 F10800
G1 Z.3 F720
G1 E1 F1200
M204 S800
;TYPE:Perimeter
;WIDTH:0.899999
G1 X63.756 Y51.26 E13.39737
G1 X188.969 Y51.26 E13.70258
G1 X188.969 Y65.03 E1.50691
M73 Q0 S181
G1 X188.969 Y111.077 E5.03911
G1 X63.863 Y173.63 E15.30686
M204 S1000
;WIPE_START
G1 F8640
M73 P0 R180
G1 X63.756 Y173.684 E-.02767
G1 X63.756 Y169.473 E-.97233
;WIPE_END
G1 Z.5 F720
G1 X62.92 Y175.036 F10800
G1 Z.3 F720
G1 E1 F1200
M204 S800
G1 X62.92 Y50.424 E13.63681
G1 X189.805 Y50.424 E13.88555
G1 X189.805 Y65.03 E1.5984
G1 X189.805 Y111.594 E5.09569
G1 X63.027 Y174.982 E15.51138
M204 S1000
;WIPE_START
G1 F8640
G1 X62.92 Y175.036 E-.02767
G1 X62.92 Y170.825 E-.97233
;WIPE_END
G1 Z.5 F720
G1 X62.085 Y176.388 F10800
G1 Z.3 F720
G1 E1 F1200
M204 S800
G1 X62.085 Y49.589 E13.87614
G1 X190.64 Y49.589 E14.06831
G1 X190.64 Y65.03 E1.68977
G1 X190.64 Y112.11 E5.15216
G1 X62.192 Y176.334 E15.71575
M204 S1000
;WIPE_START
G1 F8640
M73 Q0 S180
G1 X62.085 Y176.388 E-.02767
G1 X62.085 Y172.177 E-.97233
;WIPE_END
G1 Z.5 F720
G1 X61.822 Y177.453 F10800
G1 Z.3 F720
G1 E1 F1200
M204 S800
;TYPE:External perimeter
G1 X61.249 Y177.453 E.06271
G1 X61.249 Y48.753 E14.08418
G1 X191.476 Y48.753 E14.25128
M73 Q1 S180
G1 X191.476 Y65.03 E1.78126
M73 P1 R179
G1 X191.476 Y112.627 E5.20874
G1 X61.93 Y177.4 E15.8501
M204 S1000
;WIPE_START
G1 F8640
G1 X61.822 Y177.453 E-.02778
G1 X61.249 Y177.453 E-.13231
G1 X61.249 Y173.816 E-.83991
;WIPE_END
G1 Z.5 F720
G1 X155.557 Y59.146 F10800
G1 Z.3 F720
G1 E1 F1200
M204 S800
;TYPE:Perimeter
G1 X156.251 Y59.447 E.08278
G1 X157.09 Y59.914 E.10508
G1 X157.881 Y60.465 E.10549
G1 X158.612 Y61.091 E.10532
G1 X159.278 Y61.788 E.1055
G1 X159.869 Y62.543 E.10493
G1 X160.385 Y63.361 E.10584
G1 X160.553 Y63.68 E.03945
G1 X160.968 Y64.598 E.11025
G1 X161.295 Y65.58 E.11327
G1 X161.5 Y66.522 E.1055
G1 X161.61 Y67.474 E.10487
G1 X161.625 Y68.439 E.10562
G1 X161.542 Y69.4 E.10556
G1 X161.367 Y70.342 E.10485
G1 X161.097 Y71.268 E.10556
G1 X160.736 Y72.162 E.10551
G1 X160.289 Y73.012 E.1051
G1 X159.758 Y73.816 E.10544
G1 X159.153 Y74.561 E.10503
G1 X158.472 Y75.245 E.10563
G1 X157.728 Y75.857 E.10543
G1 X156.929 Y76.39 E.10511
G1 X156.078 Y76.843 E.1055
G1 X155.188 Y77.207 E.10523
G1 X154.265 Y77.482 E.1054
G1 X153.321 Y77.664 E.10521
G1 X152.362 Y77.75 E.10537
G1 X151.399 Y77.74 E.10539
G1 X150.443 Y77.635 E.10525
G1 X149.501 Y77.435 E.10538
G1 X148.585 Y77.143 E.10521
G1 X147.701 Y76.76 E.10543
G1 X146.862 Y76.292 E.10513
G1 X146.07 Y75.741 E.10558
G1 X145.34 Y75.116 E.10517
G1 X144.673 Y74.418 E.10565
G1 X144.025 Y73.585 E.11549
G1 X143.567 Y72.845 E.09524
G1 X143.398 Y72.527 E.03941
G1 X142.984 Y71.609 E.1102
G1 X142.657 Y70.627 E.11327
G1 X142.452 Y69.685 E.1055
G1 X142.342 Y68.732 E.10498
G1 X142.327 Y67.768 E.10551
G1 X142.409 Y66.806 E.10566
G1 X142.585 Y65.864 E.10487
G1 X142.855 Y64.939 E.10545
G1 X143.216 Y64.045 E.10551
G1 X143.663 Y63.194 E.10519
G1 X144.193 Y62.391 E.10529
G1 X144.799 Y61.646 E.10509
G1 X145.479 Y60.962 E.10555
G1 X146.224 Y60.35 E.10551
G1 X147.022 Y59.817 E.10502
G1 X147.874 Y59.364 E.1056
G1 X148.763 Y58.999 E.10517
G1 X149.686 Y58.724 E.1054
G1 X150.631 Y58.543 E.1053
G1 X151.59 Y58.457 E.10537
G1 X152.552 Y58.466 E.10528
G1 X153.509 Y58.571 E.10536
G1 X154.45 Y58.771 E.10528
G1 X155.366 Y59.064 E.10524
G1 X155.447 Y59.099 E.00966
M204 S1000
G1 X155.447 Y59.099 F10800
G1 X155.233 Y59.914
M204 S800
G1 F1200
G1 X155.907 Y60.208 E.08047
G1 X156.672 Y60.638 E.09604
G1 X157.393 Y61.144 E.09639
G1 X158.059 Y61.717 E.09615
G1 X158.665 Y62.356 E.09637
G1 X159.203 Y63.048 E.09592
G1 X159.672 Y63.796 E.09662
G1 X159.792 Y64.024 E.0282
G1 X160.206 Y64.942 E.1102
G1 X160.496 Y65.826 E.10181
G1 X160.68 Y66.687 E.09635
G1 X160.778 Y67.558 E.09592
G1 X160.789 Y68.439 E.09642
G1 X160.711 Y69.316 E.09635
G1 X160.548 Y70.177 E.0959
G1 X160.298 Y71.021 E.09633
G1 X159.966 Y71.837 E.09641
G1 X159.555 Y72.613 E.0961
G1 X159.068 Y73.345 E.09621
G1 X158.512 Y74.024 E.09604
G1 X157.889 Y74.647 E.09642
G1 X157.207 Y75.203 E.09629
G1 X156.476 Y75.688 E.096
G1 X155.697 Y76.099 E.09639
G1 X154.883 Y76.43 E.09616
G1 X154.039 Y76.678 E.09627
G1 X153.176 Y76.841 E.09611
G1 X152.3 Y76.917 E.09622
G1 X151.42 Y76.905 E.09631
G1 X150.547 Y76.806 E.09615
G1 X149.688 Y76.621 E.09616
G1 X148.851 Y76.351 E.09624
G1 X148.045 Y75.998 E.09629
G1 X147.279 Y75.568 E.09613
G1 X146.558 Y75.063 E.09633
G1 X145.893 Y74.489 E.09613
G1 X145.286 Y73.85 E.09645
G1 X144.749 Y73.159 E.09577
G1 X144.28 Y72.41 E.09671
G1 X144.16 Y72.183 E.0281
G1 X143.745 Y71.265 E.11025
G1 X143.455 Y70.38 E.10192
G1 X143.271 Y69.52 E.09624
G1 X143.173 Y68.648 E.09603
G1 X143.163 Y67.768 E.09631
G1 X143.241 Y66.89 E.09646
G1 X143.404 Y66.029 E.0959
G1 X143.653 Y65.185 E.0963
G1 X143.986 Y64.37 E.09635
G1 X144.397 Y63.594 E.0961
G1 X144.884 Y62.861 E.09631
G1 X145.439 Y62.182 E.09597
G1 X146.063 Y61.56 E.09642
G1 X146.744 Y61.003 E.09628
G1 X147.476 Y60.518 E.09609
G1 X148.255 Y60.107 E.09639
G1 X149.069 Y59.777 E.09612
G1 X149.912 Y59.529 E.09616
G1 X150.776 Y59.366 E.09622
G1 X151.652 Y59.29 E.09622
G1 X152.531 Y59.301 E.0962
G1 X153.405 Y59.4 E.09626
G1 X154.264 Y59.586 E.09618
G1 X155.1 Y59.856 E.09614
G1 X155.123 Y59.866 E.00274
M204 S1000
G1 X155.123 Y59.866 F10800
G1 X154.929 Y60.69
M204 S800
G1 F1200
G1 X155.563 Y60.97 E.07585
G1 X156.255 Y61.362 E.08703
G1 X156.905 Y61.822 E.08714
G1 X157.506 Y62.344 E.08711
G1 X158.052 Y62.924 E.08717
G1 X158.537 Y63.553 E.08692
G1 X158.958 Y64.231 E.08734
G1 X159.445 Y65.285 E.12706
G1 X159.698 Y66.073 E.09057
G1 X159.861 Y66.852 E.0871
G1 X159.947 Y67.642 E.08696
G1 X159.953 Y68.439 E.08722
G1 X159.88 Y69.233 E.08726
G1 X159.729 Y70.012 E.08684
G1 X159.5 Y70.775 E.08718
G1 X159.196 Y71.512 E.08724
G1 X158.821 Y72.213 E.087
G1 X158.378 Y72.874 E.08708
G1 X157.872 Y73.487 E.08699
G1 X157.306 Y74.048 E.08721
G1 X156.687 Y74.55 E.08722
G1 X156.022 Y74.986 E.08702
G1 X155.316 Y75.355 E.08718
G1 X154.578 Y75.652 E.08706
G1 X153.813 Y75.873 E.08714
G1 X153.031 Y76.018 E.08704
G1 X152.237 Y76.083 E.08718
G1 X151.441 Y76.07 E.08712
G1 X150.651 Y75.977 E.08705
G1 X149.874 Y75.806 E.08707
G1 X149.117 Y75.558 E.08717
G1 X148.389 Y75.237 E.08707
G1 X147.697 Y74.844 E.08709
G1 X147.046 Y74.384 E.08723
G1 X146.445 Y73.863 E.08704
G1 X145.899 Y73.282 E.08725
G1 X145.414 Y72.653 E.08692
G1 X144.994 Y71.975 E.08728
G1 X144.507 Y70.921 E.12706
G1 X144.254 Y70.134 E.09047
G1 X144.09 Y69.354 E.08722
G1 X144.005 Y68.564 E.08695
G1 X143.998 Y67.768 E.08711
G1 X144.072 Y66.974 E.08727
G1 X144.223 Y66.194 E.08694
G1 X144.452 Y65.431 E.08718
G1 X144.756 Y64.695 E.08714
G1 X145.131 Y63.993 E.0871
G1 X145.574 Y63.332 E.08708
G1 X146.08 Y62.719 E.08699
G1 X146.646 Y62.158 E.08721
G1 X147.265 Y61.657 E.08715
G1 X147.929 Y61.22 E.08699
G1 X148.636 Y60.851 E.08727
G1 X149.374 Y60.555 E.08702
G1 X150.139 Y60.333 E.08717
G1 X150.921 Y60.189 E.08702
G1 X151.714 Y60.123 E.08708
G1 X152.511 Y60.137 E.08723
G1 X153.301 Y60.229 E.08704
G1 X154.078 Y60.401 E.08709
G1 X154.819 Y60.643 E.08531
M204 S1000
G1 X154.59 Y61.45 F10800
M204 S800
;TYPE:External perimeter
G1 F1200
G1 X155.219 Y61.732 E.07544
G1 X155.838 Y62.086 E.07803
G1 X156.418 Y62.5 E.07798
G1 X156.953 Y62.971 E.078
G1 X157.439 Y63.492 E.07797
G1 X157.872 Y64.058 E.07799
G1 X158.245 Y64.666 E.07806
G1 X158.683 Y65.629 E.11577
G1 X158.899 Y66.319 E.07912
G1 X159.042 Y67.017 E.07797
G1 X159.116 Y67.726 E.07801
G1 X159.118 Y68.439 E.07803
G1 X159.048 Y69.149 E.07807
G1 X158.91 Y69.847 E.07786
G1 X158.701 Y70.529 E.07806
G1 X158.426 Y71.187 E.07804
G1 X158.087 Y71.813 E.07791
G1 X157.687 Y72.404 E.0781
G1 X157.231 Y72.951 E.07793
G1 X156.722 Y73.45 E.078
G1 X156.166 Y73.896 E.078
G1 X155.569 Y74.285 E.07798
G1 X154.935 Y74.612 E.07807
G1 X154.272 Y74.874 E.07801
G1 X153.587 Y75.069 E.07794
G1 X152.885 Y75.195 E.07805
G1 X152.175 Y75.25 E.07793
G1 X151.462 Y75.234 E.07805
G1 X150.755 Y75.148 E.07794
G1 X150.06 Y74.991 E.07797
G1 X149.383 Y74.766 E.07807
G1 X148.733 Y74.475 E.07794
G1 X148.114 Y74.121 E.07803
G1 X147.534 Y73.706 E.07805
G1 X146.998 Y73.236 E.07801
G1 X146.512 Y72.715 E.07797
G1 X146.08 Y72.148 E.07801
G1 X145.707 Y71.541 E.07797
G1 X145.269 Y70.577 E.11587
G1 X145.052 Y69.888 E.07905
G1 X144.91 Y69.189 E.07806
G1 X144.836 Y68.481 E.0779
G1 X144.834 Y67.768 E.07803
G1 X144.903 Y67.058 E.07806
G1 X145.042 Y66.359 E.07799
G1 X145.25 Y65.678 E.07792
G1 X145.526 Y65.02 E.07809
G1 X145.865 Y64.393 E.078
G1 X146.265 Y63.803 E.07801
G1 X146.72 Y63.256 E.07786
G1 X147.229 Y62.756 E.07808
G1 X147.786 Y62.31 E.07809
G1 X148.383 Y61.922 E.07792
G1 X149.017 Y61.595 E.07807
G1 X149.679 Y61.333 E.07791
G1 X150.365 Y61.138 E.07805
G1 X151.066 Y61.012 E.07794
G1 X151.777 Y60.956 E.07805
G1 X152.49 Y60.972 E.07805
G1 X153.197 Y61.059 E.07795
G1 X153.892 Y61.215 E.07795
G1 X154.477 Y61.41 E.06748
M204 S1000
;WIPE_START
G1 F8640
G1 X154.59 Y61.45 E-.02768
G1 X155.219 Y61.732 E-.15917
G1 X155.838 Y62.086 E-.16465
G1 X156.418 Y62.5 E-.16454
G1 X156.953 Y62.971 E-.16458
G1 X157.439 Y63.492 E-.16452
G1 X157.846 Y64.025 E-.15486
;WIPE_END
G1 Z.5 F720
G1 X186.942 Y51.594 F10800
G1 Z.3 F720
G1 E1 F1200
M204 S800
;TYPE:Solid infill
;WIDTH:0.901643
G1 X188.259 Y52.911 E.20422
G1 X188.259 Y54.095 E.12982
G1 X186.134 Y51.97 E.32952
G1 X184.95 Y51.97 E.12982
G1 X188.259 Y55.279 E.51312
G1 X188.259 Y56.463 E.12982
G1 X183.766 Y51.97 E.69672
G1 X182.582 Y51.97 E.12982
G1 X188.259 Y57.647 E.88032
G1 X188.259 Y58.831 E.12982
G1 X181.398 Y51.97 E1.06392
G1 X180.214 Y51.97 E.12982
G1 X188.259 Y60.015 E1.24752
G1 X188.259 Y61.199 E.12982
G1 X179.03 Y51.97 E1.43112
G1 X177.846 Y51.97 E.12982
G1 X188.259 Y62.383 E1.61472
G1 X188.259 Y63.568 E.12993
G1 X176.662 Y51.97 E1.7984
G1 X175.477 Y51.97 E.12993
G1 X188.259 Y64.752 E1.98207
G1 X188.259 Y65.936 E.12982
G1 X174.293 Y51.97 E2.16567
G1 X173.109 Y51.97 E.12982
G1 X188.259 Y67.12 E2.34927
G1 X188.259 Y68.304 E.12982
G1 X171.925 Y51.97 E2.53287
G1 X170.741 Y51.97 E.12982
G1 X188.259 Y69.488 E2.71647
G1 X188.259 Y70.672 E.12982
G1 X169.557 Y51.97 E2.90007
G1 X168.373 Y51.97 E.12982
G1 X188.259 Y71.856 E3.08367
G1 X188.259 Y73.04 E.12982
G1 X167.189 Y51.97 E3.26727
G1 X166.005 Y51.97 E.12982
G1 X188.259 Y74.224 E3.45087
G1 X188.259 Y75.408 E.12982
G1 X164.821 Y51.97 E3.63447
G1 X163.637 Y51.97 E.12982
G1 X188.259 Y76.592 E3.81807
G1 X188.259 Y77.776 E.12982
G1 X162.453 Y51.97 E4.00167
G1 X161.269 Y51.97 E.12982
G1 X188.259 Y78.96 E4.18527
G1 X188.259 Y80.144 E.12982
M73 Q1 S179
G1 X160.085 Y51.97 E4.36887
G1 X158.901 Y51.97 E.12982
G1 X188.259 Y81.329 E4.55255
G1 X188.259 Y82.513 E.12982
G1 X157.716 Y51.97 E4.73623
G1 X156.532 Y51.97 E.12982
G1 X188.259 Y83.697 E4.91983
G1 X188.259 Y84.881 E.12982
M73 P1 R178
G1 X155.348 Y51.97 E5.10343
G1 X154.164 Y51.97 E.12982
G1 X188.259 Y86.065 E5.28703
G1 X188.259 Y87.249 E.12982
G1 X152.98 Y51.97 E5.47063
G1 X151.796 Y51.97 E.12982
G1 X188.259 Y88.433 E5.65423
G1 X188.259 Y89.617 E.12982
G1 X150.612 Y51.97 E5.83783
G1 X149.428 Y51.97 E.12982
G1 X156.04 Y58.582 E1.02531
G1 X156.552 Y58.803 E.06115
G1 X157.453 Y59.304 E.11304
G1 X158.304 Y59.894 E.11354
G1 X159.089 Y60.565 E.11323
G1 X159.806 Y61.313 E.11361
G1 X160.441 Y62.121 E.11268
G1 X160.995 Y62.997 E.11365
G1 X161.197 Y63.38 E.04748
G1 X161.486 Y64.028 E.0778
G1 X188.259 Y90.801 E4.15162
G1 X188.259 Y91.985 E.12982
G1 X162.075 Y65.802 E4.06021
G1 X162.221 Y66.52 E.08034
G1 X162.291 Y67.202 E.07517
G1 X188.259 Y93.169 E4.02672
G1 X188.259 Y94.353 E.12982
G1 X162.331 Y68.425 E4.02059
G1 X162.331 Y68.621 E.02149
G1 X162.24 Y69.519 E.09897
G1 X188.259 Y95.537 E4.03463
G1 X188.259 Y96.721 E.12982
G1 X162.052 Y70.515 E4.06378
G1 X162.023 Y70.661 E.01632
G1 X161.785 Y71.432 E.08848
G1 X188.259 Y97.905 E4.10518
G1 X188.259 Y99.09 E.12993
G1 X161.451 Y72.282 E4.15705
G1 X161.315 Y72.604 E.03833
G1 X161.059 Y73.074 E.05868
G1 X188.259 Y100.274 E4.21784
G1 X188.259 Y101.458 E.12982
G1 X160.615 Y73.814 E4.28669
G1 X160.24 Y74.363 E.0729
G1 X160.122 Y74.505 E.02024
G1 X188.259 Y102.642 E4.36314
G1 X188.259 Y103.826 E.12982
G1 X159.58 Y75.147 E4.44718
G1 X158.984 Y75.735 E.0918
G1 X188.259 Y105.01 E4.5396
G1 X188.259 Y106.194 E.12982
G1 X158.339 Y76.274 E4.63962
G1 X158.072 Y76.489 E.03759
G1 X157.647 Y76.766 E.05563
G1 X188.259 Y107.378 E4.74693
G1 X188.259 Y108.562 E.12982
G1 X156.907 Y77.21 E4.86168
G1 X156.281 Y77.534 E.07729
G1 X156.114 Y77.601 E.01973
G1 X188.259 Y109.746 E4.98465
G1 X188.259 Y110.638 E.09781
M73 P2 R178
M73 Q2 S179
G1 X188.064 Y110.736 E.02393
G1 X155.261 Y77.933 E5.08668
G1 X154.341 Y78.197 E.10495
M73 Q2 S178
G1 X187.275 Y111.13 E5.10692
G1 X186.485 Y111.525 E.09685
G1 X153.34 Y78.38 E5.13971
G1 X152.241 Y78.465 E.12086
G1 X185.696 Y111.92 E5.18779
G1 X184.907 Y112.314 E.0967
G1 X151.007 Y78.415 E5.25671
G1 X150.174 Y78.313 E.09202
M73 P2 R177
G1 X149.587 Y78.179 E.06602
G1 X184.397 Y112.989 E5.3979
M204 S1000
;WIPE_START
G1 F8640
G1 X181.335 Y109.927 E-1
;WIPE_END
G1 Z.5 F720
G1 X147.868 Y51.594 F10800
G1 Z.3 F720
G1 E1 F1200
M204 S800
G1 X154.284 Y58.01 E.99491
G1 X153.607 Y57.867 E.07587
G1 X152.878 Y57.788 E.0804
G1 X147.06 Y51.97 E.90218
G1 X145.876 Y51.97 E.12982
G1 X151.654 Y57.748 E.89598
G1 X150.559 Y57.838 E.12047
G1 X144.692 Y51.97 E.90986
G1 X143.508 Y51.97 E.12982
G1 X149.563 Y58.026 E.93901
G1 X148.647 Y58.294 E.10465
G1 X142.324 Y51.97 E.98057
G1 X141.14 Y51.97 E.12982
G1 X147.798 Y58.629 E1.03252
G1 X147.558 Y58.727 E.02843
G1 X147.007 Y59.021 E.06848
G1 X139.955 Y51.97 E1.09346
G1 X138.771 Y51.97 E.12982
G1 X146.268 Y59.467 E1.16254
G1 X145.788 Y59.788 E.06332
G1 X145.578 Y59.961 E.02983
G1 X137.587 Y51.97 E1.23914
G1 X136.403 Y51.97 E.12982
G1 X144.935 Y60.502 E1.32304
G1 X144.345 Y61.096 E.0918
G1 X135.219 Y51.97 E1.41515
G1 X134.035 Y51.97 E.12982
