; generated by PrusaSlicer 2.7.2 on 2025-05-10 at 19:39:53 UTC


;
;
; 

; external perimeters extrusion width = 1.00mm
; perimeters extrusion width = 1.00mm
; infill extrusion width = 0.90mm
; solid infill extrusion width = 0.90mm
; top infill extrusion width = 0.80mm
; first layer extrusion width = 0.90mm

; external perimeters extrusion width = 1.00mm
; perimeters extrusion width = 1.00mm
; infill extrusion width = 0.90mm
; solid infill extrusion width = 0.90mm
; top infill extrusion width = 0.80mm
; first layer extrusion width = 0.90mm

; external perimeters extrusion width = 1.00mm
; perimeters extrusion width = 1.00mm
; infill extrusion width = 0.90mm
; solid infill extrusion width = 0.90mm
; top infill extrusion width = 0.80mm
; first layer extrusion width = 0.90mm

; external perimeters extrusion width = 1.00mm
; perimeters extrusion width = 1.00mm
; infill extrusion width = 0.90mm
; solid infill extrusion width = 0.90mm
; top infill extrusion width = 0.80mm
; first layer extrusion width = 0.90mm

; external perimeters extrusion width = 1.00mm
; perimeters extrusion width = 1.00mm
; infill extrusion width = 0.90mm
; solid infill extrusion width = 0.90mm
; top infill extrusion width = 0.80mm
; first layer extrusion width = 0.90mm

; external perimeters extrusion width = 1.00mm
; perimeters extrusion width = 1.00mm
; infill extrusion width = 0.90mm
; solid infill extrusion width = 0.90mm
; top infill extrusion width = 0.80mm
; first layer extrusion width = 0.90mm

; external perimeters extrusion width = 1.00mm
; perimeters extrusion width = 1.00mm
; infill extrusion width = 0.90mm
; solid infill extrusion width = 0.90mm
; top infill extrusion width = 0.80mm
; first layer extrusion width = 0.90mm

M73 P0 R224
M73 Q0 S226
M201 X1000 Y1000 Z200 E5000 ; sets maximum accelerations, mm/sec^2
M203 X200 Y200 Z12 E120 ; sets maximum feedrates, mm / sec
M204 S1250 T1250 ; sets acceleration (S) and retract acceleration (R), mm/sec^2
M205 X8.00 Y8.00 Z0.40 E4.50 ; sets the jerk limits, mm/sec
M205 S0 T0 ; sets the minimum extruding and travel feed rate, mm/sec

; printing object SideWall001-Dowel-Connector-1 id:20 copy 0
; stop printing object SideWall001-Dowel-Connector-1 id:20 copy 0
; printing object SideWall001-Dowel-Connector-5 id:24 copy 0
; stop printing object SideWall001-Dowel-Connector-5 id:24 copy 0
; printing object SideWall001-Dowel-Connector-3 id:22 copy 0
; stop printing object SideWall001-Dowel-Connector-3 id:22 copy 0
; printing object SideWall001-Dowel-Connector-2 id:21 copy 0
; stop printing object SideWall001-Dowel-Connector-2 id:21 copy 0
; printing object SideWall001-Dowel-Connector-4 id:23 copy 0
; stop printing object SideWall001-Dowel-Connector-4 id:23 copy 0
; printing object SideWall001 id:19 copy 0
; stop printing object SideWall001 id:19 copy 0
; printing object SideWall001-Dowel-Connector-6 id:25 copy 0
; stop printing object SideWall001-Dowel-Connector-6 id:25 copy 0

;TYPE:Custom
M862.3 P "MK3S" ; printer model check
M862.1 P0.8 ; nozzle diameter check
M115 U3.13.3 ; tell printer latest fw version
G90 ; use absolute coordinates
M83 ; extruder relative mode
M104 S240 ; set extruder temp
M140 S85 ; set bed temp
M190 S85 ; wait for bed temp
M109 S240 ; wait for extruder temp
G28 W ; home all without mesh bed level
G80 X97.4152 Y24.1314 W134.307 H160.507 ; mesh bed levelling

G1 Z0.2 F720
G1 Y-3 F1000 ; go outside print area
M73 Q0 S225
G92 E0
G1 X60 E9 F1000 ; intro line
G1 X100 E12.5 F1000 ; intro line

G92 E0
M221 S95
G21 ; set units to millimeters
G90 ; use absolute coordinates
M83 ; use relative distances for extrusion

M900 K0.02 ; Filament gcode LA 1.5
; ; Filament gcode LA 1.0




M107
;LAYER_CHANGE
;Z:0.3
;HEIGHT:0.3
G1 E-1 F2100
M73 P0 R223
G1 Z.5 F720
G1 X107.028 Y29.385 F10800
G1 Z.3 F720
G1 E1 F1200
M204 S800
;TYPE:Skirt/Brim
;WIDTH:0.9
G1 X107.297 Y28.542 E.09684
G1 X107.714 Y27.688 E.104
G1 X108.239 Y26.924 E.10145
G1 X108.887 Y26.229 E.10399
G1 X109.577 Y25.676 E.09677
G1 X110.376 Y25.205 E.1015
G1 X111.194 Y24.87 E.09673
G1 X112.116 Y24.64 E.10399
G1 X113.183 Y24.549 E.11719
G1 X135.217 Y24.549 E2.41127
G1 X227.924 Y35.576 E10.21683
G1 X229.56 Y36.169 E.19043
G1 X230.765 Y37.424 E.1904
G1 X231.304 Y39.385 E.22256
G1 X231.304 Y169.385 E14.22645
G1 X230.91 Y171.08 E.19044
G1 X229.807 Y172.426 E.19044
G1 X227.924 Y173.194 E.22254
G1 X135.813 Y184.189 E10.15165
G1 X113.183 Y184.221 E2.4765
G1 X112.05 Y184.118 E.1245
G1 X110.985 Y183.827 E.12082
G1 X109.987 Y183.355 E.12081
G1 X109.086 Y182.717 E.12082
G1 X98.887 Y172.026 E1.61695
G1 X98.006 Y170.524 E.19056
G1 X97.833 Y169.385 E.12608
G1 X97.833 Y75.704 E10.25191
G1 X97.908 Y74.952 E.0827
G1 X107.005 Y29.502 E5.07244
M204 S1000
; printing object SideWall001-Dowel-Connector-6 id:25 copy 0
;WIPE_START
G1 F8640
G1 X107.028 Y29.385 E-.02753
G1 X107.297 Y28.542 E-.20432
G1 X107.714 Y27.688 E-.21944
G1 X108.239 Y26.924 E-.21405
G1 X108.887 Y26.229 E-.21941
G1 X109.276 Y25.917 E-.11525
;WIPE_END
G1 Z.5 F720
G1 X113.579 Y30.818 F10800
G1 Z.3 F720
G1 E1 F1200
M204 S800
;TYPE:Perimeter
;WIDTH:0.833747
G1 X113.443 Y30.601 E.0258
G1 X113.275 Y30.494 E.02007
G1 X113.055 Y30.522 E.02235
G1 X112.878 Y30.633 E.02105
G1 X112.789 Y30.923 E.03056
G1 X112.908 Y31.16 E.02672
G1 X113.109 Y31.267 E.02294
G1 X113.4 Y31.223 E.02965
G1 X113.546 Y31.013 E.02577
G1 X113.579 Y30.818 E.01993
M204 S1000
;WIPE_START
G1 F8640
G1 X113.546 Y31.013 E-.04567
G1 X113.4 Y31.223 E-.05906
G1 X113.109 Y31.267 E-.06796
G1 X112.908 Y31.16 E-.05258
G1 X112.789 Y30.923 E-.06123
G1 X112.878 Y30.633 E-.07004
G1 X113.055 Y30.522 E-.04824
G1 X113.275 Y30.494 E-.05121
G1 X113.443 Y30.601 E-.04599
G1 X113.579 Y30.818 E-.05913
;WIPE_END
G1 E-.43889 F2100
G1 Z.5 F720
G1 X112.986 Y29.695 F10800
G1 Z.3 F720
G1 E1 F1200
M204 S800
;WIDTH:0.899999
G1 X113.439 Y29.704 E.04958
G1 X113.732 Y29.814 E.03425
G1 X114.116 Y30.129 E.05435
G1 X114.313 Y30.464 E.04253
G1 X114.378 Y30.741 E.03114
G1 X114.384 Y30.972 E.02529
G1 X114.243 Y31.448 E.05433
G1 X114.012 Y31.76 E.04248
G1 X113.783 Y31.928 E.03108
G1 X113.309 Y32.079 E.05444
G1 X112.954 Y32.063 E.03889
G1 X112.62 Y31.945 E.03877
G1 X112.335 Y31.734 E.03881
G1 X112.124 Y31.448 E.03889
G1 X111.986 Y31 E.0513
G1 X112.036 Y30.534 E.05129
G1 X112.255 Y30.12 E.05125
G1 X112.62 Y29.825 E.05136
G1 X112.873 Y29.735 E.02939
M204 S1000
G1 X112.873 Y29.735 F10800
G1 X112.755 Y28.891
M204 S800
;TYPE:External perimeter
G1 F1200
G1 X112.804 Y28.873 E.00571
G1 X113.353 Y28.855 E.06011
G1 X113.824 Y28.949 E.05256
G1 X114.319 Y29.182 E.05987
G1 X114.773 Y29.598 E.06739
G1 X115.085 Y30.128 E.0673
G1 X115.21 Y30.661 E.05991
G1 X115.195 Y31.265 E.06612
G1 X114.989 Y31.845 E.06736
G1 X114.623 Y32.34 E.06737
G1 X114.458 Y32.476 E.0234
G1 X113.993 Y32.765 E.05991
G1 X113.397 Y32.919 E.06736
G1 X112.793 Y32.892 E.06616
G1 X112.223 Y32.691 E.06614
G1 X111.737 Y32.331 E.06619
G1 X111.378 Y31.845 E.06612
G1 X111.172 Y31.265 E.06736
G1 X111.137 Y30.896 E.04056
G1 X111.228 Y30.287 E.06739
G1 X111.493 Y29.731 E.0674
G1 X111.728 Y29.445 E.04051
G1 X112.223 Y29.079 E.06737
G1 X112.642 Y28.931 E.04863
M204 S1000
; stop printing object SideWall001-Dowel-Connector-6 id:25 copy 0
; printing object SideWall001-Dowel-Connector-5 id:24 copy 0
;WIPE_START
G1 F8640
G1 X112.755 Y28.891 E-.02768
G1 X112.804 Y28.873 E-.01205
G1 X113.353 Y28.855 E-.12683
G1 X113.824 Y28.949 E-.1109
G1 X114.319 Y29.182 E-.12633
G1 X114.773 Y29.598 E-.14218
G1 X115.085 Y30.128 E-.14201
G1 X115.21 Y30.661 E-.12641
G1 X115.195 Y31.265 E-.13951
G1 X115.128 Y31.453 E-.0461
;WIPE_END
G1 Z.5 F720
G1 X124.58 Y30.818 F10800
G1 Z.3 F720
G1 E1 F1200
M204 S800
;TYPE:Perimeter
;WIDTH:0.833741
G1 X124.444 Y30.601 E.0258
G1 X124.275 Y30.494 E.02015
G1 X124.055 Y30.522 E.02235
G1 X123.878 Y30.633 E.02105
G1 X123.789 Y30.923 E.03056
G1 X123.941 Y31.204 E.03219
G1 X124.097 Y31.266 E.01691
G1 X124.389 Y31.229 E.02966
G1 X124.527 Y31.067 E.02144
G1 X124.58 Y30.818 E.02565
M204 S1000
;WIPE_START
G1 F8640
G1 X124.527 Y31.067 E-.05878
G1 X124.389 Y31.229 E-.04914
G1 X124.097 Y31.266 E-.06796
G1 X123.941 Y31.204 E-.03876
G1 X123.789 Y30.923 E-.07377
G1 X123.878 Y30.633 E-.07004
G1 X124.055 Y30.522 E-.04824
G1 X124.275 Y30.494 E-.05121
G1 X124.444 Y30.601 E-.04619
G1 X124.58 Y30.818 E-.05913
;WIPE_END
G1 E-.43678 F2100
G1 Z.5 F720
G1 X123.124 Y31.448 F10800
G1 Z.3 F720
G1 E1 F1200
M204 S800
;WIDTH:0.899999
G1 X122.986 Y31 E.0513
G1 X123.036 Y30.534 E.05129
G1 X123.256 Y30.12 E.05131
G1 X123.62 Y29.825 E.05127
G1 X123.986 Y29.695 E.0425
G1 X124.44 Y29.704 E.04969
G1 X124.733 Y29.814 E.03425
G1 X125.117 Y30.129 E.05435
G1 X125.314 Y30.464 E.04253
G1 X125.378 Y30.741 E.03111
G1 X125.384 Y30.972 E.02529
G1 X125.244 Y31.448 E.0543
G1 X125.013 Y31.76 E.04248
G1 X124.783 Y31.928 E.03117
G1 X124.309 Y32.079 E.05444
G1 X124.062 Y32.068 E.02706
G1 X123.707 Y31.995 E.03966
G1 X123.441 Y31.831 E.0342
G1 X123.2 Y31.541 E.04126
M204 S1000
G1 X123.2 Y31.541 F10800
G1 X122.356 Y31.783
M204 S800
;TYPE:External perimeter
G1 F1200
G1 X122.172 Y31.265 E.06016
G1 X122.137 Y30.896 E.04056
G1 X122.228 Y30.287 E.06739
G1 X122.493 Y29.731 E.0674
G1 X122.729 Y29.445 E.04058
G1 X123.224 Y29.079 E.06737
G1 X123.804 Y28.873 E.06736
G1 X124.354 Y28.855 E.06022
G1 X124.824 Y28.949 E.05245
G1 X125.319 Y29.182 E.05987
G1 X125.773 Y29.598 E.06739
G1 X126.086 Y30.128 E.06736
G1 X126.21 Y30.661 E.05989
G1 X126.195 Y31.265 E.06612
G1 X125.99 Y31.845 E.06732
G1 X125.623 Y32.34 E.06743
G1 X125.458 Y32.476 E.0234
G1 X124.994 Y32.765 E.05982
G1 X124.398 Y32.919 E.06736
G1 X123.784 Y32.892 E.06726
G1 X123.56 Y32.824 E.02562
G1 X123.186 Y32.663 E.04456
G1 X122.744 Y32.34 E.05991
G1 X122.41 Y31.889 E.06142
M204 S1000
; stop printing object SideWall001-Dowel-Connector-5 id:24 copy 0
; printing object SideWall001-Dowel-Connector-3 id:22 copy 0
;WIPE_START
G1 F8640
G1 X122.356 Y31.783 E-.02747
G1 X122.172 Y31.265 E-.12693
G1 X122.137 Y30.896 E-.08559
G1 X122.228 Y30.287 E-.14218
G1 X122.493 Y29.731 E-.14222
G1 X122.729 Y29.445 E-.08562
G1 X123.224 Y29.079 E-.14215
G1 X123.804 Y28.873 E-.14212
G1 X124.261 Y28.858 E-.10572
;WIPE_END
G1 Z.5 F720
G1 X135.568 Y30.902 F10800
G1 Z.3 F720
G1 E1 F1200
M204 S800
;TYPE:Perimeter
;WIDTH:0.833739
G1 X135.511 Y30.652 E.02584
G1 X135.341 Y30.515 E.022
G1 X135.154 Y30.487 E.01905
G1 X134.909 Y30.61 E.02762
G1 X134.783 Y30.875 E.02956
G1 X134.83 Y31.068 E.02001
G1 X135.085 Y31.273 E.03297
G1 X135.246 Y31.271 E.01622
G1 X135.459 Y31.16 E.0242
G1 X135.566 Y30.959 E.02294
G1 X135.568 Y30.902 E.00575
M204 S1000
;WIPE_START
G1 F8640
G1 X135.566 Y30.959 E-.01317
G1 X135.459 Y31.16 E-.05258
G1 X135.246 Y31.271 E-.05546
G1 X135.085 Y31.273 E-.03718
G1 X134.83 Y31.068 E-.07555
G1 X134.783 Y30.875 E-.04587
G1 X134.909 Y30.61 E-.06775
G1 X135.154 Y30.487 E-.0633
G1 X135.341 Y30.515 E-.04366
G1 X135.511 Y30.652 E-.05041
G1 X135.568 Y30.902 E-.05921
;WIPE_END
G1 E-.43586 F2100
G1 Z.5 F720
G1 X134.62 Y29.825 F10800
G1 Z.3 F720
G1 E1 F1200
M204 S800
;WIDTH:0.899999
G1 X134.788 Y29.766 E.01949
G1 X135.179 Y29.677 E.04388
G1 X135.656 Y29.772 E.05323
G1 X136.038 Y30.03 E.05045
G1 X136.227 Y30.286 E.03482
G1 X136.378 Y30.759 E.05434
G1 X136.37 Y30.937 E.0195
G1 X136.362 Y31.114 E.01939
G1 X136.244 Y31.448 E.03877
G1 X136.033 Y31.734 E.03889
G1 X135.747 Y31.945 E.03889
G1 X135.58 Y32.004 E.01938
G1 X135.184 Y32.093 E.04442
G1 X134.87 Y32.046 E.03475
G1 X134.429 Y31.818 E.05433
G1 X134.17 Y31.535 E.04198
G1 X133.998 Y31.115 E.04967
G1 X133.984 Y30.798 E.03472
G1 X134.124 Y30.321 E.0544
G1 X134.335 Y30.036 E.03881
G1 X134.524 Y29.896 E.02574
M204 S1000
G1 X134.524 Y29.896 F10800
G1 X134.29 Y29.055
M204 S800
;TYPE:External perimeter
G1 F1200
G1 X134.804 Y28.873 E.05967
G1 X135.012 Y28.853 E.02287
G1 X135.611 Y28.882 E.06563
G1 X135.984 Y29 E.04281
G1 X136.476 Y29.308 E.06352
G1 X136.775 Y29.61 E.04651
G1 X137.064 Y30.075 E.05991
G1 X137.218 Y30.671 E.06736
G1 X137.205 Y30.973 E.03308
G1 X137.192 Y31.275 E.03308
G1 X136.99 Y31.845 E.06618
G1 X136.63 Y32.331 E.06619
G1 X136.144 Y32.691 E.06619
G1 X135.564 Y32.896 E.06732
G1 X135.351 Y32.917 E.02342
G1 X134.96 Y32.911 E.04279
G1 X134.427 Y32.787 E.05989
G1 X133.897 Y32.474 E.06736
G1 X133.482 Y32.021 E.06723
G1 X133.372 Y31.815 E.02556
G1 X133.232 Y31.473 E.04044
G1 X133.152 Y31.052 E.0469
G1 X133.173 Y30.505 E.0599
G1 X133.378 Y29.925 E.06732
G1 X133.738 Y29.439 E.06619
G1 X134.184 Y29.108 E.06078
M204 S1000
; stop printing object SideWall001-Dowel-Connector-3 id:22 copy 0
; printing object SideWall001 id:19 copy 0
;WIPE_START
G1 F8640
G1 X134.29 Y29.055 E-.02736
G1 X134.804 Y28.873 E-.1259
G1 X135.012 Y28.853 E-.04825
G1 X135.611 Y28.882 E-.13847
G1 X135.984 Y29 E-.09033
G1 X136.476 Y29.308 E-.13403
G1 X136.775 Y29.61 E-.09813
G1 X137.064 Y30.075 E-.12642
G1 X137.218 Y30.671 E-.14214
G1 X137.205 Y30.97 E-.06897
;WIPE_END
G1 Z.5 F720
G1 X224.312 Y42.542 F10800
G1 Z.3 F720
G1 E1 F1200
M204 S800
;TYPE:Perimeter
G1 X224.312 Y93.172 E5.54065
G1 X224.312 Y166.228 E7.99482
G1 X104.995 Y166.228 E13.05735
G1 X104.995 Y77.142 E9.74905
G1 X133.247 Y42.542 E4.88833
G1 X224.192 Y42.542 E9.95249
M73 Q0 S224
M204 S1000
;WIPE_START
G1 F8640
G1 X224.312 Y42.542 E-.02771
G1 X224.312 Y46.753 E-.97229
;WIPE_END
G1 Z.5 F720
G1 X225.148 Y41.706 F10800
G1 Z.3 F720
G1 E1 F1200
M204 S800
G1 X225.148 Y93.172 E5.63214
G1 X225.148 Y167.064 E8.08631
M73 P0 R222
G1 X104.16 Y167.064 E13.24022
G1 X104.16 Y76.844 E9.87315
G1 X132.85 Y41.706 E4.96425
G1 X225.028 Y41.706 E10.08742
M204 S1000
;WIPE_START
G1 F8640
G1 X225.148 Y41.706 E-.02771
G1 X225.148 Y45.917 E-.97229
;WIPE_END
G1 Z.5 F720
G1 X225.983 Y40.871 F10800
G1 Z.3 F720
G1 E1 F1200
M204 S800
G1 X225.983 Y93.172 E5.72352
G1 X225.983 Y167.899 E8.17769
G1 X103.324 Y167.899 E13.42308
G1 X103.324 Y76.546 E9.99714
G1 X132.454 Y40.871 E5.04023
G1 X225.863 Y40.871 E10.22213
M204 S1000
;WIPE_START
G1 F8640
G1 X225.983 Y40.871 E-.02771
G1 X225.983 Y45.082 E-.97229
;WIPE_END
G1 Z.5 F720
G1 X226.819 Y40.035 F10800
G1 Z.3 F720
G1 E1 F1200
M204 S800
;TYPE:External perimeter
G1 X226.819 Y93.172 E5.815
G1 X226.819 Y168.735 E8.26917
G1 X102.489 Y168.735 E13.60595
M73 Q0 S223
G1 X102.489 Y76.248 E10.12124
M73 P0 R221
G1 X132.057 Y40.035 E5.11615
G1 X226.699 Y40.035 E10.35707
M204 S1000
;WIPE_START
G1 F8640
M73 P1 R221
M73 Q1 S223
G1 X226.819 Y40.035 E-.02771
G1 X226.819 Y44.246 E-.97229
;WIPE_END
G1 Z.5 F720
G1 X161.527 Y149.897 F10800
G1 Z.3 F720
G1 E1 F1200
M204 S800
;TYPE:Perimeter
G1 X161.466 Y150.679 E.08584
G1 X161.289 Y151.626 E.10543
G1 X161.02 Y152.55 E.10532
G1 X160.659 Y153.442 E.10531
G1 X160.212 Y154.294 E.10529
G1 X159.682 Y155.097 E.10529
G1 X159.074 Y155.844 E.1054
G1 X158.396 Y156.526 E.10524
G1 X157.652 Y157.138 E.10543
G1 X156.852 Y157.672 E.10526
G1 X156.002 Y158.124 E.10535
G1 X155.111 Y158.489 E.10537
G1 X154.189 Y158.764 E.10529
G1 X153.244 Y158.945 E.1053
G1 X152.285 Y159.032 E.10538
G1 X151.322 Y159.022 E.10539
G1 X150.366 Y158.917 E.10525
G1 X149.424 Y158.717 E.10538
G1 X148.507 Y158.424 E.10535
G1 X147.625 Y158.042 E.10518
G1 X146.784 Y157.573 E.10538
G1 X145.994 Y157.023 E.10534
G1 X145.263 Y156.397 E.10532
G1 X144.598 Y155.702 E.10526
G1 X144.005 Y154.944 E.10532
G1 X143.49 Y154.13 E.10541
G1 X143.06 Y153.269 E.10532
G1 X142.717 Y152.37 E.1053
G1 X142.466 Y151.441 E.10531
G1 X142.308 Y150.491 E.10539
G1 X142.245 Y149.531 E.10528
G1 X142.279 Y148.569 E.10534
G1 X142.408 Y147.615 E.10535
G1 X142.631 Y146.679 E.1053
G1 X142.743 Y146.332 E.0399
G1 X143.111 Y145.395 E.11016
G1 X143.585 Y144.476 E.11316
G1 X144.116 Y143.673 E.10535
G1 X144.723 Y142.926 E.10533
G1 X145.402 Y142.244 E.10532
G1 X146.145 Y141.632 E.10534
G1 X146.946 Y141.098 E.10535
G1 X147.795 Y140.646 E.10526
G1 X148.686 Y140.281 E.10537
G1 X149.608 Y140.006 E.10529
G1 X150.553 Y139.825 E.1053
G1 X151.512 Y139.738 E.10538
G1 X152.475 Y139.748 E.10539
G1 X153.431 Y139.853 E.10525
G1 X154.373 Y140.053 E.10538
G1 X155.29 Y140.346 E.10535
G1 X156.173 Y140.728 E.10529
G1 X157.014 Y141.197 E.10538
G1 X157.804 Y141.747 E.10534
G1 X158.535 Y142.373 E.10532
G1 X159.2 Y143.068 E.10526
