; generated by PrusaSlicer 2.7.2 on 2025-05-13 at 05:55:49 UTC


;
;
; 

; external perimeters extrusion width = 1.00mm
; perimeters extrusion width = 1.00mm
; infill extrusion width = 0.90mm
; solid infill extrusion width = 0.90mm
; top infill extrusion width = 0.80mm
; first layer extrusion width = 0.90mm

M73 P0 R220
M73 Q0 S221
M201 X1000 Y1000 Z200 E5000 ; sets maximum accelerations, mm/sec^2
M203 X200 Y200 Z12 E120 ; sets maximum feedrates, mm / sec
M204 S1250 T1250 ; sets acceleration (S) and retract acceleration (R), mm/sec^2
M205 X8.00 Y8.00 Z0.40 E4.50 ; sets the jerk limits, mm/sec
M205 S0 T0 ; sets the minimum extruding and travel feed rate, mm/sec

; printing object Pocket009 id:16 copy 0
; stop printing object Pocket009 id:16 copy 0

;TYPE:Custom
M862.3 P "MK3S" ; printer model check
M862.1 P0.8 ; nozzle diameter check
M115 U3.13.3 ; tell printer latest fw version
G90 ; use absolute coordinates
M83 ; extruder relative mode
M104 S240 ; set extruder temp
M140 S85 ; set bed temp
M190 S85 ; wait for bed temp
M109 S240 ; wait for extruder temp
G28 W ; home all without mesh bed level
G80 X52.1932 Y44.9703 W164.764 H138.507 ; mesh bed levelling

G1 Z0.2 F720
G1 Y-3 F1000 ; go outside print area
G92 E0
G1 X60 E9 F1000 ; intro line
G1 X100 E12.5 F1000 ; intro line

G92 E0
M221 S95
G21 ; set units to millimeters
G90 ; use absolute coordinates
M83 ; use relative distances for extrusion

M900 K0.02 ; Filament gcode LA 1.5
; ; Filament gcode LA 1.0




M107
;LAYER_CHANGE
;Z:0.3
;HEIGHT:0.3
G1 E-1 F2100
G1 Z.5 F720
G1 X54.109 Y46.183 F10800
G1 Z.3 F720
G1 E1 F1200
M204 S800
;TYPE:Skirt/Brim
;WIDTH:0.9
G1 X56.447 Y45.388 E.27024
G1 X212.703 Y45.388 E17.09975
G1 X214.398 Y45.783 E.19046
G1 X215.744 Y46.886 E.19044
G1 X216.539 Y49.224 E.27024
G1 X216.539 Y113.936 E7.08171
G1 X216.144 Y115.631 E.19046
G1 X214.419 Y117.367 E.26782
G1 X83.844 Y182.654 E15.97598
G1 X82.128 Y183.059 E.19295
G1 X56.447 Y183.059 E2.81038
G1 X54.752 Y182.665 E.19044
G1 X53.406 Y181.561 E.19051
G1 X52.611 Y179.224 E.27014
G1 X52.611 Y49.224 E14.22645
G1 X53.006 Y47.529 E.19046
G1 X54.033 Y46.276 E.17729
M204 S1000
; printing object Pocket009 id:16 copy 0
;WIPE_START
G1 F8640
G1 X54.109 Y46.183 E-.02773
G1 X56.447 Y45.388 E-.57021
G1 X58.188 Y45.388 E-.40206
;WIPE_END
G1 Z.5 F720
G1 X176.066 Y76.727 F10800
G1 Z.3 F720
G1 E1 F1200
M204 S800
;TYPE:Perimeter
;WIDTH:0.899999
G1 X175.492 Y76.236 E.08266
G1 X174.826 Y75.539 E.1055
G1 X174.236 Y74.784 E.10486
G1 X173.719 Y73.966 E.1059
G1 X173.205 Y72.881 E.13139
G1 X173.007 Y72.388 E.05814
G1 X172.809 Y71.747 E.07342
G1 X172.605 Y70.805 E.10548
G1 X172.494 Y69.853 E.10489
G1 X172.48 Y68.888 E.10562
G1 X172.562 Y67.927 E.10555
G1 X172.737 Y66.985 E.10485
G1 X173.007 Y66.059 E.10556
G1 X173.369 Y65.165 E.10555
G1 X173.816 Y64.314 E.10519
G1 X174.346 Y63.511 E.10529
G1 X174.951 Y62.766 E.10503
G1 X175.632 Y62.082 E.10563
G1 X176.376 Y61.47 E.10543
G1 X177.175 Y60.937 E.10511
G1 X178.026 Y60.484 E.1055
G1 X178.916 Y60.12 E.10523
G1 X179.839 Y59.845 E.1054
G1 X180.783 Y59.663 E.10521
G1 X181.742 Y59.577 E.10537
G1 X182.705 Y59.587 E.10539
G1 X183.661 Y59.692 E.10525
G1 X184.603 Y59.892 E.10538
G1 X185.519 Y60.184 E.10521
G1 X186.403 Y60.567 E.10543
G1 X187.242 Y61.035 E.10513
G1 X188.034 Y61.586 E.10558
G1 X188.765 Y62.211 E.10525
G1 X189.431 Y62.909 E.10558
G1 X190.021 Y63.663 E.10477
G1 X190.538 Y64.482 E.10599
G1 X191.106 Y65.685 E.14559
G1 X191.447 Y66.7 E.11718
G1 X191.652 Y67.642 E.1055
G1 X191.762 Y68.595 E.10498
G1 X191.777 Y69.559 E.10551
G1 X191.695 Y70.521 E.10566
G1 X191.519 Y71.463 E.10487
G1 X191.249 Y72.388 E.10545
G1 X190.888 Y73.282 E.10551
G1 X190.441 Y74.133 E.10519
G1 X189.911 Y74.936 E.10529
G1 X189.305 Y75.681 E.10509
G1 X188.625 Y76.365 E.10555
G1 X187.881 Y76.977 E.10543
G1 X187.082 Y77.51 E.10511
G1 X186.23 Y77.963 E.1056
G1 X185.341 Y78.328 E.10517
G1 X184.418 Y78.603 E.1054
G1 X183.474 Y78.784 E.10519
G1 X182.515 Y78.87 E.10537
G1 X181.552 Y78.861 E.10539
G1 X180.596 Y78.756 E.10525
G1 X179.654 Y78.556 E.10538
G1 X178.738 Y78.263 E.10524
G1 X177.854 Y77.88 E.10543
G1 X177.015 Y77.413 E.10508
G1 X176.223 Y76.862 E.10558
G1 X176.157 Y76.805 E.00954
M204 S1000
G1 X176.157 Y76.805 F10800
G1 X176.602 Y76.09
M204 S800
G1 F1200
G1 X176.045 Y75.61 E.08047
G1 X175.439 Y74.971 E.09637
G1 X174.901 Y74.279 E.09592
G1 X174.433 Y73.531 E.09656
G1 X173.967 Y72.537 E.12014
G1 X173.806 Y72.141 E.04678
G1 X173.608 Y71.501 E.07331
G1 X173.424 Y70.64 E.09635
G1 X173.326 Y69.769 E.09592
G1 X173.315 Y68.888 E.09642
G1 X173.393 Y68.011 E.09635
G1 X173.556 Y67.15 E.0959
G1 X173.806 Y66.306 E.09633
G1 X174.139 Y65.49 E.09645
G1 X174.549 Y64.714 E.09605
G1 X175.036 Y63.982 E.09621
G1 X175.592 Y63.303 E.09604
G1 X176.215 Y62.68 E.09642
G1 X176.897 Y62.124 E.09629
G1 X177.628 Y61.639 E.096
G1 X178.407 Y61.228 E.09639
G1 X179.221 Y60.897 E.09616
G1 X180.065 Y60.649 E.09627
G1 X180.928 Y60.486 E.09611
G1 X181.804 Y60.41 E.09622
M73 P0 R219
G1 X182.684 Y60.422 E.09631
G1 X183.557 Y60.521 E.09615
G1 X184.417 Y60.706 E.09627
G1 X185.253 Y60.976 E.09614
G1 X186.059 Y61.329 E.09629
G1 X186.825 Y61.759 E.09613
G1 X187.546 Y62.264 E.09633
G1 X188.212 Y62.838 E.09622
G1 X188.818 Y63.477 E.09637
G1 X189.355 Y64.168 E.09577
G1 X189.824 Y64.917 E.09671
G1 X190.344 Y66.029 E.13434
G1 X190.649 Y66.947 E.10586
G1 X190.833 Y67.807 E.09624
G1 X190.931 Y68.679 E.09603
G1 X190.941 Y69.559 E.09631
G1 X190.864 Y70.437 E.09645
G1 X190.7 Y71.298 E.09592
G1 X190.451 Y72.142 E.0963
G1 X190.118 Y72.957 E.09635
G1 X189.707 Y73.733 E.0961
G1 X189.221 Y74.466 E.09625
G1 X188.665 Y75.144 E.09595
G1 X188.042 Y75.767 E.09642
G1 X187.36 Y76.324 E.09636
G1 X186.628 Y76.809 E.09609
G1 X185.849 Y77.219 E.09634
G1 X185.036 Y77.55 E.09606
G1 X184.192 Y77.798 E.09627
G1 X183.328 Y77.961 E.09622
G1 X182.452 Y78.037 E.09622
G1 X181.573 Y78.026 E.0962
G1 X180.699 Y77.927 E.09626
G1 X179.84 Y77.741 E.09618
G1 X179.004 Y77.471 E.09614
G1 X178.198 Y77.118 E.09629
G1 X177.432 Y76.689 E.09608
G1 X176.711 Y76.183 E.09639
G1 X176.693 Y76.168 E.00256
M204 S1000
G1 X176.693 Y76.168 F10800
G1 X177.181 Y75.489
M204 S800
G1 F1200
G1 X176.598 Y74.983 E.08448
G1 X176.052 Y74.403 E.08717
G1 X175.567 Y73.774 E.08692
G1 X175.146 Y73.096 E.08734
G1 X174.728 Y72.193 E.10889
G1 X174.406 Y71.254 E.10863
G1 X174.243 Y70.475 E.0871
G1 X174.157 Y69.685 E.08696
G1 X174.151 Y68.888 E.08722
G1 X174.225 Y68.094 E.08727
G1 X174.376 Y67.315 E.08684
G1 X174.604 Y66.552 E.08715
G1 X174.908 Y65.815 E.08724
G1 X175.283 Y65.114 E.087
G1 X175.727 Y64.453 E.08714
G1 X176.232 Y63.84 E.08692
G1 X176.799 Y63.279 E.08729
G1 X177.418 Y62.777 E.08722
G1 X178.082 Y62.341 E.08693
G1 X178.788 Y61.972 E.08718
G1 X179.526 Y61.675 E.08706
G1 X180.291 Y61.454 E.08714
G1 X181.074 Y61.309 E.08714
G1 X181.867 Y61.244 E.08707
G1 X182.663 Y61.257 E.08712
G1 X183.453 Y61.35 E.08705
G1 X184.23 Y61.521 E.08707
G1 X184.987 Y61.768 E.08714
G1 X185.715 Y62.09 E.08711
G1 X186.407 Y62.483 E.08709
G1 X187.058 Y62.943 E.08723
G1 X187.659 Y63.464 E.08704
G1 X188.205 Y64.045 E.08725
G1 X188.69 Y64.674 E.08692
G1 X189.111 Y65.352 E.08734
G1 X189.582 Y66.373 E.12305
G1 X189.85 Y67.193 E.09441
G1 X190.014 Y67.973 E.08722
G1 X190.099 Y68.762 E.08684
G1 X190.106 Y69.559 E.08722
G1 X190.032 Y70.353 E.08727
G1 X189.881 Y71.133 E.08694
G1 X189.652 Y71.896 E.08718
G1 X189.348 Y72.632 E.08714
G1 X188.973 Y73.334 E.0871
G1 X188.53 Y73.995 E.08708
G1 X188.024 Y74.608 E.08699
G1 X187.458 Y75.169 E.08721
G1 X186.839 Y75.67 E.08715
G1 X186.175 Y76.107 E.08699
G1 X185.468 Y76.476 E.08727
G1 X184.73 Y76.772 E.08702
G1 X183.965 Y76.994 E.08717
G1 X183.183 Y77.138 E.08702
G1 X182.39 Y77.204 E.08708
G1 X181.594 Y77.19 E.08712
G1 X180.803 Y77.097 E.08716
G1 X180.026 Y76.926 E.08707
G1 X179.27 Y76.679 E.08704
G1 X178.541 Y76.357 E.08721
G1 X177.849 Y75.965 E.08703
G1 X177.277 Y75.56 E.0767
M204 S1000
G1 X177.277 Y75.56 F10800
G1 X177.687 Y74.826
M204 S800
;TYPE:External perimeter
G1 F1200
G1 X177.151 Y74.356 E.07801
G1 X176.665 Y73.835 E.07797
G1 X176.233 Y73.269 E.07792
G1 X175.86 Y72.661 E.07806
G1 X175.49 Y71.849 E.09765
G1 X175.205 Y71.008 E.09718
G1 X175.062 Y70.31 E.07797
G1 X174.989 Y69.601 E.078
G1 X174.987 Y68.888 E.07803
G1 X175.056 Y68.178 E.07806
G1 X175.195 Y67.48 E.07788
G1 X175.403 Y66.798 E.07803
G1 X175.678 Y66.14 E.07804
G1 X176.017 Y65.514 E.07791
G1 X176.417 Y64.923 E.0781
G1 X176.873 Y64.376 E.07793
G1 X177.382 Y63.877 E.078
G1 X177.938 Y63.431 E.078
G1 X178.536 Y63.042 E.07807
G1 X179.169 Y62.715 E.07797
G1 X179.832 Y62.453 E.07801
G1 X180.517 Y62.258 E.07794
G1 X181.219 Y62.132 E.07805
G1 X181.929 Y62.077 E.07793
G1 X182.642 Y62.093 E.07805
G1 X183.35 Y62.179 E.07805
G1 X184.044 Y62.336 E.07787
G1 X184.721 Y62.561 E.07807
G1 X185.371 Y62.852 E.07794
G1 X185.99 Y63.206 E.07803
G1 X186.57 Y63.621 E.07805
G1 X187.106 Y64.091 E.07801
G1 X187.592 Y64.612 E.07797
G1 X188.024 Y65.179 E.07801
G1 X188.397 Y65.786 E.07797
G1 X188.821 Y66.717 E.11195
G1 X189.052 Y67.439 E.08296
G1 X189.195 Y68.138 E.07808
G1 X189.268 Y68.846 E.07789
G1 X189.27 Y69.559 E.07803
G1 X189.201 Y70.269 E.07806
G1 X189.062 Y70.968 E.07799
G1 X188.854 Y71.649 E.07792
G1 X188.578 Y72.307 E.07809
G1 X188.24 Y72.934 E.07795
G1 X187.84 Y73.524 E.07801
G1 X187.384 Y74.071 E.07793
G1 X186.875 Y74.571 E.07808
G1 X186.318 Y75.017 E.07809
G1 X185.721 Y75.405 E.07792
G1 X185.087 Y75.732 E.07807
G1 X184.425 Y75.994 E.07791
G1 X183.739 Y76.189 E.07805
G1 X183.038 Y76.315 E.07794
G1 X182.327 Y76.371 E.07805
G1 X181.615 Y76.355 E.07794
G1 X180.907 Y76.268 E.07806
G1 X180.212 Y76.112 E.07795
G1 X179.535 Y75.887 E.07807
G1 X178.885 Y75.595 E.07798
G1 X178.267 Y75.241 E.07794
G1 X177.784 Y74.896 E.06496
M204 S1000
;WIPE_START
G1 F8640
G1 X177.687 Y74.826 E-.02762
G1 X177.151 Y74.356 E-.16461
G1 X176.665 Y73.835 E-.16452
G1 X176.233 Y73.269 E-.16441
G1 X175.86 Y72.661 E-.1647
G1 X175.49 Y71.849 E-.20604
G1 X175.34 Y71.406 E-.1081
;WIPE_END
G1 Z.5 F720
G1 X138.909 Y62.362 F10800
G1 Z.3 F720
G1 E1 F1200
M204 S800
;TYPE:Perimeter
G1 X139.431 Y62.909 E.08274
G1 X140.021 Y63.663 E.10477
G1 X140.538 Y64.482 E.10599
G1 X140.706 Y64.8 E.03936
G1 X141.12 Y65.718 E.1102
G1 X141.447 Y66.7 E.11327
G1 X141.652 Y67.642 E.1055
G1 X141.762 Y68.595 E.10498
G1 X141.777 Y69.559 E.10551
G1 X141.695 Y70.52 E.10555
G1 X141.52 Y71.462 E.10485
G1 X141.249 Y72.388 E.10559
G1 X140.953 Y73.129 E.08732
G1 X140.441 Y74.133 E.12333
G1 X139.911 Y74.936 E.10529
G1 X139.305 Y75.681 E.10509
G1 X138.625 Y76.365 E.10555
G1 X137.881 Y76.977 E.10543
G1 X137.082 Y77.51 E.10511
G1 X136.23 Y77.963 E.1056
G1 X135.341 Y78.328 E.10517
G1 X134.418 Y78.603 E.1054
G1 X133.474 Y78.784 E.10519
G1 X132.515 Y78.87 E.10537
G1 X131.552 Y78.861 E.10539
G1 X130.596 Y78.756 E.10525
G1 X129.654 Y78.556 E.10538
G1 X128.738 Y78.263 E.10524
G1 X127.854 Y77.88 E.10543
G1 X127.014 Y77.413 E.10518
G1 X126.768 Y77.253 E.03211
G1 X126.223 Y76.862 E.0734
G1 X125.492 Y76.236 E.10532
G1 X124.826 Y75.539 E.1055
G1 X124.236 Y74.784 E.10486
G1 X123.719 Y73.966 E.1059
G1 X123.205 Y72.881 E.13139
G1 X123.007 Y72.388 E.05814
G1 X122.81 Y71.747 E.07339
G1 X122.605 Y70.805 E.1055
G1 X122.494 Y69.853 E.10489
G1 X122.48 Y68.888 E.10562
G1 X122.562 Y67.927 E.10555
G1 X122.737 Y66.985 E.10485
G1 X123.007 Y66.059 E.10556
G1 X123.369 Y65.165 E.10555
G1 X123.816 Y64.314 E.10519
G1 X124.346 Y63.511 E.10529
G1 X124.951 Y62.766 E.10503
G1 X125.632 Y62.082 E.10563
G1 X126.376 Y61.47 E.10543
G1 X127.175 Y60.937 E.10511
G1 X128.026 Y60.484 E.1055
G1 X128.916 Y60.12 E.10523
G1 X129.839 Y59.845 E.1054
G1 X130.783 Y59.663 E.10521
M73 Q0 S220
G1 X131.742 Y59.577 E.10537
G1 X132.705 Y59.587 E.10539
G1 X133.661 Y59.692 E.10525
G1 X134.603 Y59.892 E.10538
G1 X135.519 Y60.184 E.10521
G1 X136.403 Y60.567 E.10543
G1 X137.242 Y61.035 E.10513
G1 X138.034 Y61.586 E.10558
G1 X138.764 Y62.211 E.10517
G1 X138.826 Y62.275 E.00975
M204 S1000
G1 X138.826 Y62.275 F10800
G1 X138.311 Y62.943
M204 S800
G1 F1200
G1 X138.818 Y63.477 E.08058
G1 X139.355 Y64.168 E.09577
G1 X139.824 Y64.917 E.09671
G1 X139.944 Y65.144 E.0281
G1 X140.359 Y66.062 E.11025
G1 X140.649 Y66.947 E.10192
G1 X140.833 Y67.807 E.09624
G1 X140.931 Y68.679 E.09603
G1 X140.941 Y69.559 E.09631
G1 X140.864 Y70.437 E.09645
G1 X140.7 Y71.297 E.09581
G1 X140.451 Y72.142 E.0964
G1 X140.183 Y72.804 E.07816
G1 X139.707 Y73.733 E.11423
G1 X139.221 Y74.466 E.09625
G1 X138.665 Y75.145 E.09604
G1 X138.042 Y75.767 E.09634
G1 X137.36 Y76.324 E.09636
G1 X136.628 Y76.809 E.09609
G1 X135.849 Y77.219 E.09634
G1 X135.036 Y77.55 E.09606
G1 X134.192 Y77.798 E.09627
G1 X133.328 Y77.961 E.09622
G1 X132.452 Y78.037 E.09622
G1 X131.573 Y78.026 E.0962
G1 X130.699 Y77.927 E.09626
G1 X129.84 Y77.741 E.09618
G1 X129.004 Y77.471 E.09614
G1 X128.198 Y77.118 E.09629
G1 X127.256 Y76.575 E.11899
G1 X126.711 Y76.183 E.07347
G1 X126.045 Y75.61 E.09615
G1 X125.439 Y74.971 E.09637
G1 X124.901 Y74.279 E.09592
G1 X124.433 Y73.531 E.09656
G1 X123.966 Y72.537 E.12018
G1 X123.806 Y72.141 E.04674
G1 X123.608 Y71.501 E.07331
G1 X123.424 Y70.64 E.09635
G1 X123.326 Y69.769 E.09592
G1 X123.315 Y68.888 E.09642
G1 X123.393 Y68.011 E.09635
G1 X123.556 Y67.15 E.0959
G1 X123.806 Y66.306 E.09633
G1 X124.139 Y65.49 E.09645
G1 X124.549 Y64.714 E.09605
G1 X125.036 Y63.982 E.09621
G1 X125.592 Y63.303 E.09604
G1 X126.215 Y62.68 E.09642
G1 X126.897 Y62.124 E.09629
G1 X127.628 Y61.639 E.096
G1 X128.407 Y61.228 E.09639
G1 X129.221 Y60.897 E.09616
G1 X130.065 Y60.649 E.09627
G1 X130.928 Y60.486 E.09611
G1 X131.804 Y60.41 E.09622
G1 X132.684 Y60.422 E.09631
G1 X133.557 Y60.521 E.09615
G1 X134.417 Y60.706 E.09627
G1 X135.253 Y60.976 E.09614
G1 X136.059 Y61.329 E.09629
G1 X136.825 Y61.759 E.09613
G1 X137.546 Y62.264 E.09633
G1 X138.212 Y62.838 E.09622
G1 X138.229 Y62.856 E.00271
M204 S1000
G1 X138.229 Y62.856 F10800
G1 X137.681 Y63.488
M204 S800
G1 F1200
G1 X138.205 Y64.045 E.08369
G1 X138.69 Y64.674 E.08692
G1 X139.183 Y65.488 E.10414
G1 X139.597 Y66.406 E.1102
G1 X139.85 Y67.193 E.09047
G1 X140.014 Y67.972 E.08712
G1 X140.099 Y68.762 E.08695
G1 X140.106 Y69.559 E.08722
G1 X140.032 Y70.353 E.08727
G1 X139.881 Y71.132 E.08684
G1 X139.652 Y71.895 E.08718
G1 X139.413 Y72.479 E.06905
G1 X138.973 Y73.334 E.10523
G1 X138.53 Y73.995 E.08708
G1 X138.024 Y74.608 E.08699
G1 X137.458 Y75.169 E.08721
G1 X136.839 Y75.67 E.08715
G1 X136.175 Y76.107 E.08699
G1 X135.468 Y76.476 E.08727
G1 X134.73 Y76.772 E.08702
G1 X133.965 Y76.994 E.08717
G1 X133.183 Y77.138 E.08702
G1 X132.39 Y77.204 E.08708
G1 X131.594 Y77.19 E.08712
G1 X130.803 Y77.097 E.08716
G1 X130.026 Y76.926 E.08707
G1 X129.27 Y76.679 E.08704
G1 X128.541 Y76.357 E.08721
G1 X127.743 Y75.897 E.1008
G1 X127.199 Y75.505 E.07338
G1 X126.598 Y74.983 E.08711
G1 X126.052 Y74.403 E.08717
G1 X125.567 Y73.774 E.08692
G1 X125.146 Y73.096 E.08734
G1 X124.728 Y72.193 E.10889
G1 X124.407 Y71.254 E.1086
G1 X124.243 Y70.475 E.08712
G1 X124.157 Y69.685 E.08696
G1 X124.151 Y68.888 E.08722
G1 X124.225 Y68.094 E.08727
G1 X124.376 Y67.315 E.08684
G1 X124.604 Y66.552 E.08715
G1 X124.908 Y65.815 E.08724
G1 X125.283 Y65.114 E.087
G1 X125.727 Y64.453 E.08714
G1 X126.232 Y63.84 E.08692
G1 X126.799 Y63.279 E.08729
G1 X127.418 Y62.777 E.08722
G1 X128.082 Y62.341 E.08693
G1 X128.788 Y61.972 E.08718
G1 X129.526 Y61.675 E.08706
G1 X130.291 Y61.454 E.08714
G1 X131.074 Y61.309 E.08714
G1 X131.867 Y61.244 E.08707
G1 X132.663 Y61.257 E.08712
G1 X133.453 Y61.35 E.08705
G1 X134.23 Y61.521 E.08707
G1 X134.987 Y61.768 E.08714
G1 X135.715 Y62.09 E.08711
G1 X136.407 Y62.483 E.08709
G1 X137.058 Y62.943 E.08723
G1 X137.592 Y63.407 E.07742
M204 S1000
G1 X137.592 Y63.407 F10800
G1 X137.106 Y64.091
M204 S800
;TYPE:External perimeter
G1 F1200
G1 X137.592 Y64.612 E.07797
G1 X138.024 Y65.179 E.07801
G1 X138.421 Y65.832 E.08363
G1 X138.836 Y66.75 E.11025
G1 X139.052 Y67.439 E.07902
G1 X139.195 Y68.138 E.07808
G1 X139.268 Y68.846 E.07789
G1 X139.27 Y69.559 E.07803
G1 X139.201 Y70.269 E.07806
G1 X139.062 Y70.967 E.07788
G1 X138.854 Y71.649 E.07803
G1 X138.643 Y72.154 E.05989
G1 X138.24 Y72.934 E.09608
G1 X137.84 Y73.524 E.07801
G1 X137.384 Y74.071 E.07793
