; generated by PrusaSlicer 2.7.2 on 2025-05-13 at 19:33:40 UTC


;
;
; 

; external perimeters extrusion width = 1.00mm
; perimeters extrusion width = 1.00mm
; infill extrusion width = 0.90mm
; solid infill extrusion width = 0.90mm
; top infill extrusion width = 0.80mm
; first layer extrusion width = 0.90mm

M73 P0 R204
M73 Q0 S205
M201 X1000 Y1000 Z200 E5000 ; sets maximum accelerations, mm/sec^2
M203 X200 Y200 Z12 E120 ; sets maximum feedrates, mm / sec
M204 S1250 T1250 ; sets acceleration (S) and retract acceleration (R), mm/sec^2
M205 X8.00 Y8.00 Z0.40 E4.50 ; sets the jerk limits, mm/sec
M205 S0 T0 ; sets the minimum extruding and travel feed rate, mm/sec

; printing object Pocket011 id:11 copy 0
; stop printing object Pocket011 id:11 copy 0

;TYPE:Custom
M862.3 P "MK3S" ; printer model check
M862.1 P0.8 ; nozzle diameter check
M115 U3.13.3 ; tell printer latest fw version
G90 ; use absolute coordinates
M83 ; extruder relative mode
M104 S240 ; set extruder temp
M140 S85 ; set bed temp
M190 S85 ; wait for bed temp
M109 S240 ; wait for extruder temp
G28 W ; home all without mesh bed level
G80 X32.264 Y49.1676 W156.582 H138.507 ; mesh bed levelling

G1 Z0.2 F720
G1 Y-3 F1000 ; go outside print area
G92 E0
G1 X60 E9 F1000 ; intro line
G1 X100 E12.5 F1000 ; intro line

G92 E0
M221 S95
G21 ; set units to millimeters
G90 ; use absolute coordinates
M83 ; use relative distances for extrusion

M900 K0.02 ; Filament gcode LA 1.5
; ; Filament gcode LA 1.0




M107
;LAYER_CHANGE
;Z:0.3
;HEIGHT:0.3
G1 E-1 F2100
G1 Z.5 F720
G1 X34.18 Y50.38 F10800
G1 Z.3 F720
G1 E1 F1200
M204 S800
;TYPE:Skirt/Brim
;WIDTH:0.9
G1 X36.517 Y49.585 E.27014
G1 X184.592 Y49.585 E16.20447
G1 X186.287 Y49.98 E.19046
M73 P0 R203
M73 Q0 S204
G1 X187.633 Y51.083 E.19044
G1 X188.428 Y53.421 E.27024
G1 X188.428 Y118.134 E7.08182
G1 X188.033 Y119.828 E.19035
G1 X186.308 Y121.564 E.26782
G1 X55.733 Y186.852 E15.97603
G1 X54.017 Y187.257 E.19295
G1 X36.517 Y187.257 E1.9151
G1 X34.823 Y186.862 E.19035
G1 X33.477 Y185.759 E.19044
G1 X32.682 Y183.421 E.27024
G1 X32.682 Y53.421 E14.22645
G1 X33.077 Y51.726 E.19046
G1 X34.104 Y50.473 E.17729
M204 S1000
; printing object Pocket011 id:11 copy 0
;WIPE_START
G1 F8640
G1 X34.18 Y50.38 E-.02773
G1 X36.517 Y49.585 E-.56999
G1 X38.259 Y49.585 E-.40228
;WIPE_END
G1 Z.5 F720
G1 X39.674 Y180.264 F10800
G1 Z.3 F720
G1 E1 F1200
M204 S800
;TYPE:Perimeter
;WIDTH:0.899999
G1 X39.674 Y56.578 E13.53547
G1 X181.011 Y56.578 E15.46709
G1 X181.011 Y66.003 E1.03142
G1 X181.011 Y116.395 E5.51461
G1 X53.272 Y180.264 E15.62898
G1 X39.794 Y180.264 E1.47495
M204 S1000
;WIPE_START
G1 F8640
G1 X39.674 Y180.264 E-.02771
G1 X39.674 Y176.053 E-.97229
;WIPE_END
G1 Z.5 F720
G1 X38.839 Y181.1 F10800
G1 Z.3 F720
G1 E1 F1200
M204 S800
G1 X38.839 Y55.742 E13.71845
G1 X181.846 Y55.742 E15.64985
G1 X181.846 Y66.003 E1.1229
M73 P0 R202
M73 Q0 S203
G1 X181.846 Y116.911 E5.57107
G1 X53.469 Y181.1 E15.70709
G1 X38.959 Y181.1 E1.58789
M204 S1000
;WIPE_START
G1 F8640
G1 X38.839 Y181.1 E-.02771
G1 X38.839 Y176.889 E-.97229
;WIPE_END
G1 Z.5 F720
G1 X38.003 Y181.935 F10800
G1 Z.3 F720
G1 E1 F1200
M204 S800
G1 X38.003 Y54.907 E13.9012
G1 X182.682 Y54.907 E15.83282
G1 X182.682 Y66.003 E1.21428
G1 X182.682 Y117.428 E5.62765
G1 X53.667 Y181.935 E15.7851
G1 X38.123 Y181.935 E1.70104
M204 S1000
;WIPE_START
G1 F8640
G1 X38.003 Y181.935 E-.02771
G1 X38.003 Y177.724 E-.97229
;WIPE_END
G1 Z.5 F720
G1 X37.167 Y182.771 F10800
G1 Z.3 F720
G1 E1 F1200
M204 S800
;TYPE:External perimeter
G1 X37.167 Y54.071 E14.08418
G1 X183.517 Y54.071 E16.01569
G1 X183.517 Y66.003 E1.30577
M73 P1 R202
M73 Q1 S203
G1 X183.517 Y117.944 E5.68412
G1 X53.864 Y182.771 E15.86321
G1 X37.287 Y182.771 E1.81409
M73 P1 R201
M73 Q1 S202
M204 S1000
;WIPE_START
G1 F8640
G1 X37.167 Y182.771 E-.02771
G1 X37.167 Y178.56 E-.97229
;WIPE_END
G1 Z.5 F720
G1 X153.236 Y83.036 F10800
G1 Z.3 F720
G1 E1 F1200
M204 S800
;TYPE:Perimeter
G1 X152.485 Y82.953 E.08269
G1 X151.543 Y82.753 E.10538
G1 X150.627 Y82.461 E.10521
G1 X149.743 Y82.077 E.10547
G1 X148.904 Y81.61 E.10508
G1 X148.112 Y81.059 E.10558
G1 X147.381 Y80.433 E.10532
G1 X146.715 Y79.736 E.1055
G1 X146.125 Y78.982 E.10477
G1 X145.608 Y78.163 E.10599
G1 X145.094 Y77.078 E.13139
G1 X144.896 Y76.585 E.05814
G1 X144.699 Y75.944 E.07339
G1 X144.494 Y75.003 E.10539
G1 X144.384 Y74.05 E.10498
G1 X144.369 Y73.757 E.03211
G1 X144.369 Y73.086 E.07343
G1 X144.451 Y72.124 E.10566
G1 X144.626 Y71.182 E.10485
G1 X144.896 Y70.257 E.10545
G1 X145.258 Y69.363 E.10555
G1 X145.705 Y68.512 E.10519
G1 X146.235 Y67.709 E.10529
G1 X146.84 Y66.964 E.10503
G1 X147.521 Y66.279 E.1057
G1 X148.265 Y65.668 E.10536
G1 X149.064 Y65.134 E.10517
G1 X149.915 Y64.682 E.10545
G1 X150.805 Y64.317 E.10527
G1 X151.728 Y64.042 E.1054
G1 X152.672 Y63.861 E.10519
G1 X153.631 Y63.774 E.10538
G1 X154.594 Y63.784 E.10539
G1 X155.55 Y63.889 E.10525
G1 X156.492 Y64.089 E.10538
G1 X157.408 Y64.381 E.10521
G1 X158.292 Y64.765 E.10547
G1 X159.131 Y65.232 E.10508
G1 X159.923 Y65.783 E.10558
G1 X160.654 Y66.409 E.10532
G1 X161.32 Y67.106 E.1055
G1 X161.91 Y67.86 E.10477
G1 X162.427 Y68.679 E.10599
G1 X162.995 Y69.883 E.14568
G1 X163.336 Y70.898 E.11718
G1 X163.541 Y71.84 E.1055
G1 X163.651 Y72.792 E.10487
G1 X163.666 Y73.757 E.10562
G1 X163.584 Y74.718 E.10555
G1 X163.409 Y75.66 E.10485
G1 X163.139 Y76.586 E.10556
G1 X162.777 Y77.479 E.10545
G1 X162.33 Y78.33 E.10519
G1 X161.8 Y79.133 E.10529
G1 X161.194 Y79.878 E.10509
G1 X160.514 Y80.563 E.10563
G1 X159.77 Y81.174 E.10536
G1 X158.971 Y81.708 E.10517
G1 X158.12 Y82.16 E.10545
G1 X157.23 Y82.525 E.10527
G1 X156.307 Y82.8 E.1054
G1 X155.363 Y82.981 E.10519
G1 X154.404 Y83.068 E.10538
G1 X153.441 Y83.058 E.10539
G1 X153.355 Y83.049 E.00946
M204 S1000
G1 X153.355 Y83.049 F10800
G1 X153.319 Y82.207
M204 S800
G1 F1200
G1 X152.589 Y82.124 E.0804
G1 X151.729 Y81.938 E.09629
G1 X150.893 Y81.668 E.09614
G1 X150.087 Y81.316 E.09625
G1 X149.321 Y80.886 E.09613
G1 X148.6 Y80.381 E.09633
G1 X147.934 Y79.807 E.09622
G1 X147.328 Y79.168 E.09637
G1 X146.79 Y78.476 E.09592
G1 X146.322 Y77.728 E.09656
G1 X145.856 Y76.735 E.12004
G1 X145.695 Y76.339 E.04678
G1 X145.497 Y75.698 E.07342
G1 X145.313 Y74.838 E.09624
G1 X145.204 Y73.757 E.1189
G1 X145.204 Y73.086 E.07343
G1 X145.282 Y72.208 E.09646
G1 X145.445 Y71.347 E.0959
G1 X145.695 Y70.503 E.09633
G1 X146.028 Y69.688 E.09635
G1 X146.439 Y68.911 E.09619
G1 X146.925 Y68.179 E.09615
G1 X147.481 Y67.5 E.09604
G1 X148.104 Y66.878 E.09634
G1 X148.786 Y66.321 E.09636
G1 X149.517 Y65.836 E.096
G1 X150.296 Y65.425 E.09639
G1 X151.11 Y65.095 E.09612
G1 X151.954 Y64.847 E.09627
G1 X152.817 Y64.684 E.09611
G1 X153.694 Y64.608 E.09633
G1 X154.573 Y64.619 E.0962
G1 X155.446 Y64.718 E.09615
G1 X156.306 Y64.904 E.09629
G1 X157.142 Y65.174 E.09614
G1 X157.948 Y65.526 E.09625
G1 X158.714 Y65.956 E.09613
G1 X159.435 Y66.461 E.09633
G1 X160.101 Y67.035 E.09622
G1 X160.707 Y67.674 E.09637
G1 X161.244 Y68.366 E.09586
G1 X161.713 Y69.114 E.09662
G1 X162.233 Y70.227 E.13444
G1 X162.538 Y71.144 E.10576
G1 X162.722 Y72.005 E.09635
G1 X162.82 Y72.876 E.09592
G1 X162.831 Y73.757 E.09642
G1 X162.753 Y74.634 E.09635
G1 X162.589 Y75.495 E.09592
G1 X162.34 Y76.339 E.0963
G1 X162.007 Y77.155 E.09645
G1 X161.596 Y77.931 E.0961
G1 X161.11 Y78.663 E.09615
G1 X160.554 Y79.342 E.09604
G1 X159.931 Y79.964 E.09634
G1 X159.249 Y80.521 E.09636
G1 X158.517 Y81.006 E.09609
G1 X157.739 Y81.417 E.09629
G1 X156.925 Y81.747 E.09612
G1 X156.081 Y81.995 E.09627
G1 X155.217 Y82.158 E.09622
G1 X154.341 Y82.234 E.09622
G1 X153.462 Y82.223 E.0962
G1 X153.439 Y82.22 E.00254
M204 S1000
G1 X153.439 Y82.22 F10800
G1 X153.428 Y81.381
M204 S800
G1 F1200
G1 X152.692 Y81.295 E.08109
G1 X151.915 Y81.124 E.08707
G1 X151.159 Y80.876 E.08707
G1 X150.431 Y80.554 E.08711
G1 X149.738 Y80.162 E.08713
G1 X149.088 Y79.702 E.08714
G1 X148.487 Y79.18 E.08711
G1 X147.941 Y78.6 E.08717
G1 X147.456 Y77.971 E.08692
G1 X147.035 Y77.293 E.08734
G1 X146.617 Y76.391 E.10879
G1 X146.296 Y75.452 E.1086
G1 X146.132 Y74.673 E.08712
G1 X146.04 Y73.757 E.10075
G1 X146.04 Y73.086 E.07343
G1 X146.114 Y72.292 E.08727
G1 X146.265 Y71.512 E.08694
G1 X146.493 Y70.749 E.08715
G1 X146.797 Y70.012 E.08724
G1 X147.172 Y69.311 E.087
G1 X147.616 Y68.65 E.08714
G1 X148.121 Y68.037 E.08692
G1 X148.688 Y67.476 E.08729
G1 X149.307 Y66.975 E.08715
G1 X149.971 Y66.538 E.08699
G1 X150.677 Y66.169 E.08718
G1 X151.416 Y65.873 E.08712
G1 X152.18 Y65.651 E.08707
G1 X152.963 Y65.507 E.08712
G1 X153.756 Y65.441 E.08708
G1 X154.552 Y65.455 E.08712
G1 X155.343 Y65.547 E.08715
G1 X156.12 Y65.718 E.08707
G1 X156.876 Y65.966 E.08707
G1 X157.604 Y66.288 E.08711
G1 X158.297 Y66.68 E.08713
G1 X158.947 Y67.14 E.08714
G1 X159.548 Y67.662 E.08711
G1 X160.094 Y68.242 E.08717
G1 X160.579 Y68.871 E.08692
G1 X161 Y69.549 E.08734
G1 X161.471 Y70.57 E.12305
G1 X161.739 Y71.39 E.09441
G1 X161.903 Y72.17 E.08722
G1 X161.989 Y72.96 E.08696
G1 X161.995 Y73.757 E.08722
G1 X161.921 Y74.55 E.08716
G1 X161.77 Y75.33 E.08694
G1 X161.542 Y76.093 E.08715
G1 X161.237 Y76.83 E.08729
G1 X160.862 Y77.531 E.087
G1 X160.419 Y78.192 E.08708
G1 X159.914 Y78.805 E.08692
G1 X159.347 Y79.366 E.08729
G1 X158.728 Y79.867 E.08715
G1 X158.064 Y80.304 E.08699
G1 X157.358 Y80.673 E.08718
G1 X156.619 Y80.969 E.08712
G1 X155.855 Y81.191 E.08707
G1 X155.072 Y81.335 E.08712
G1 X154.279 Y81.401 E.08708
G1 X153.548 Y81.389 E.08001
M204 S1000
G1 X153.548 Y81.389 F10800
G1 X153.504 Y80.552
M204 S800
;TYPE:External perimeter
G1 F1200
G1 X152.796 Y80.466 E.07805
G1 X152.101 Y80.309 E.07797
G1 X151.425 Y80.084 E.07797
G1 X150.775 Y79.793 E.07794
G1 X150.156 Y79.438 E.07809
G1 X149.576 Y79.024 E.07798
G1 X149.04 Y78.554 E.07801
G1 X148.554 Y78.032 E.07805
G1 X148.122 Y77.466 E.07792
G1 X147.749 Y76.858 E.07806
G1 X147.379 Y76.047 E.09755
G1 X147.094 Y75.205 E.09728
G1 X146.951 Y74.508 E.07786
G1 X146.876 Y73.757 E.08259
G1 X146.876 Y73.086 E.07343
G1 X146.945 Y72.376 E.07806
G1 X147.084 Y71.677 E.07799
G1 X147.292 Y70.995 E.07803
G1 X147.567 Y70.337 E.07804
G1 X147.906 Y69.711 E.07791
G1 X148.306 Y69.121 E.07801
G1 X148.762 Y68.574 E.07793
G1 X149.271 Y68.074 E.07808
G1 X149.827 Y67.628 E.078
G1 X150.425 Y67.24 E.07801
G1 X151.058 Y66.913 E.07797
G1 X151.721 Y66.65 E.07805
G1 X152.407 Y66.455 E.07805
G1 X153.108 Y66.329 E.07794
G1 X153.818 Y66.274 E.07793
G1 X154.531 Y66.29 E.07805
G1 X155.239 Y66.376 E.07805
G1 X155.933 Y66.533 E.07787
G1 X156.61 Y66.758 E.07807
G1 X157.26 Y67.049 E.07794
G1 X157.879 Y67.404 E.07809
G1 X158.459 Y67.818 E.07798
G1 X158.995 Y68.288 E.07801
G1 X159.481 Y68.81 E.07805
G1 X159.913 Y69.376 E.07792
G1 X160.286 Y69.984 E.07806
G1 X160.71 Y70.914 E.11185
G1 X160.941 Y71.637 E.08306
G1 X161.084 Y72.335 E.07797
G1 X161.157 Y73.044 E.078
G1 X161.159 Y73.757 E.07803
G1 X161.09 Y74.466 E.07796
G1 X160.951 Y75.165 E.07799
G1 X160.743 Y75.847 E.07803
G1 X160.468 Y76.505 E.07804
G1 X160.129 Y77.131 E.07791
G1 X159.729 Y77.721 E.07801
G1 X159.273 Y78.268 E.07793
G1 X158.764 Y78.768 E.07808
G1 X158.207 Y79.214 E.07809
G1 X157.61 Y79.602 E.07792
G1 X156.977 Y79.929 E.07797
G1 X156.314 Y80.192 E.07805
G1 X155.628 Y80.387 E.07805
G1 X154.927 Y80.513 E.07794
G1 X154.216 Y80.568 E.07804
G1 X153.624 Y80.555 E.0648
M204 S1000
;WIPE_START
G1 F8640
G1 X153.504 Y80.552 E-.02772
G1 X152.796 Y80.466 E-.16468
G1 X152.101 Y80.309 E-.16452
G1 X151.425 Y80.084 E-.16451
G1 X150.775 Y79.793 E-.16444
G1 X150.156 Y79.438 E-.16477
G1 X149.629 Y79.062 E-.14936
;WIPE_END
G1 Z.5 F720
G1 X101.347 Y82.69 F10800
G1 Z.3 F720
G1 E1 F1200
M204 S800
;TYPE:Perimeter
G1 X100.627 Y82.461 E.08268
G1 X99.743 Y82.077 E.10547
G1 X98.904 Y81.61 E.10508
G1 X98.112 Y81.059 E.10558
G1 X97.381 Y80.433 E.10532
G1 X96.715 Y79.736 E.1055
G1 X96.125 Y78.982 E.10477
G1 X95.608 Y78.163 E.10599
G1 X95.094 Y77.078 E.13139
G1 X94.896 Y76.585 E.05814
G1 X94.699 Y75.944 E.07339
G1 X94.494 Y75.002 E.1055
G1 X94.384 Y74.05 E.10487
G1 X94.369 Y73.086 E.10551
G1 X94.451 Y72.124 E.10566
G1 X94.626 Y71.182 E.10485
G1 X94.896 Y70.257 E.10545
G1 X95.258 Y69.363 E.10555
G1 X95.705 Y68.512 E.10519
G1 X96.235 Y67.708 E.10538
G1 X96.84 Y66.963 E.10503
G1 X97.521 Y66.279 E.10563
G1 X98.265 Y65.668 E.10536
G1 X99.064 Y65.134 E.10517
G1 X99.915 Y64.682 E.10545
G1 X100.805 Y64.317 E.10527
G1 X101.728 Y64.042 E.1054
G1 X102.672 Y63.861 E.10519
G1 X103.631 Y63.774 E.10538
G1 X104.594 Y63.784 E.10539
G1 X105.55 Y63.889 E.10525
G1 X106.492 Y64.089 E.10538
G1 X107.408 Y64.381 E.10521
G1 X108.292 Y64.765 E.10547
G1 X109.131 Y65.232 E.10508
G1 X109.923 Y65.783 E.10558
G1 X110.654 Y66.409 E.10532
G1 X111.32 Y67.106 E.1055
G1 X111.91 Y67.86 E.10477
G1 X112.427 Y68.679 E.10599
G1 X112.595 Y68.997 E.03936
G1 X113.009 Y69.915 E.1102
G1 X113.336 Y70.898 E.11337
G1 X113.541 Y71.84 E.1055
G1 X113.651 Y72.792 E.10487
G1 X113.666 Y73.757 E.10562
G1 X113.584 Y74.718 E.10555
G1 X113.409 Y75.66 E.10485
G1 X113.139 Y76.585 E.10545
G1 X112.842 Y77.326 E.08736
G1 X112.33 Y78.33 E.12333
G1 X111.8 Y79.134 E.10538
G1 X111.194 Y79.879 E.10509
G1 X110.514 Y80.563 E.10555
G1 X109.77 Y81.174 E.10536
G1 X108.971 Y81.708 E.10517
G1 X108.12 Y82.16 E.10545
G1 X107.23 Y82.525 E.10527
G1 X106.307 Y82.8 E.1054
G1 X105.363 Y82.981 E.10519
G1 X104.404 Y83.068 E.10538
G1 X103.441 Y83.058 E.10539
G1 X102.485 Y82.953 E.10525
G1 X101.543 Y82.753 E.10538
G1 X101.461 Y82.727 E.00941
M204 S1000
G1 X101.461 Y82.727 F10800
G1 X101.593 Y81.894
M204 S800
G1 F1200
G1 X100.893 Y81.668 E.0805
G1 X100.087 Y81.316 E.09625
G1 X99.321 Y80.886 E.09613
G1 X98.6 Y80.381 E.09633
G1 X97.934 Y79.807 E.09622
G1 X97.328 Y79.168 E.09637
G1 X96.79 Y78.476 E.09592
G1 X96.322 Y77.728 E.09656
G1 X95.856 Y76.734 E.12014
G1 X95.695 Y76.339 E.04668
G1 X95.497 Y75.698 E.07342
G1 X95.313 Y74.837 E.09635
G1 X95.215 Y73.966 E.09592
G1 X95.204 Y73.086 E.09631
G1 X95.282 Y72.208 E.09646
G1 X95.445 Y71.347 E.0959
G1 X95.695 Y70.503 E.09633
G1 X96.028 Y69.688 E.09635
G1 X96.439 Y68.911 E.09619
G1 X96.925 Y68.179 E.09615
G1 X97.481 Y67.5 E.09604
G1 X98.104 Y66.878 E.09634
G1 X98.786 Y66.321 E.09636
G1 X99.517 Y65.836 E.096
G1 X100.296 Y65.425 E.09639
G1 X101.11 Y65.095 E.09612
G1 X101.954 Y64.847 E.09627
G1 X102.818 Y64.684 E.09622
G1 X103.694 Y64.608 E.09622
G1 X104.573 Y64.619 E.0962
G1 X105.446 Y64.718 E.09615
G1 X106.306 Y64.904 E.09629
G1 X107.142 Y65.174 E.09614
G1 X107.948 Y65.526 E.09625
G1 X108.714 Y65.956 E.09613
G1 X109.435 Y66.461 E.09633
G1 X110.101 Y67.035 E.09622
G1 X110.707 Y67.674 E.09637
G1 X111.244 Y68.366 E.09586
G1 X111.713 Y69.114 E.09662
G1 X111.833 Y69.341 E.0281
G1 X112.248 Y70.259 E.11025
G1 X112.538 Y71.144 E.10192
G1 X112.722 Y72.005 E.09635
G1 X112.82 Y72.876 E.09592
G1 X112.831 Y73.757 E.09642
G1 X112.753 Y74.634 E.09635
G1 X112.59 Y75.495 E.0959
G1 X112.34 Y76.339 E.09633
G1 X112.072 Y77.001 E.07816
G1 X111.596 Y77.931 E.11433
G1 X111.11 Y78.663 E.09615
G1 X110.554 Y79.342 E.09604
G1 X109.931 Y79.964 E.09634
G1 X109.249 Y80.521 E.09636
G1 X108.517 Y81.006 E.09609
G1 X107.739 Y81.417 E.09629
G1 X106.925 Y81.747 E.09612
G1 X106.081 Y81.995 E.09627
G1 X105.217 Y82.158 E.09622
G1 X104.341 Y82.234 E.09622
G1 X103.462 Y82.223 E.0962
G1 X102.589 Y82.124 E.09615
G1 X101.729 Y81.938 E.09629
G1 X101.707 Y81.931 E.00253
M204 S1000
G1 X101.707 Y81.931 F10800
G1 X101.864 Y81.107
M204 S800
G1 F1200
G1 X101.159 Y80.876 E.08119
G1 X100.431 Y80.554 E.08711
G1 X99.738 Y80.162 E.08713
G1 X99.088 Y79.702 E.08714
G1 X98.487 Y79.18 E.08711
G1 X97.941 Y78.6 E.08717
G1 X97.456 Y77.971 E.08692
G1 X97.035 Y77.293 E.08734
G1 X96.617 Y76.39 E.10889
G1 X96.296 Y75.452 E.10849
G1 X96.132 Y74.672 E.08722
G1 X96.046 Y73.882 E.08696
G1 X96.04 Y73.086 E.08711
G1 X96.114 Y72.292 E.08727
G1 X96.265 Y71.512 E.08694
G1 X96.493 Y70.749 E.08715
G1 X96.797 Y70.012 E.08724
G1 X97.172 Y69.311 E.087
G1 X97.616 Y68.65 E.08714
G1 X98.121 Y68.037 E.08692
G1 X98.688 Y67.476 E.08729
G1 X99.307 Y66.975 E.08715
G1 X99.971 Y66.538 E.08699
G1 X100.677 Y66.169 E.08718
G1 X101.416 Y65.873 E.08712
G1 X102.18 Y65.651 E.08707
G1 X102.963 Y65.507 E.08712
G1 X103.756 Y65.441 E.08708
G1 X104.552 Y65.455 E.08712
