; generated by PrusaSlicer 2.7.2 on 2025-05-10 at 19:40:17 UTC


;
;
; 

; external perimeters extrusion width = 1.00mm
; perimeters extrusion width = 1.00mm
; infill extrusion width = 0.90mm
; solid infill extrusion width = 0.90mm
; top infill extrusion width = 0.80mm
; first layer extrusion width = 0.90mm

M73 P0 R223
M73 Q0 S224
M201 X1000 Y1000 Z200 E5000 ; sets maximum accelerations, mm/sec^2
M203 X200 Y200 Z12 E120 ; sets maximum feedrates, mm / sec
M204 S1250 T1250 ; sets acceleration (S) and retract acceleration (R), mm/sec^2
M205 X8.00 Y8.00 Z0.40 E4.50 ; sets the jerk limits, mm/sec
M205 S0 T0 ; sets the minimum extruding and travel feed rate, mm/sec

; printing object SideWall001 id:18 copy 0
; stop printing object SideWall001 id:18 copy 0

;TYPE:Custom
M862.3 P "MK3S" ; printer model check
M862.1 P0.8 ; nozzle diameter check
M115 U3.13.3 ; tell printer latest fw version
G90 ; use absolute coordinates
M83 ; extruder relative mode
M104 S240 ; set extruder temp
M140 S85 ; set bed temp
M190 S85 ; wait for bed temp
M109 S240 ; wait for extruder temp
G28 W ; home all without mesh bed level
G80 X29.2174 Y35.9368 W183.512 H138.507 ; mesh bed levelling

G1 Z0.2 F720
G1 Y-3 F1000 ; go outside print area
G92 E0
G1 X60 E9 F1000 ; intro line
G1 X100 E12.5 F1000 ; intro line

G92 E0
M221 S95
G21 ; set units to millimeters
G90 ; use absolute coordinates
M83 ; use relative distances for extrusion

M900 K0.02 ; Filament gcode LA 1.5
; ; Filament gcode LA 1.0




M107
;LAYER_CHANGE
;Z:0.3
;HEIGHT:0.3
G1 E-1 F2100
G1 Z.5 F720
G1 X31.133 Y37.149 F10800
G1 Z.3 F720
G1 E1 F1200
M204 S800
;TYPE:Skirt/Brim
;WIDTH:0.9
G1 X33.471 Y36.355 E.27021
G1 X77.901 Y36.355 E4.86216
G1 X79.616 Y36.76 E.19284
G1 X210.191 Y102.047 E15.97598
G1 X211.53 Y103.158 E.1904
G1 X212.311 Y105.478 E.26789
G1 X212.311 Y170.19 E7.08171
G1 X211.916 Y171.885 E.19046
G1 X210.813 Y173.231 E.19044
G1 X208.476 Y174.026 E.27014
G1 X33.471 Y174.026 E19.15153
G1 X31.776 Y173.631 E.19046
G1 X30.43 Y172.528 E.19044
G1 X29.635 Y170.19 E.27024
G1 X29.635 Y40.19 E14.22645
G1 X30.03 Y38.495 E.19046
G1 X31.057 Y37.242 E.17729
M204 S1000
; printing object SideWall001 id:18 copy 0
;WIPE_START
G1 F8640
G1 X31.133 Y37.149 E-.02773
G1 X33.471 Y36.355 E-.57013
G1 X35.213 Y36.355 E-.40214
;WIPE_END
G1 Z.5 F720
G1 X36.628 Y43.347 F10800
G1 Z.3 F720
G1 E1 F1200
M204 S800
;TYPE:Perimeter
;WIDTH:0.899999
G1 X77.155 Y43.347 E4.43504
G1 X204.894 Y107.216 E15.62898
M73 P0 R222
G1 X204.894 Y121.223 E1.53284
G1 X204.894 Y167.033 E5.01318
G1 X36.628 Y167.033 E18.41405
M73 Q0 S223
G1 X36.628 Y43.467 E13.52234
M204 S1000
;WIPE_START
G1 F8640
G1 X36.628 Y43.347 E-.02771
G1 X40.839 Y43.347 E-.97229
;WIPE_END
G1 Z.5 F720
G1 X35.792 Y42.511 F10800
G1 Z.3 F720
G1 E1 F1200
M204 S800
G1 X77.353 Y42.511 E4.54819
G1 X205.729 Y106.7 E15.70699
G1 X205.729 Y121.223 E1.58931
G1 X205.729 Y167.869 E5.10467
G1 X35.792 Y167.869 E18.59691
G1 X35.792 Y42.631 E13.70531
M204 S1000
;WIPE_START
G1 F8640
G1 X35.792 Y42.511 E-.02771
G1 X40.003 Y42.511 E-.97229
;WIPE_END
G1 Z.5 F720
G1 X34.956 Y41.676 F10800
G1 Z.3 F720
G1 E1 F1200
M204 S800
G1 X77.55 Y41.676 E4.66124
G1 X206.565 Y106.183 E15.7851
G1 X206.565 Y121.223 E1.64589
M73 P0 R221
G1 X206.565 Y168.705 E5.19615
G1 X34.956 Y168.705 E18.77988
G1 X34.956 Y41.796 E13.88818
M73 Q0 S222
M204 S1000
;WIPE_START
G1 F8640
G1 X34.956 Y41.676 E-.02771
G1 X39.167 Y41.676 E-.97229
;WIPE_END
G1 Z.5 F720
G1 X34.121 Y40.84 F10800
G1 Z.3 F720
G1 E1 F1200
M204 S800
;TYPE:External perimeter
G1 X77.747 Y40.84 E4.77417
G1 X207.401 Y105.667 E15.86331
G1 X207.401 Y121.223 E1.70236
G1 X207.401 Y169.54 E5.28753
G1 X34.121 Y169.54 E18.96275
G1 X34.121 Y40.96 E14.07104
M73 P1 R221
M73 Q1 S222
M204 S1000
;WIPE_START
G1 F8640
G1 X34.121 Y40.84 E-.02771
G1 X38.332 Y40.84 E-.97229
;WIPE_END
G1 Z.5 F720
G1 X161.838 Y157.694 F10800
G1 Z.3 F720
G1 E1 F1200
M204 S800
;TYPE:Perimeter
G1 X161.264 Y157.203 E.08266
G1 X160.598 Y156.505 E.10558
G1 X160.008 Y155.751 E.10477
G1 X159.491 Y154.932 E.10599
G1 X159.323 Y154.614 E.03936
G1 X158.909 Y153.696 E.1102
G1 X158.582 Y152.713 E.11337
G1 X158.377 Y151.772 E.10539
G1 X158.267 Y150.819 E.10498
G1 X158.252 Y149.855 E.10551
G1 X158.334 Y148.893 E.10566
G1 X158.51 Y147.951 E.10487
G1 X158.78 Y147.026 E.10545
G1 X159.141 Y146.132 E.10551
G1 X159.588 Y145.281 E.10519
G1 X160.118 Y144.478 E.10529
G1 X160.724 Y143.733 E.10509
G1 X161.404 Y143.049 E.10555
G1 X162.148 Y142.437 E.10543
G1 X162.947 Y141.903 E.10517
G1 X163.799 Y141.451 E.10555
G1 X164.688 Y141.086 E.10517
G1 X165.611 Y140.811 E.1054
G1 X166.555 Y140.63 E.10519
G1 X167.514 Y140.544 E.10537
G1 X168.477 Y140.553 E.10539
G1 X169.433 Y140.658 E.10525
G1 X170.375 Y140.858 E.10538
G1 X171.291 Y141.151 E.10524
G1 X172.175 Y141.534 E.10543
G1 X173.014 Y142.001 E.10508
G1 X173.806 Y142.552 E.10558
G1 X174.537 Y143.178 E.10532
G1 X175.203 Y143.875 E.1055
G1 X175.793 Y144.63 E.10486
G1 X176.31 Y145.448 E.1059
G1 X176.478 Y145.767 E.03945
G1 X176.893 Y146.685 E.11025
G1 X177.219 Y147.667 E.11323
G1 X177.424 Y148.609 E.1055
G1 X177.535 Y149.561 E.10489
G1 X177.549 Y150.526 E.10562
G1 X177.467 Y151.487 E.10555
G1 X177.292 Y152.429 E.10485
G1 X177.022 Y153.355 E.10556
G1 X176.66 Y154.249 E.10555
G1 X176.213 Y155.099 E.1051
G1 X175.683 Y155.903 E.10538
G1 X175.078 Y156.648 E.10503
G1 X174.397 Y157.332 E.10563
G1 X173.653 Y157.944 E.10543
G1 X172.854 Y158.477 E.10511
G1 X172.003 Y158.93 E.1055
G1 X171.113 Y159.294 E.10523
G1 X170.19 Y159.569 E.1054
G1 X169.246 Y159.75 E.10519
G1 X168.287 Y159.837 E.10538
G1 X167.324 Y159.827 E.10539
G1 X166.368 Y159.722 E.10525
G1 X165.426 Y159.522 E.10538
G1 X164.51 Y159.23 E.10521
G1 X163.626 Y158.847 E.10543
G1 X162.787 Y158.379 E.10513
G1 X161.995 Y157.828 E.10558
G1 X161.93 Y157.772 E.00939
M204 S1000
G1 X161.93 Y157.772 F10800
G1 X162.375 Y157.056
M204 S800
G1 F1200
G1 X161.817 Y156.576 E.08055
G1 X161.211 Y155.937 E.09637
G1 X160.674 Y155.246 E.09577
G1 X160.205 Y154.497 E.09671
G1 X160.085 Y154.27 E.0281
G1 X159.67 Y153.352 E.11025
G1 X159.38 Y152.467 E.10192
G1 X159.196 Y151.607 E.09624
G1 X159.098 Y150.735 E.09603
G1 X159.088 Y149.855 E.09631
G1 X159.165 Y148.977 E.09645
G1 X159.329 Y148.116 E.09592
G1 X159.578 Y147.272 E.0963
G1 X159.911 Y146.457 E.09635
G1 X160.322 Y145.681 E.0961
G1 X160.808 Y144.948 E.09625
G1 X161.364 Y144.269 E.09604
G1 X161.987 Y143.647 E.09634
G1 X162.669 Y143.09 E.09636
G1 X163.401 Y142.605 E.09609
G1 X164.18 Y142.194 E.09639
G1 X164.993 Y141.864 E.09602
G1 X165.837 Y141.616 E.09627
G1 X166.701 Y141.453 E.09622
G1 X167.577 Y141.377 E.09622
G1 X168.456 Y141.388 E.0962
G1 X169.33 Y141.487 E.09626
G1 X170.189 Y141.673 E.09618
G1 X171.025 Y141.943 E.09614
G1 X171.831 Y142.295 E.09625
G1 X172.597 Y142.725 E.09613
G1 X173.318 Y143.231 E.09639
G1 X173.984 Y143.804 E.09615
G1 X174.59 Y144.443 E.09637
G1 X175.128 Y145.135 E.09592
G1 X175.596 Y145.883 E.09656
G1 X175.717 Y146.111 E.02825
G1 X176.131 Y147.028 E.1101
G1 X176.421 Y147.913 E.10192
G1 X176.605 Y148.774 E.09635
G1 X176.703 Y149.645 E.09592
G1 X176.714 Y150.526 E.09642
G1 X176.636 Y151.403 E.09635
G1 X176.473 Y152.264 E.0959
G1 X176.223 Y153.108 E.09633
G1 X175.89 Y153.924 E.09645
G1 X175.479 Y154.7 E.0961
G1 X174.993 Y155.432 E.09615
G1 X174.437 Y156.111 E.09604
G1 X173.814 Y156.734 E.09642
G1 X173.132 Y157.29 E.09629
G1 X172.401 Y157.775 E.096
G1 X171.622 Y158.186 E.09639
G1 X170.808 Y158.517 E.09616
G1 X169.964 Y158.765 E.09627
G1 X169.101 Y158.928 E.09611
G1 X168.224 Y159.004 E.09633
G1 X167.345 Y158.992 E.0962
G1 X166.472 Y158.893 E.09615
G1 X165.612 Y158.707 E.09629
G1 X164.776 Y158.438 E.09611
G1 X163.97 Y158.085 E.09629
G1 X163.204 Y157.655 E.09613
G1 X162.483 Y157.15 E.09633
G1 X162.465 Y157.135 E.00256
M204 S1000
G1 X162.465 Y157.135 F10800
G1 X162.953 Y156.456
M204 S800
G1 F1200
G1 X162.37 Y155.949 E.08455
G1 X161.824 Y155.369 E.08717
G1 X161.339 Y154.74 E.08692
G1 X160.918 Y154.062 E.08734
G1 X160.432 Y153.008 E.12701
G1 X160.179 Y152.221 E.09047
G1 X160.015 Y151.441 E.08722
G1 X159.93 Y150.651 E.08695
G1 X159.923 Y149.855 E.08711
G1 X159.997 Y149.061 E.08727
G1 X160.148 Y148.281 E.08694
G1 X160.377 Y147.518 E.08718
G1 X160.681 Y146.782 E.08714
G1 X161.056 Y146.08 E.0871
G1 X161.499 Y145.419 E.08708
G1 X162.005 Y144.806 E.08699
G1 X162.571 Y144.245 E.08721
G1 X163.19 Y143.744 E.08715
G1 X163.854 Y143.307 E.08699
G1 X164.561 Y142.938 E.08727
G1 X165.299 Y142.642 E.08702
G1 X166.064 Y142.42 E.08717
G1 X166.846 Y142.276 E.08702
G1 X167.639 Y142.21 E.08708
G1 X168.435 Y142.224 E.08712
G1 X169.226 Y142.316 E.08715
G1 X170.003 Y142.488 E.08709
G1 X170.759 Y142.735 E.08704
G1 X171.488 Y143.057 E.08721
G1 X172.18 Y143.449 E.08703
G1 X172.83 Y143.909 E.08714
G1 X173.431 Y144.431 E.08711
G1 X173.977 Y145.011 E.08717
G1 X174.462 Y145.64 E.08692
G1 X174.883 Y146.318 E.08734
G1 X175.369 Y147.372 E.12701
G1 X175.622 Y148.16 E.09057
G1 X175.786 Y148.939 E.08712
G1 X175.872 Y149.729 E.08696
G1 X175.878 Y150.526 E.08722
G1 X175.804 Y151.319 E.08716
G1 X175.653 Y152.099 E.08694
G1 X175.425 Y152.862 E.08715
G1 X175.121 Y153.599 E.08724
G1 X174.746 Y154.3 E.087
G1 X174.302 Y154.961 E.08714
G1 X173.797 Y155.574 E.08692
G1 X173.23 Y156.135 E.08729
G1 X172.611 Y156.637 E.08722
G1 X171.947 Y157.073 E.08693
G1 X171.241 Y157.442 E.08718
G1 X170.503 Y157.739 E.08706
G1 X169.738 Y157.96 E.08714
G1 X168.955 Y158.105 E.08714
G1 X168.162 Y158.17 E.08707
G1 X167.366 Y158.157 E.08712
G1 X166.576 Y158.064 E.08705
G1 X165.798 Y157.893 E.08717
G1 X165.042 Y157.645 E.08707
G1 X164.314 Y157.323 E.08711
G1 X163.621 Y156.931 E.08713
G1 X163.049 Y156.527 E.07664
M204 S1000
G1 X163.049 Y156.527 F10800
G1 X163.459 Y155.793
M204 S800
;TYPE:External perimeter
G1 F1200
G1 X162.923 Y155.323 E.07801
G1 X162.437 Y154.801 E.07805
G1 X162.005 Y154.235 E.07792
G1 X161.632 Y153.627 E.07806
G1 X161.193 Y152.664 E.11582
G1 X160.977 Y151.975 E.07902
G1 X160.834 Y151.276 E.07808
G1 X160.761 Y150.568 E.07789
G1 X160.759 Y149.855 E.07803
G1 X160.828 Y149.145 E.07806
G1 X160.967 Y148.446 E.07799
G1 X161.175 Y147.765 E.07792
G1 X161.451 Y147.107 E.07809
G1 X161.789 Y146.48 E.07795
G1 X162.189 Y145.89 E.07801
G1 X162.645 Y145.343 E.07793
G1 X163.154 Y144.843 E.07808
G1 X163.711 Y144.397 E.07809
G1 X164.308 Y144.009 E.07792
G1 X164.942 Y143.682 E.07807
G1 X165.604 Y143.42 E.07791
G1 X166.29 Y143.225 E.07805
G1 X166.991 Y143.099 E.07794
G1 X167.702 Y143.043 E.07805
G1 X168.414 Y143.059 E.07794
G1 X169.122 Y143.146 E.07806
G1 X169.817 Y143.302 E.07795
G1 X170.493 Y143.527 E.07797
G1 X171.144 Y143.819 E.07808
G1 X171.762 Y144.173 E.07794
G1 X172.342 Y144.587 E.07798
G1 X172.878 Y145.058 E.07809
G1 X173.364 Y145.579 E.07797
G1 X173.796 Y146.145 E.07792
G1 X174.169 Y146.753 E.07806
G1 X174.608 Y147.716 E.11582
G1 X174.824 Y148.406 E.07912
G1 X174.967 Y149.104 E.07797
M73 P1 R220
G1 X175.04 Y149.813 E.078
G1 X175.042 Y150.526 E.07803
G1 X174.973 Y151.236 E.07806
G1 X174.834 Y151.934 E.07788
G1 X174.626 Y152.616 E.07803
G1 X174.351 Y153.274 E.07804
G1 X174.012 Y153.9 E.07791
G1 X173.612 Y154.491 E.0781
G1 X173.156 Y155.038 E.07793
G1 X172.647 Y155.537 E.078
G1 X172.091 Y155.983 E.078
G1 X171.493 Y156.372 E.07807
G1 X170.86 Y156.699 E.07797
G1 X170.197 Y156.961 E.07801
G1 X169.512 Y157.156 E.07794
G1 X168.81 Y157.282 E.07805
G1 X168.1 Y157.337 E.07793
G1 X167.387 Y157.321 E.07805
G1 X166.679 Y157.235 E.07805
G1 X165.985 Y157.078 E.07787
G1 X165.308 Y156.853 E.07807
G1 X164.658 Y156.562 E.07794
G1 X164.039 Y156.207 E.07809
G1 X163.557 Y155.863 E.0648
M204 S1000
;WIPE_START
G1 F8640
G1 X163.459 Y155.793 E-.02781
G1 X162.923 Y155.323 E-.16461
G1 X162.437 Y154.801 E-.16468
G1 X162.005 Y154.235 E-.16441
G1 X161.632 Y153.627 E-.1647
G1 X161.193 Y152.664 E-.24437
G1 X161.103 Y152.377 E-.06942
;WIPE_END
G1 Z.5 F720
G1 X49.896 Y155.573 F10800
G1 Z.3 F720
G1 E1 F1200
M204 S800
;TYPE:Perimeter
G1 X49.491 Y154.932 E.08298
G1 X49.323 Y154.614 E.03936
G1 X48.909 Y153.696 E.1102
G1 X48.582 Y152.713 E.11337
G1 X48.377 Y151.772 E.10539
G1 X48.267 Y150.819 E.10498
G1 X48.252 Y149.855 E.10551
G1 X48.334 Y148.893 E.10566
G1 X48.51 Y147.951 E.10487
G1 X48.78 Y147.026 E.10545
G1 X49.141 Y146.132 E.10551
G1 X49.588 Y145.281 E.10519
G1 X50.118 Y144.478 E.10529
G1 X50.724 Y143.733 E.10509
G1 X51.404 Y143.049 E.10555
G1 X52.148 Y142.437 E.10543
G1 X52.947 Y141.903 E.10517
G1 X53.799 Y141.451 E.10555
G1 X54.688 Y141.086 E.10517
G1 X55.611 Y140.811 E.1054
G1 X56.555 Y140.63 E.10519
G1 X57.514 Y140.544 E.10537
G1 X58.477 Y140.553 E.10539
G1 X59.433 Y140.658 E.10525
G1 X60.375 Y140.858 E.10538
G1 X61.291 Y141.151 E.10524
G1 X62.175 Y141.534 E.10543
G1 X63.014 Y142.001 E.10508
G1 X63.806 Y142.552 E.10558
G1 X64.537 Y143.178 E.10532
G1 X65.203 Y143.875 E.1055
G1 X65.793 Y144.63 E.10486
G1 X66.31 Y145.448 E.1059
G1 X66.478 Y145.767 E.03945
G1 X66.893 Y146.685 E.11025
G1 X67.219 Y147.667 E.11323
G1 X67.424 Y148.609 E.1055
G1 X67.535 Y149.561 E.10489
G1 X67.549 Y150.526 E.10562
G1 X67.467 Y151.487 E.10555
G1 X67.292 Y152.429 E.10485
G1 X67.022 Y153.355 E.10556
G1 X66.66 Y154.249 E.10555
G1 X66.213 Y155.099 E.1051
G1 X65.683 Y155.903 E.10538
G1 X65.078 Y156.648 E.10503
G1 X64.397 Y157.332 E.10563
G1 X63.653 Y157.944 E.10543
G1 X62.854 Y158.477 E.10511
G1 X62.003 Y158.93 E.1055
G1 X61.113 Y159.294 E.10523
G1 X60.19 Y159.569 E.1054
G1 X59.246 Y159.75 E.10519
G1 X58.068 Y159.845 E.12933
G1 X57.324 Y159.827 E.08144
G1 X56.368 Y159.722 E.10525
G1 X55.426 Y159.522 E.10538
G1 X54.51 Y159.23 E.10521
G1 X53.626 Y158.847 E.10543
G1 X52.787 Y158.379 E.10513
G1 X51.995 Y157.828 E.10558
G1 X51.264 Y157.203 E.10525
G1 X50.598 Y156.505 E.10558
G1 X50.008 Y155.751 E.10477
G1 X49.96 Y155.674 E.00993
M204 S1000
G1 X49.96 Y155.674 F10800
G1 X50.596 Y155.122
M204 S800
G1 F1200
G1 X50.205 Y154.497 E.08068
G1 X50.085 Y154.27 E.0281
G1 X49.67 Y153.352 E.11025
G1 X49.38 Y152.467 E.10192
G1 X49.196 Y151.607 E.09624
G1 X49.098 Y150.735 E.09603
G1 X49.088 Y149.855 E.09631
G1 X49.165 Y148.977 E.09645
G1 X49.329 Y148.116 E.09592
G1 X49.578 Y147.272 E.0963
G1 X49.911 Y146.457 E.09635
G1 X50.322 Y145.681 E.0961
G1 X50.808 Y144.948 E.09625
G1 X51.364 Y144.269 E.09604
G1 X51.987 Y143.647 E.09634
G1 X52.669 Y143.09 E.09636
G1 X53.401 Y142.605 E.09609
G1 X54.18 Y142.194 E.09639
G1 X54.993 Y141.864 E.09602
G1 X55.837 Y141.616 E.09627
G1 X56.701 Y141.453 E.09622
G1 X57.577 Y141.377 E.09622
G1 X58.456 Y141.388 E.0962
G1 X59.33 Y141.487 E.09626
G1 X60.189 Y141.673 E.09618
G1 X61.025 Y141.943 E.09614
G1 X61.831 Y142.295 E.09625
G1 X62.597 Y142.725 E.09613
G1 X63.318 Y143.231 E.09639
G1 X63.984 Y143.804 E.09615
G1 X64.59 Y144.443 E.09637
G1 X65.128 Y145.135 E.09592
G1 X65.596 Y145.883 E.09656
G1 X65.717 Y146.111 E.02825
G1 X66.131 Y147.028 E.1101
G1 X66.421 Y147.913 E.10192
G1 X66.605 Y148.774 E.09635
G1 X66.703 Y149.645 E.09592
G1 X66.714 Y150.526 E.09642
G1 X66.636 Y151.403 E.09635
G1 X66.473 Y152.264 E.0959
G1 X66.223 Y153.108 E.09633
G1 X65.89 Y153.924 E.09645
G1 X65.48 Y154.7 E.09605
G1 X64.993 Y155.432 E.09621
G1 X64.437 Y156.111 E.09604
G1 X63.814 Y156.734 E.09642
G1 X63.132 Y157.29 E.09629
G1 X62.401 Y157.775 E.096
G1 X61.622 Y158.186 E.09639
G1 X60.808 Y158.517 E.09616
G1 X59.964 Y158.765 E.09627
G1 X59.101 Y158.928 E.09611
G1 X58.068 Y159.009 E.11339
G1 X57.345 Y158.992 E.07914
G1 X56.472 Y158.893 E.09615
G1 X55.612 Y158.707 E.09629
G1 X54.776 Y158.438 E.09611
G1 X53.97 Y158.085 E.09629
G1 X53.204 Y157.655 E.09613
G1 X52.483 Y157.15 E.09633
G1 X51.817 Y156.576 E.09622
G1 X51.211 Y155.937 E.09637
G1 X50.674 Y155.246 E.09577
G1 X50.66 Y155.223 E.00295
M204 S1000
G1 X50.66 Y155.223 F10800
G1 X51.297 Y154.671
M204 S800
G1 F1200
G1 X50.846 Y153.926 E.0953
G1 X50.432 Y153.008 E.1102
G1 X50.179 Y152.221 E.09047
G1 X50.015 Y151.441 E.08722
G1 X49.93 Y150.651 E.08695
G1 X49.923 Y149.855 E.08711
G1 X49.997 Y149.061 E.08727
G1 X50.148 Y148.281 E.08694
G1 X50.377 Y147.518 E.08718
G1 X50.681 Y146.782 E.08714
G1 X51.056 Y146.08 E.0871
G1 X51.499 Y145.419 E.08708
G1 X52.005 Y144.806 E.08699
G1 X52.571 Y144.245 E.08721
G1 X53.19 Y143.744 E.08715
G1 X53.854 Y143.307 E.08699
G1 X54.561 Y142.938 E.08727
