; generated by PrusaSlicer 2.7.2 on 2025-05-11 at 00:20:50 UTC


;
;
; 

; external perimeters extrusion width = 1.00mm
; perimeters extrusion width = 1.00mm
; infill extrusion width = 0.90mm
; solid infill extrusion width = 0.90mm
; top infill extrusion width = 0.80mm
; first layer extrusion width = 0.90mm

M73 P0 R63
M73 Q0 S64
M201 X1000 Y1000 Z200 E5000 ; sets maximum accelerations, mm/sec^2
M203 X200 Y200 Z12 E120 ; sets maximum feedrates, mm / sec
M204 S1250 T1250 ; sets acceleration (S) and retract acceleration (R), mm/sec^2
M205 X8.00 Y8.00 Z0.40 E4.50 ; sets the jerk limits, mm/sec
M205 S0 T0 ; sets the minimum extruding and travel feed rate, mm/sec

; printing object BackClamp id:0 copy 0
; stop printing object BackClamp id:0 copy 0
; printing object BackClamp id:0 copy 1
; stop printing object BackClamp id:0 copy 1

;TYPE:Custom
M862.3 P "MK3S" ; printer model check
M862.1 P0.8 ; nozzle diameter check
M115 U3.13.3 ; tell printer latest fw version
G90 ; use absolute coordinates
M83 ; extruder relative mode
M104 S240 ; set extruder temp
M140 S85 ; set bed temp
M190 S85 ; wait for bed temp
M109 S240 ; wait for extruder temp
G28 W ; home all without mesh bed level
G80 X39.1715 Y15.2466 W105.657 H43.5069 ; mesh bed levelling

G1 Z0.2 F720
G1 Y-3 F1000 ; go outside print area
G92 E0
G1 X60 E9 F1000 ; intro line
G1 X100 E12.5 F1000 ; intro line

G92 E0
M221 S95
G21 ; set units to millimeters
G90 ; use absolute coordinates
M83 ; use relative distances for extrusion

M900 K0.02 ; Filament gcode LA 1.5
; ; Filament gcode LA 1.0




M107
;LAYER_CHANGE
;Z:0.3
;HEIGHT:0.3
G1 E-1 F2100
G1 Z.5 F720
G1 X39.984 Y17.805 F10800
G1 Z.3 F720
G1 E1 F1200
M204 S800
;TYPE:Skirt/Brim
;WIDTH:0.9
G1 X41.088 Y16.459 E.19051
G1 X43.425 Y15.664 E.27014
G1 X140.575 Y15.664 E10.63153
G1 X142.27 Y16.059 E.19046
G1 X143.616 Y17.162 E.19044
G1 X144.411 Y19.5 E.27024
G1 X144.411 Y54.5 E3.8302
G1 X144.016 Y56.195 E.19046
G1 X142.913 Y57.541 E.19044
G1 X140.575 Y58.336 E.27024
G1 X43.425 Y58.336 E10.63153
G1 X41.73 Y57.941 E.19046
G1 X40.384 Y56.838 E.19044
G1 X39.589 Y54.501 E.27014
G1 X39.589 Y19.5 E3.83031
G1 X39.957 Y17.922 E.17732
M204 S1000
; printing object BackClamp id:0 copy 0
;WIPE_START
G1 F8640
G1 X39.984 Y17.805 E-.02773
G1 X41.088 Y16.459 E-.40197
G1 X43.425 Y15.664 E-.56999
G1 X43.426 Y15.664 E-.00031
;WIPE_END
G1 Z.5 F720
G1 X136.993 Y51.343 F10800
G1 Z.3 F720
M73 Q0 S63
G1 E1 F1200
M204 S800
;TYPE:Perimeter
;WIDTH:0.899999
G1 X113.007 Y51.343 E2.62489
G1 X113.007 Y22.657 E3.13923
G1 X136.993 Y22.657 E2.62489
G1 X136.993 Y34.65 E1.31244
G1 X136.993 Y51.223 E1.81365
M73 P0 R62
M204 S1000
;WIPE_START
G1 F8640
G1 X136.993 Y51.343 E-.02771
G1 X132.782 Y51.343 E-.97229
;WIPE_END
G1 Z.5 F720
G1 X137.829 Y52.179 F10800
G1 Z.3 F720
G1 E1 F1200
M204 S800
G1 X112.171 Y52.179 E2.80786
G1 X112.171 Y21.821 E3.3222
G1 X137.829 Y21.821 E2.80786
G1 X137.829 Y34.65 E1.40393
G1 X137.829 Y52.059 E1.90514
M204 S1000
;WIPE_START
G1 F8640
G1 X137.829 Y52.179 E-.02771
G1 X133.618 Y52.179 E-.97229
;WIPE_END
G1 Z.5 F720
G1 X138.664 Y53.014 F10800
G1 Z.3 F720
G1 E1 F1200
M204 S800
G1 X111.336 Y53.014 E2.99062
G1 X111.336 Y20.986 E3.50496
G1 X138.664 Y20.986 E2.99062
G1 X138.664 Y34.65 E1.49531
M73 P1 R62
M73 Q1 S63
G1 X138.664 Y52.894 E1.99652
M204 S1000
;WIPE_START
G1 F8640
G1 X138.664 Y53.014 E-.02771
G1 X134.453 Y53.014 E-.97229
;WIPE_END
G1 Z.5 F720
G1 X139.5 Y53.85 F10800
G1 Z.3 F720
G1 E1 F1200
M204 S800
;TYPE:External perimeter
G1 X110.5 Y53.85 E3.17359
G1 X110.5 Y20.15 E3.68793
G1 X139.5 Y20.15 E3.17359
G1 X139.5 Y34.65 E1.5868
G1 X139.5 Y53.73 E2.088
M204 S1000
;WIPE_START
G1 F8640
G1 X139.5 Y53.85 E-.02771
G1 X135.289 Y53.85 E-.97229
;WIPE_END
G1 Z.5 F720
G1 X136.659 Y24.704 F10800
G1 Z.3 F720
G1 E1 F1200
M204 S800
;TYPE:Solid infill
;WIDTH:0.911309
G1 X135.322 Y23.367 E.20972
G1 X134.124 Y23.367 E.13288
G1 X136.283 Y25.526 E.33866
G1 X136.283 Y26.724 E.13288
G1 X132.926 Y23.367 E.52657
G1 X131.729 Y23.367 E.13277
G1 X136.283 Y27.921 E.71433
G1 X136.283 Y29.119 E.13288
G1 X130.531 Y23.367 E.90225
G1 X129.333 Y23.367 E.13288
G1 X136.283 Y30.317 E1.09016
G1 X136.283 Y31.515 E.13288
G1 X128.135 Y23.367 E1.27808
G1 X126.938 Y23.367 E.13277
G1 X136.283 Y32.712 E1.46584
G1 X136.283 Y33.91 E.13288
G1 X125.74 Y23.367 E1.65375
G1 X124.542 Y23.367 E.13288
G1 X136.283 Y35.108 E1.84167
G1 X136.283 Y36.306 E.13288
G1 X123.344 Y23.367 E2.02958
G1 X122.147 Y23.367 E.13277
G1 X136.283 Y37.503 E2.21734
G1 X136.283 Y38.701 E.13288
G1 X120.949 Y23.367 E2.40526
G1 X119.751 Y23.367 E.13288
G1 X136.283 Y39.899 E2.59317
G1 X136.283 Y41.097 E.13288
G1 X118.553 Y23.367 E2.78109
G1 X117.356 Y23.367 E.13277
G1 X136.283 Y42.294 E2.96885
G1 X136.283 Y43.492 E.13288
G1 X116.158 Y23.367 E3.15676
G1 X114.96 Y23.367 E.13288
G1 X136.283 Y44.69 E3.34468
G1 X136.283 Y45.887 E.13277
G1 X113.763 Y23.367 E3.53244
G1 X113.717 Y23.367 E.0051
G1 X113.717 Y24.519 E.12777
G1 X136.283 Y47.085 E3.53965
G1 X136.283 Y48.283 E.13288
G1 X113.717 Y25.717 E3.53965
G1 X113.717 Y26.915 E.13288
G1 X136.283 Y49.481 E3.53965
G1 X136.283 Y50.633 E.12777
G1 X136.237 Y50.633 E.0051
G1 X113.717 Y28.113 E3.53244
G1 X113.717 Y29.31 E.13277
G1 X135.04 Y50.633 E3.34468
G1 X133.842 Y50.633 E.13288
G1 X113.717 Y30.508 E3.15676
G1 X113.717 Y31.706 E.13288
G1 X132.644 Y50.633 E2.96885
G1 X131.446 Y50.633 E.13288
G1 X113.717 Y32.904 E2.78093
G1 X113.717 Y34.101 E.13277
M73 P2 R62
M73 Q2 S63
G1 X130.249 Y50.633 E2.59317
G1 X129.051 Y50.633 E.13288
G1 X113.717 Y35.299 E2.40526
G1 X113.717 Y36.497 E.13288
G1 X127.853 Y50.633 E2.21734
G1 X126.655 Y50.633 E.13288
G1 X113.717 Y37.695 E2.02943
G1 X113.717 Y38.892 E.13277
M73 Q2 S62
G1 X125.458 Y50.633 E1.84167
G1 X124.26 Y50.633 E.13288
G1 X113.717 Y40.09 E1.65375
G1 X113.717 Y41.288 E.13288
G1 X123.062 Y50.633 E1.46584
G1 X121.864 Y50.633 E.13288
G1 X113.717 Y42.486 E1.27792
G1 X113.717 Y43.683 E.13277
G1 X120.667 Y50.633 E1.09016
G1 X119.469 Y50.633 E.13288
G1 X113.717 Y44.881 E.90225
G1 X113.717 Y46.079 E.13288
G1 X118.271 Y50.633 E.71433
G1 X117.074 Y50.633 E.13277
G1 X113.717 Y47.276 E.52657
G1 X113.717 Y48.474 E.13288
G1 X115.876 Y50.633 E.33866
M73 P2 R61
G1 X114.678 Y50.633 E.13288
G1 X113.341 Y49.296 E.20972
M204 S1000
; stop printing object BackClamp id:0 copy 0
; printing object BackClamp id:0 copy 1
;WIPE_START
G1 F8640
G1 X114.678 Y50.633 E-.43659
G1 X115.876 Y50.633 E-.27662
G1 X114.998 Y49.755 E-.28679
;WIPE_END
G1 Z.5 F720
G1 X70.993 Y51.343 F10800
G1 Z.3 F720
G1 E1 F1200
M204 S800
;TYPE:Perimeter
;WIDTH:0.899999
G1 X47.007 Y51.343 E2.62489
G1 X47.007 Y22.657 E3.13923
G1 X70.993 Y22.657 E2.62489
G1 X70.993 Y34.65 E1.31244
G1 X70.993 Y51.223 E1.81365
M204 S1000
;WIPE_START
G1 F8640
G1 X70.993 Y51.343 E-.02771
G1 X66.782 Y51.343 E-.97229
;WIPE_END
G1 Z.5 F720
G1 X71.829 Y52.179 F10800
G1 Z.3 F720
G1 E1 F1200
M204 S800
G1 X46.171 Y52.179 E2.80786
G1 X46.171 Y21.821 E3.3222
G1 X71.829 Y21.821 E2.80786
G1 X71.829 Y34.65 E1.40393
G1 X71.829 Y52.059 E1.90514
M204 S1000
;WIPE_START
G1 F8640
G1 X71.829 Y52.179 E-.02771
G1 X67.618 Y52.179 E-.97229
;WIPE_END
G1 Z.5 F720
G1 X72.664 Y53.014 F10800
G1 Z.3 F720
G1 E1 F1200
M204 S800
G1 X45.336 Y53.014 E2.99062
G1 X45.336 Y20.986 E3.50496
G1 X72.664 Y20.986 E2.99062
G1 X72.664 Y34.65 E1.49531
G1 X72.664 Y52.894 E1.99652
M204 S1000
;WIPE_START
G1 F8640
G1 X72.664 Y53.014 E-.02771
G1 X68.453 Y53.014 E-.97229
;WIPE_END
G1 Z.5 F720
G1 X73.5 Y53.85 F10800
G1 Z.3 F720
G1 E1 F1200
M204 S800
;TYPE:External perimeter
G1 X44.5 Y53.85 E3.17359
G1 X44.5 Y20.15 E3.68793
G1 X73.5 Y20.15 E3.17359
G1 X73.5 Y34.65 E1.5868
G1 X73.5 Y53.73 E2.088
M204 S1000
;WIPE_START
G1 F8640
G1 X73.5 Y53.85 E-.02771
G1 X69.289 Y53.85 E-.97229
;WIPE_END
G1 Z.5 F720
G1 X70.659 Y24.704 F10800
G1 Z.3 F720
G1 E1 F1200
M204 S800
;TYPE:Solid infill
;WIDTH:0.911309
G1 X69.322 Y23.367 E.20972
G1 X68.124 Y23.367 E.13288
G1 X70.283 Y25.526 E.33866
G1 X70.283 Y26.724 E.13288
G1 X66.926 Y23.367 E.52657
G1 X65.729 Y23.367 E.13277
G1 X70.283 Y27.921 E.71433
G1 X70.283 Y29.119 E.13288
G1 X64.531 Y23.367 E.90225
G1 X63.333 Y23.367 E.13288
M73 P3 R61
G1 X70.283 Y30.317 E1.09016
G1 X70.283 Y31.515 E.13288
G1 X62.135 Y23.367 E1.27808
G1 X60.938 Y23.367 E.13277
M73 Q3 S62
G1 X70.283 Y32.712 E1.46584
G1 X70.283 Y33.91 E.13288
G1 X59.74 Y23.367 E1.65375
G1 X58.542 Y23.367 E.13288
G1 X70.283 Y35.108 E1.84167
G1 X70.283 Y36.306 E.13288
G1 X57.344 Y23.367 E2.02958
G1 X56.147 Y23.367 E.13277
G1 X70.283 Y37.503 E2.21734
G1 X70.283 Y38.701 E.13288
G1 X54.949 Y23.367 E2.40526
G1 X53.751 Y23.367 E.13288
G1 X70.283 Y39.899 E2.59317
G1 X70.283 Y41.097 E.13288
G1 X52.553 Y23.367 E2.78109
G1 X51.356 Y23.367 E.13277
G1 X70.283 Y42.294 E2.96885
G1 X70.283 Y43.492 E.13288
G1 X50.158 Y23.367 E3.15676
G1 X48.96 Y23.367 E.13288
G1 X70.283 Y44.69 E3.34468
G1 X70.283 Y45.887 E.13277
G1 X47.763 Y23.367 E3.53244
G1 X47.717 Y23.367 E.0051
G1 X47.717 Y24.519 E.12777
G1 X70.283 Y47.085 E3.53965
G1 X70.283 Y48.283 E.13288
G1 X47.717 Y25.717 E3.53965
G1 X47.717 Y26.915 E.13288
G1 X70.283 Y49.481 E3.53965
G1 X70.283 Y50.633 E.12777
G1 X70.237 Y50.633 E.0051
G1 X47.717 Y28.113 E3.53244
G1 X47.717 Y29.31 E.13277
G1 X69.04 Y50.633 E3.34468
G1 X67.842 Y50.633 E.13288
G1 X47.717 Y30.508 E3.15676
G1 X47.717 Y31.706 E.13288
G1 X66.644 Y50.633 E2.96885
G1 X65.446 Y50.633 E.13288
G1 X47.717 Y32.904 E2.78093
G1 X47.717 Y34.101 E.13277
M73 Q3 S61
G1 X64.249 Y50.633 E2.59317
G1 X63.051 Y50.633 E.13288
G1 X47.717 Y35.299 E2.40526
G1 X47.717 Y36.497 E.13288
G1 X61.853 Y50.633 E2.21734
G1 X60.655 Y50.633 E.13288
G1 X47.717 Y37.695 E2.02943
G1 X47.717 Y38.892 E.13277
M73 P3 R60
G1 X59.458 Y50.633 E1.84167
G1 X58.26 Y50.633 E.13288
G1 X47.717 Y40.09 E1.65375
G1 X47.717 Y41.288 E.13288
G1 X57.062 Y50.633 E1.46584
G1 X55.864 Y50.633 E.13288
G1 X47.717 Y42.486 E1.27792
G1 X47.717 Y43.683 E.13277
G1 X54.667 Y50.633 E1.09016
G1 X53.469 Y50.633 E.13288
G1 X47.717 Y44.881 E.90225
G1 X47.717 Y46.079 E.13288
G1 X52.271 Y50.633 E.71433
G1 X51.074 Y50.633 E.13277
G1 X47.717 Y47.276 E.52657
G1 X47.717 Y48.474 E.13288
G1 X49.876 Y50.633 E.33866
G1 X48.678 Y50.633 E.13288
G1 X47.341 Y49.296 E.20972
M204 S1000
; stop printing object BackClamp id:0 copy 1
;LAYER_CHANGE
;Z:0.85
;HEIGHT:0.55
;BEFORE_LAYER_CHANGE
G92 E0.0
;0.85


;WIPE_START
G1 F8640
G1 X48.678 Y50.633 E-.43659
G1 X49.876 Y50.633 E-.27662
G1 X48.998 Y49.755 E-.28679
;WIPE_END
G1 Z.85 F720
;AFTER_LAYER_CHANGE
;0.85
M104 S250 ; set temperature
M140 S90 ; set bed temperature
G1 Z1.05
M73 P4 R60
G1 X48.998 Y58.336 F10800
G1 Z.85 F720
G1 E1 F1200
;TYPE:Skirt/Brim
;WIDTH:0.9
G1 F2100
G1 X43.425 Y58.336 E1.04632
G1 X41.73 Y57.941 E.32676
G1 X40.384 Y56.838 E.32672
G1 X39.589 Y54.501 E.46346
G1 X39.589 Y19.5 E6.57137
G1 X39.984 Y17.805 E.32676
M73 Q4 S61
G1 X41.088 Y16.459 E.32684
G1 X43.425 Y15.664 E.46346
G1 X140.575 Y15.664 E18.23973
G1 X142.27 Y16.059 E.32676
G1 X143.616 Y17.162 E.32672
G1 X144.411 Y19.5 E.46364
G1 X144.411 Y54.5 E6.57118
G1 X144.016 Y56.195 E.32676
G1 X142.913 Y57.541 E.32672
G1 X140.575 Y58.336 E.46364
G1 X49.118 Y58.336 E17.17088
; printing object BackClamp id:0 copy 0
;WIPE_START
G1 F8640
G1 X48.998 Y58.336 E-.02771
G1 X44.787 Y58.336 E-.97229
;WIPE_END
G1 Z1.05 F720
G1 X137.429 Y51.354 F10800
G1 Z.85 F720
G1 E1 F1200
M204 S800
;TYPE:Perimeter
;WIDTH:0.999999
G1 F1800
G1 X112.571 Y51.354 E5.26387
G1 F1738.62
G1 X112.571 Y22.646 E6.07914
G1 F1800
G1 X137.429 Y22.646 E5.26387
G1 F1735.453
G1 X137.429 Y35.075 E2.63193
G1 X137.429 Y51.234 E3.42179
M204 S1000
;WIPE_START
G1 F8640
G1 X137.429 Y51.354 E-.02771
G1 X133.218 Y51.354 E-.97229
;WIPE_END
G1 Z1.05 F720
G1 X138.311 Y52.236 F10800
G1 Z.85 F720
G1 E1 F1200
M204 S800
G1 F1800
G1 X111.689 Y52.236 E5.63741
G1 F1724.145
G1 X111.689 Y21.764 E6.45268
G1 F1800
G1 X138.311 Y21.764 E5.63741
G1 F1719.043
G1 X138.311 Y35.075 E2.8187
G1 X138.311 Y52.116 E3.60856
M204 S1000
;WIPE_START
G1 F8640
G1 X138.311 Y52.236 E-.02771
G1 X134.1 Y52.236 E-.97229
;WIPE_END
G1 Z1.05 F720
G1 X139.193 Y53.118 F10800
G1 Z.85 F720
G1 E1 F1200
M204 S800
G1 F1711.802
G1 X138.15 Y53.118 E.22086
G1 F1800
G1 X111.85 Y53.118 E5.56922
G1 F1711.802
G1 X110.807 Y53.118 E.22086
G1 F1700.775
G1 X110.807 Y52.075 E.22086
G1 F1710.357
G1 X110.807 Y21.925 E6.38449
G1 F1700.775
G1 X110.807 Y20.882 E.22086
G1 F1711.802
G1 X111.85 Y20.882 E.22086
G1 F1800
G1 X138.15 Y20.882 E5.56922
G1 F1711.802
G1 X139.193 Y20.882 E.22086
G1 F1700.775
G1 X139.193 Y35.075 E3.00547
G1 F1703.856
G1 X139.193 Y36.118 E.22086
G1 F1800
G1 X139.193 Y52.075 E3.37901
G1 F1700.775
G1 X139.193 Y52.998 E.19545
M204 S1000
;WIPE_START
G1 F8640
G1 X139.193 Y53.118 E-.02771
G1 X138.15 Y53.118 E-.24083
G1 X134.982 Y53.118 E-.73146
;WIPE_END
G1 Z1.05 F720
G1 X140.075 Y54 F10800
G1 Z.85 F720
G1 E1 F1200
M204 S800
;TYPE:External perimeter
G1 F1290
G1 X138.15 Y54 E.40763
G1 F1500
G1 X111.85 Y54 E5.56922
G1 F1290.01
G1 X109.925 Y54 E.40763
G1 F1289.992
G1 X109.925 Y52.075 E.40763
G1 X109.925 Y21.925 E6.38449
G1 X109.925 Y20 E.40763
G1 X111.85 Y20 E.40763
G1 F1500
G1 X138.15 Y20 E5.56922
G1 F1290
G1 X140.075 Y20 E.40763
G1 X140.075 Y35.075 E3.19224
G1 X140.075 Y37 E.40763
G1 X140.075 Y52.075 E3.19224
G1 X140.075 Y53.88 E.38222
M204 S1000
;WIPE_START
G1 F8640
G1 X140.075 Y54 E-.02771
G1 X138.15 Y54 E-.44449
G1 X135.864 Y54 E-.5278
;WIPE_END
G1 Z1.05 F720
G1 X113.483 Y23.409 F10800
G1 Z.85 F720
G1 E1 F1200
;TYPE:Solid infill
;WIDTH:1.08973
G1 F2245.367
G1 X113.397 Y23.323 E.02837
G1 X113.28 Y23.355 E.0283
G1 X113.248 Y23.472 E.0283
G1 X113.334 Y23.558 E.02837
G1 X113.451 Y23.526 E.0283
;WIDTH:0.899999
G1 F2400
G1 X114.7 Y23.346 E.23692
G1 X113.271 Y24.775 E.37942
G1 X113.271 Y25.881 E.20765
G1 X115.806 Y23.346 E.67308
G1 X116.912 Y23.346 E.20765
G1 X113.271 Y26.987 E.96674
G1 X113.271 Y28.093 E.20765
G1 X118.018 Y23.346 E1.2604
G1 X119.124 Y23.346 E.20765
G1 X113.271 Y29.199 E1.55406
G1 X113.271 Y30.305 E.20765
G1 X120.23 Y23.346 E1.84772
G1 X121.336 Y23.346 E.20765
G1 X113.271 Y31.411 E2.14138
G1 X113.271 Y32.516 E.20746
G1 X122.441 Y23.346 E2.43478
G1 X123.547 Y23.346 E.20765
G1 X113.271 Y33.622 E2.72844
G1 X113.271 Y34.728 E.20765
G1 X124.653 Y23.346 E3.0221
G1 X125.759 Y23.346 E.20765
G1 X113.271 Y35.834 E3.31576
G1 X113.271 Y36.94 E.20765
G1 X126.865 Y23.346 E3.60942
G1 X127.971 Y23.346 E.20765
G1 X113.271 Y38.046 E3.90308
G1 X113.271 Y39.152 E.20765
G1 X129.077 Y23.346 E4.19674
G1 X130.183 Y23.346 E.20765
G1 X113.271 Y40.258 E4.4904
G1 X113.271 Y41.363 E.20746
G1 X131.288 Y23.346 E4.78379
G1 X132.394 Y23.346 E.20765
G1 X113.271 Y42.469 E5.07745
G1 X113.271 Y43.575 E.20765
G1 X133.5 Y23.346 E5.37111
G1 X134.606 Y23.346 E.20765
G1 X113.271 Y44.681 E5.66477
G1 X113.271 Y45.787 E.20765
M73 P5 R60
G1 X135.712 Y23.346 E5.95843
G1 X136.729 Y23.434 E.19165
G1 X113.271 Y46.893 E6.2286
G1 X113.271 Y47.999 E.20765
M73 Q5 S61
G1 X136.729 Y24.54 E6.2286
G1 X136.729 Y25.646 E.20765
G1 X113.271 Y49.104 E6.22846
;WIPE_START
G1 F8640
G1 X116.333 Y46.042 E-1
;WIPE_END
G1 Z1.05 F720
G1 X113.161 Y50.885 F10800
G1 Z.85 F720
G1 E1 F1200
;WIDTH:0.798031
G1 F2400
G1 X113.079 Y50.907 E.01386
G1 X113.018 Y50.846 E.01408
G1 X113.04 Y50.764 E.01386
G1 X113.123 Y50.742 E.01402
G1 X113.183 Y50.802 E.01385
;WIDTH:0.83202
G1 X113.212 Y50.605 E.03413
;WIDTH:0.86601
G1 X113.241 Y50.408 E.03576
;WIDTH:0.899999
G1 X113.271 Y50.21 E.0376
G1 X136.729 Y26.752 E6.22846
G1 X136.729 Y27.857 E.20746
G1 X113.932 Y50.654 E6.05296
G1 X115.038 Y50.654 E.20765
G1 X136.729 Y28.963 E5.7593
G1 X136.729 Y30.069 E.20765
G1 X116.144 Y50.654 E5.46564
G1 X117.25 Y50.654 E.20765
G1 X136.729 Y31.175 E5.17198
G1 X136.729 Y32.281 E.20765
G1 X118.356 Y50.654 E4.87832
G1 X119.462 Y50.654 E.20765
G1 X136.729 Y33.387 E4.58466
G1 X136.729 Y34.493 E.20765
G1 X120.568 Y50.654 E4.291
G1 X121.673 Y50.654 E.20746
G1 X136.729 Y35.598 E3.9976
G1 X136.729 Y36.704 E.20765
M73 Q5 S60
G1 X122.779 Y50.654 E3.70394
G1 X123.885 Y50.654 E.20765
G1 X136.729 Y37.81 E3.41028
G1 X136.729 Y38.916 E.20765
G1 X124.991 Y50.654 E3.11662
G1 X126.097 Y50.654 E.20765
G1 X136.729 Y40.022 E2.82296
G1 X136.729 Y41.128 E.20765
G1 X127.203 Y50.654 E2.5293
