; generated by PrusaSlicer 2.7.2 on 2025-06-15 at 00:04:59 UTC


;
;
; 

; external perimeters extrusion width = 1.00mm
; perimeters extrusion width = 1.00mm
; infill extrusion width = 0.90mm
; solid infill extrusion width = 0.90mm
; top infill extrusion width = 0.80mm
; support material extrusion width = 0.70mm
; first layer extrusion width = 0.90mm

M73 P0 R253
M73 Q0 S256
M201 X1000 Y1000 Z200 E5000 ; sets maximum accelerations, mm/sec^2
M203 X200 Y200 Z12 E120 ; sets maximum feedrates, mm / sec
M204 S1250 T1250 ; sets acceleration (S) and retract acceleration (R), mm/sec^2
M205 X8.00 Y8.00 Z0.40 E4.50 ; sets the jerk limits, mm/sec
M205 S0 T0 ; sets the minimum extruding and travel feed rate, mm/sec

; printing object Pocket007 id:0 copy 0
; stop printing object Pocket007 id:0 copy 0

;TYPE:Custom
M862.3 P "MK3S" ; printer model check
M862.1 P0.8 ; nozzle diameter check
M115 U3.13.3 ; tell printer latest fw version
G90 ; use absolute coordinates
M83 ; extruder relative mode
M104 S240 ; set extruder temp
M140 S85 ; set bed temp
M190 S85 ; wait for bed temp
M109 S240 ; wait for extruder temp
G28 W ; home all without mesh bed level
G80 X31.1627 Y8.69469 W202.541 H181.071 ; mesh bed levelling

G1 Z0.2 F720
G1 Y-3 F1000 ; go outside print area
G92 E0
G1 X60 E9 F1000 ; intro line
G1 X100 E12.5 F1000 ; intro line

G92 E0
M221 S95
G21 ; set units to millimeters
G90 ; use absolute coordinates
M83 ; use relative distances for extrusion

M900 K0.02 ; Filament gcode LA 1.5
; ; Filament gcode LA 1.0




M107
;LAYER_CHANGE
;Z:0.3
;HEIGHT:0.3
G1 E-1 F2100
G1 Z.5 F720
G1 X36.349 Y17.583 F10800
G1 Z.3 F720
M73 Q0 S255
G1 E1 F1200
M204 S800
;TYPE:Skirt/Brim
;WIDTH:0.9
G1 X37.666 Y16.445 E.18141
G1 X39.292 Y16.008 E.17548
G1 X207.562 Y9.115 E17.55232
G1 X214.997 Y9.408 E.7755
G1 X216.221 Y9.514 E.12805
G1 X217.55 Y9.877 E.14359
G1 X231.109 Y16.383 E1.56742
G1 X232.467 Y17.472 E.18142
G1 X233.286 Y19.841 E.26124
G1 X233.286 Y178.991 E16.5871
G1 X232.891 Y180.686 E.18139
G1 X231.103 Y182.452 E.26192
G1 X218.047 Y188.69 E1.50807
G1 X216.819 Y189.041 E.13311
G1 X214.925 Y189.233 E.19841
G1 X204.205 Y189.347 E1.11733
G1 X39.298 Y182.823 E17.20056
G1 X37.62 Y182.362 E.18137
M73 P0 R252
G1 X36.319 Y181.206 E.18139
G1 X35.719 Y179.882 E.1515
G1 X31.788 Y163.421 E1.76386
G1 X31.58 Y161.364 E.21548
G1 X33.902 Y30.151 E13.67756
G1 X34.062 Y28.465 E.17651
G1 X35.671 Y19.186 E.98152
G1 X36.303 Y17.693 E.16897
M204 S1000
; printing object Pocket007 id:0 copy 0
;WIPE_START
G1 F8640
G1 X36.349 Y17.583 E-.02753
G1 X37.666 Y16.445 E-.4019
G1 X39.292 Y16.008 E-.38877
G1 X40.079 Y15.976 E-.1818
;WIPE_END
G1 Z.5 F720
G1 X209.758 Y158.171 F10800
G1 Z.3 F720
G1 E1 F1200
M204 S800
;TYPE:Support material
G1 X211.433 Y158.343 E.17549
G1 X213.063 Y158.762 E.17541
G1 X214.614 Y159.421 E.17564
G1 X216.047 Y160.304 E.17543
G1 X216.923 Y161.007 E.11706
G1 X218.094 Y162.216 E.17542
G1 X219.072 Y163.587 E.17552
G1 X219.834 Y165.089 E.17554
G1 X220.364 Y166.687 E.17547
G1 X220.649 Y168.347 E.17554
G1 X220.683 Y170.03 E.17544
G1 X220.469 Y171.68 E.17341
G1 X219.974 Y172.114 E.06861
G1 X219.497 Y172.393 E.05759
G1 X219.829 Y173.751 E.1457
G1 X219.016 Y175.335 E.18556
G1 X218.026 Y176.697 E.17549
G1 X216.488 Y178.228 E.22618
G1 X217.11 Y179.816 E.17775
G1 X219.807 Y179.816 E.28109
G1 X219.488 Y181.824 E.2119
G1 X219.296 Y182.381 E.0614
G1 X218.804 Y183.329 E.11132
G1 X218.016 Y184.175 E.1205
G1 X217.302 Y184.736 E.09464
G1 X216.774 Y184.872 E.05683
G1 X216.393 Y185.229 E.05442
G1 X214.883 Y185.397 E.15835
G1 X213.891 Y185.347 E.10352
G1 X213.049 Y185.09 E.09175
G1 X212.289 Y184.755 E.08656
G1 X211.625 Y184.351 E.08101
G1 X210.86 Y183.662 E.1073
G1 X210.416 Y183.024 E.08101
G1 X209.777 Y183.366 E.07554
G1 X208.825 Y183.704 E.10529
G1 X207.919 Y183.853 E.09569
G1 X207.583 Y184.215 E.05148
G1 X206.767 Y184.757 E.1021
G1 X205.411 Y185.334 E.15359
G1 X204.164 Y185.512 E.13128
G1 X202.485 Y185.34 E.17591
G1 X202.091 Y184.971 E.05626
G1 X201.511 Y184.82 E.06246
G1 X200.677 Y184.096 E.11511
G1 X200.154 Y183.503 E.08241
G1 X199.77 Y182.872 E.07699
G1 X199.383 Y181.982 E.10115
G1 X199.076 Y179.816 E.228
G1 X201.79 Y179.816 E.28286
G1 X202.412 Y178.228 E.17775
G1 X201.269 Y177.137 E.16468
G1 X200.259 Y175.904 E.16612
G1 X199.435 Y174.539 E.16618
G1 X198.811 Y173.071 E.16625
G1 X198.401 Y171.531 E.16609
G1 X198.213 Y169.948 E.16614
G1 X198.256 Y168.294 E.17244
G1 X198.549 Y166.636 E.17548
G1 X198.64 Y166.313 E.03497
G1 X198.753 Y166.214 E.01566
G1 X199.705 Y165.657 E.11496
G1 X200.522 Y165.367 E.09036
G1 X200.082 Y163.864 E.16322
G1 X200.026 Y163.278 E.06135
G1 X201.212 Y161.755 E.20118
G1 X202.448 Y160.611 E.17553
G1 X203.36 Y159.956 E.11703
G1 X204.335 Y159.396 E.11719
G1 X205.887 Y158.745 E.17541
G1 X207.52 Y158.333 E.17553
G1 X208.635 Y158.196 E.11708
G1 X209.632 Y158.17 E.10395
M204 S1000
G1 X209.632 Y158.17 F10800
G1 X209.236 Y167.5
M204 S800
G1 F1200
G1 X209.972 Y166.856 E.10193
G1 X210.695 Y167.193 E.08314
G1 X210.816 Y168.475 E.13421
G1 X211.116 Y169.506 E.11191
G1 X210.638 Y169.786 E.05774
G1 X209.809 Y170.513 E.11492
G1 X209.131 Y171.383 E.11496
G1 X208.608 Y172.401 E.11928
G1 X207.895 Y172.192 E.07744
G1 X208.012 Y170.95 E.13002
G1 X207.908 Y169.851 E.11505
G1 X207.468 Y168.346 E.16342
G1 X208.284 Y168.057 E.09022
G1 X209.127 Y167.563 E.10183
M204 S1000
;WIPE_START
G1 F8640
G1 X208.284 Y168.057 E-.22561
G1 X207.468 Y168.346 E-.19988
G1 X207.908 Y169.851 E-.36206
G1 X207.995 Y170.767 E-.21245
;WIPE_END
G1 Z.5 F720
G1 X219.869 Y171.706 F10800
G1 Z.3 F720
G1 E1 F1200
M204 S800
G1 X219.837 Y167.898 E.3969
G1 X219.494 Y166.365 E.16372
G1 X218.94 Y164.931 E.16022
G1 X218.94 Y173.896 E.93436
G1 X218.012 Y175.485 E.19178
G1 X218.012 Y163.348 E1.26496
G1 X217.083 Y162.214 E.15279
G1 X217.083 Y176.621 E1.50154
G1 X216.155 Y177.511 E.13401
G1 X216.155 Y161.343 E1.68508
G1 X215.227 Y160.653 E.12052
G1 X215.227 Y184.602 E2.49604
G1 X214.298 Y184.615 E.09683
G1 X214.298 Y160.106 E2.5544
G1 X213.37 Y159.68 E.10642
G1 X213.37 Y184.402 E2.5766
G1 X213.311 Y184.384 E.00643
G1 X212.441 Y183.942 E.10171
G1 X212.441 Y159.356 E2.56243
G1 X211.513 Y159.127 E.09962
G1 X211.513 Y167.856 E.90976
G1 X211.398 Y166.645 E.12678
G1 X210.584 Y166.344 E.09045
G1 X210.584 Y158.983 E.76719
G1 X209.656 Y158.922 E.09693
G1 X209.656 Y166.133 E.75155
G1 X208.727 Y166.926 E.1273
G1 X208.727 Y158.944 E.83191
G1 X207.799 Y159.052 E.09737
G1 X207.799 Y167.83 E.91487
M204 S1000
;WIPE_START
G1 F8640
G1 X207.799 Y163.499 E-1
;WIPE_END
G1 Z.5 F720
G1 X218.012 Y183.627 F10800
G1 Z.3 F720
G1 E1 F1200
M204 S800
G1 X218.012 Y180.568 E.31882
G1 X217.083 Y180.568 E.09682
G1 X217.083 Y183.951 E.35259
G1 X216.4 Y184.192 E.07549
G1 X216.155 Y184.422 E.03502
G1 X216.155 Y178.41 E.62659
M204 S1000
G1 X216.155 Y178.41 F10800
G1 X211.513 Y183.744
M204 S800
G1 F1200
G1 X211.513 Y170.145 E1.41733
G1 X211.08 Y170.399 E.05232
G1 X210.584 Y170.834 E.06876
G1 X210.584 Y182.082 E1.1723
G1 X209.656 Y182.578 E.10967
G1 X209.656 Y172.008 E1.10164
G1 X208.994 Y173.297 E.15103
G1 X208.727 Y173.219 E.02899
G1 X208.727 Y182.941 E1.01326
G1 X207.799 Y183.109 E.09829
G1 X207.799 Y172.556 E1.09987
M204 S1000
G1 X207.799 Y172.556 F10800
M73 Q0 S254
G1 X206.87 Y184.237
M204 S800
G1 F1200
G1 X206.87 Y159.244 E2.60485
G1 X205.942 Y159.525 E.10106
G1 X205.942 Y184.341 E2.5864
G1 X205.013 Y184.652 E.1021
G1 X205.013 Y159.905 E2.57921
G1 X204.085 Y160.396 E.10942
G1 X204.085 Y184.748 E2.53804
G1 X203.156 Y184.653 E.09733
G1 X203.156 Y161.018 E2.46331
G1 X202.228 Y161.801 E.12655
G1 X202.228 Y177.032 E1.58742
G1 X201.3 Y176.027 E.14257
G1 X201.3 Y162.224 E1.43859
M204 S1000
G1 X201.3 Y162.224 F10800
G1 X202.228 Y184.618
M204 S800
G1 F1200
G1 X202.228 Y180.568 E.4221
G1 X201.3 Y180.568 E.09672
G1 X201.3 Y183.64 E.32017
G1 X200.762 Y183.055 E.08283
G1 X200.371 Y182.368 E.08239
G1 X200.371 Y180.192 E.22679
M204 S1000
;WIPE_START
G1 F8640
G1 X200.371 Y182.368 E-.50244
G1 X200.762 Y183.055 E-.18252
G1 X201.3 Y183.64 E-.18352
G1 X201.3 Y183.07 E-.13152
;WIPE_END
G1 Z.5 F720
G1 X200.371 Y175.395 F10800
G1 Z.3 F720
G1 E1 F1200
M204 S800
G1 X200.371 Y166.219 E.95635
G1 X199.443 Y166.682 E.10809
G1 X199.443 Y173.661 E.72737
M204 S1000
;WIPE_START
G1 F8640
G1 X199.443 Y169.33 E-1
;WIPE_END
G1 Z.5 F720
G1 X50.049 Y153.387 F10800
G1 Z.3 F720
G1 E1 F1200
M204 S800
G1 X50.855 Y154.093 E.11167
G1 X51.613 Y155.063 E.1283
G1 X52.278 Y154.584 E.08542
G1 X53.242 Y154.125 E.11128
G1 X53.698 Y154.003 E.0492
G1 X55.535 Y154.954 E.21559
G1 X56.88 Y155.969 E.17562
G1 X58.058 Y157.173 E.17556
G1 X58.737 Y158.068 E.11709
G1 X59.324 Y159.026 E.1171
G1 X60.018 Y160.561 E.17557
G1 X60.35 Y161.634 E.11706
G1 X60.563 Y162.678 E.11105
G1 X60.028 Y163.491 E.10143
G1 X59.301 Y164.257 E.11007
G1 X58.458 Y164.876 E.109
G1 X57.561 Y165.316 E.10413
G1 X56.727 Y165.582 E.09124
G1 X58.017 Y166.713 E.1788
G1 X58.695 Y167.583 E.11496
G1 X59.197 Y168.566 E.11504
G1 X59.474 Y169.515 E.10303
G1 X58.409 Y171.22 E.20952
G1 X57.686 Y172.079 E.11702
G1 X56.88 Y172.863 E.11719
G1 X56 Y173.561 E.11706
G1 X55.055 Y174.169 E.11711
G1 X54.054 Y174.68 E.11713
G1 X53.007 Y175.089 E.11715
G1 X51.925 Y175.39 E.11705
G1 X50.597 Y175.603 E.14018
G1 X49.52 Y174.732 E.14436
G1 X48.842 Y173.863 E.11487
G1 X48.371 Y172.944 E.10763
G1 X47.267 Y173.915 E.15323
G1 X46.316 Y174.474 E.11497
G1 X45.247 Y174.849 E.11807
G1 X43.787 Y174.136 E.16934
G1 X42.399 Y173.181 E.1756
G1 X41.168 Y172.029 E.17572
G1 X39.88 Y170.443 E.21294
G1 X38.307 Y170.989 E.17354
G1 X38.099 Y170.271 E.07791
G1 X37.997 Y169.173 E.11493
G1 X38.104 Y168.075 E.11498
G1 X38.415 Y167.016 E.11503
G1 X38.615 Y166.627 E.04559
G1 X37.87 Y166.19 E.09002
G1 X37.482 Y165.87 E.05242
G1 X36.991 Y165.422 E.06927
G1 X36.329 Y164.572 E.11229
G1 X35.827 Y163.59 E.11494
G1 X35.519 Y162.53 E.11505
G1 X35.415 Y161.432 E.11495
G1 X35.52 Y160.334 E.11496
G1 X35.83 Y159.275 E.115
G1 X36.333 Y158.293 E.11499
G1 X37.012 Y157.424 E.11494
G1 X37.842 Y156.698 E.11493
G1 X38.2 Y156.488 E.04326
G1 X38.2 Y157.805 E.13726
G1 X39.88 Y158.388 E.18534
G1 X41.168 Y156.802 E.21294
G1 X41.969 Y156.014 E.11711
G1 X42.845 Y155.309 E.11719
G1 X44.279 Y154.425 E.17557
G1 X45.829 Y153.765 E.17558
G1 X47.459 Y153.343 E.17548
G1 X49.135 Y153.171 E.1756
G1 X49.677 Y153.169 E.05649
G1 X49.941 Y153.324 E.03191
M204 S1000
G1 X49.941 Y153.324 F10800
G1 X49.102 Y163.415
M204 S800
G1 F1200
G1 X50.332 Y162.692 E.1487
G1 X50.706 Y163.377 E.08134
G1 X51.366 Y164.239 E.11315
G1 X52.405 Y165.034 E.13635
G1 X51.295 Y165.429 E.12279
G1 X50.344 Y165.987 E.11492
G1 X49.236 Y166.959 E.15362
G1 X48.76 Y166.034 E.10842
G1 X48.079 Y165.165 E.11507
G1 X46.767 Y164.021 E.18142
G1 X48.103 Y163.77 E.14168
G1 X48.984 Y163.457 E.09744
M204 S1000
;WIPE_START
G1 F8640
G1 X48.103 Y163.77 E-.21588
G1 X46.767 Y164.021 E-.31388
G1 X48.079 Y165.165 E-.40194
G1 X48.261 Y165.398 E-.0683
;WIPE_END
G1 Z.5 F720
G1 X59.244 Y163.77 F10800
G1 Z.3 F720
G1 E1 F1200
M204 S800
G1 X59.244 Y160.647 E.32549
G1 X58.903 Y159.853 E.09006
G1 X58.316 Y158.801 E.12556
G1 X58.316 Y164.047 E.54675
G1 X57.387 Y164.563 E.11076
G1 X57.387 Y157.55 E.73092
G1 X56.459 Y156.603 E.13819
G1 X56.459 Y165.272 E.90351
M204 S1000
G1 X56.459 Y165.272 F10800
G1 X58.316 Y170.706
M204 S800
G1 F1200
G1 X58.316 Y168.493 E.23065
G1 X58.058 Y167.989 E.05901
G1 X57.387 Y167.161 E.11108
G1 X57.387 Y171.282 E.4295
G1 X56.459 Y172.228 E.13811
G1 X56.459 Y165.847 E.66505
M204 S1000
G1 X56.459 Y165.847 F10800
G1 X55.53 Y173.426
M204 S800
G1 F1200
G1 X55.53 Y155.86 E1.83078
G1 X54.602 Y155.272 E.1145
G1 X54.602 Y173.56 E1.90603
G1 X53.673 Y174.024 E.10823
G1 X53.673 Y154.808 E2.00275
G1 X52.745 Y155.195 E.10479
G1 X52.745 Y164.347 E.95385
G1 X51.817 Y163.59 E.12482
G1 X51.817 Y155.843 E.80742
G1 X51.455 Y156.104 E.04651
G1 X50.888 Y155.352 E.09816
G1 X50.888 Y162.141 E.70757
G1 X50.621 Y161.651 E.05816
G1 X49.96 Y162.039 E.07988
G1 X49.96 Y154.309 E.80564
G1 X49.474 Y153.922 E.06475
G1 X49.031 Y153.929 E.04618
G1 X49.031 Y162.584 E.90205
G1 X48.103 Y162.972 E.10483
G1 X48.103 Y154.005 E.93457
M73 P0 R251
G1 X47.174 Y154.17 E.09834
G1 X47.174 Y163.18 E.93905
G1 X46.246 Y163.354 E.0984
G1 X46.246 Y154.422 E.93092
G1 X45.317 Y154.77 E.10339
G1 X45.317 Y174.032 E2.00754
G1 X46.246 Y173.643 E.10497
G1 X46.246 Y164.564 E.94624
G1 X47.174 Y165.374 E.12838
G1 X47.174 Y172.995 E.79428
G1 X48.103 Y172.179 E.12887
G1 X48.103 Y166.414 E.60085
G1 X49.031 Y168.14 E.20424
G1 X49.031 Y172.583 E.46306
G1 X49.478 Y173.456 E.10222
G1 X49.96 Y174.073 E.0816
G1 X49.96 Y167.325 E.7033
G1 X50.888 Y166.54 E.12668
G1 X50.888 Y174.811 E.86203
G1 X51.817 Y174.642 E.09841
G1 X51.817 Y166.041 E.89642
G1 X52.745 Y165.711 E.10265
G1 X52.745 Y174.775 E.94468
M204 S1000
;WIPE_START
G1 F8640
G1 X52.745 Y170.444 E-1
;WIPE_END
G1 Z.5 F720
G1 X44.389 Y174.038 F10800
G1 Z.3 F720
G1 E1 F1200
M204 S800
G1 X44.389 Y155.223 E1.96096
G1 X43.46 Y155.799 E.11392
G1 X43.46 Y173.033 E1.79618
G1 X42.532 Y172.308 E.12274
G1 X42.532 Y156.523 E1.64516
G1 X41.603 Y157.447 E.13656
G1 X41.603 Y171.384 E1.45256
G1 X40.675 Y170.237 E.15377
G1 X40.675 Y158.595 E1.21336
G1 X40.139 Y159.274 E.09016
G1 X39.746 Y159.138 E.04334
G1 X39.746 Y169.693 E1.10007
G1 X38.831 Y170.012 E.10099
G1 X38.845 Y168.218 E.18698
G1 X39.116 Y167.297 E.10006
G1 X39.609 Y166.339 E.11229
G1 X38.818 Y165.874 E.09563
G1 X38.818 Y158.816 E.73561
G1 X37.89 Y158.493 E.10241
G1 X37.89 Y165.224 E.70153
G1 X37.545 Y164.91 E.04862
G1 X36.961 Y164.156 E.0994
G1 X36.961 Y158.1 E.63117
M204 S1000
;WIPE_START
G1 F8640
G1 X36.961 Y162.431 E-1
;WIPE_END
G1 Z.5 F720
G1 X50.258 Y23.195 F10800
G1 Z.3 F720
G1 E1 F1200
M204 S800
G1 X51.374 Y23.332 E.11719
G1 X52.47 Y23.579 E.11709
G1 X53.125 Y23.786 E.07159
G1 X53.323 Y24.181 E.04605
G1 X53.756 Y24.027 E.0479
G1 X54.561 Y24.394 E.09221
G1 X55.536 Y24.954 E.11719
G1 X56.449 Y25.609 E.11711
G1 X57.292 Y26.351 E.11705
G1 X58.058 Y27.173 E.1171
G1 X58.737 Y28.068 E.11709
G1 X59.324 Y29.026 E.1171
G1 X59.813 Y30.038 E.11714
G1 X60.198 Y31.094 E.11715
G1 X60.562 Y32.672 E.16878
G1 X59.944 Y33.463 E.10462
G1 X60.305 Y33.779 E.05
G1 X60.696 Y34.281 E.06632
G1 X60.644 Y35.539 E.13122
G1 X60.476 Y36.649 E.11701
G1 X60.198 Y37.738 E.11714
G1 X59.813 Y38.793 E.11705
G1 X59.324 Y39.805 E.11714
G1 X58.409 Y41.219 E.17554
G1 X57.686 Y42.079 E.1171
G1 X56.88 Y42.863 E.11719
G1 X56 Y43.562 E.11713
G1 X55.055 Y44.169 E.11706
G1 X54.054 Y44.68 E.11713
G1 X53.007 Y45.088 E.11711
G1 X51.925 Y45.39 E.11708
G1 X50.818 Y45.582 E.1171
G1 X49.698 Y45.663 E.11703
G1 X48.574 Y45.631 E.11719
G1 X47.459 Y45.488 E.11716
G1 X46.373 Y45.236 E.11619
G1 X45.949 Y44.41 E.09677
G1 X44.932 Y44.715 E.11066
G1 X43.786 Y44.136 E.13382
G1 X42.845 Y43.522 E.11711
G1 X41.559 Y42.434 E.17556
G1 X39.88 Y40.443 E.27144
G1 X38.319 Y40.985 E.17222
G1 X38.061 Y40.101 E.09598
G1 X37.957 Y39.003 E.11495
G1 X38.061 Y37.905 E.11495
G1 X38.37 Y36.846 E.11497
G1 X38.873 Y35.864 E.11499
G1 X39.818 Y34.651 E.16026
G1 X39.336 Y34.23 E.0667
G1 X38.656 Y33.36 E.11509
G1 X38.152 Y32.377 E.11513
G1 X37.842 Y31.318 E.115
G1 X37.737 Y30.219 E.11506
G1 X37.841 Y29.12 E.11505
G1 X38.268 Y27.829 E.14172
G1 X39.88 Y28.388 E.17782
G1 X41.559 Y26.398 E.27136
G1 X42.845 Y25.309 E.17563
G1 X43.786 Y24.696 E.11705
G1 X45.301 Y23.959 E.17559
G1 X46.909 Y23.457 E.17557
G1 X48.574 Y23.2 E.17559
G1 X50.133 Y23.189 E.16249
M204 S1000
G1 X50.133 Y23.189 F10800
G1 X49.145 Y31.919
M204 S800
G1 F1200
G1 X50.144 Y31.562 E.11057
G1 X50.717 Y32.678 E.13075
G1 X51.398 Y33.547 E.11507
G1 X51.749 Y33.853 E.04853
G1 X51.129 Y34.648 E.10508
G1 X50.626 Y35.63 E.11499
G1 X50.415 Y36.352 E.0784
G1 X49.143 Y36.676 E.1368
G1 X48.726 Y35.863 E.09523
G1 X48.047 Y34.993 E.11502
G1 X47.561 Y34.567 E.06736
G1 X48.506 Y33.357 E.16001
G1 X49.108 Y32.039 E.15102
M204 S1000
;WIPE_START
G1 F8640
G1 X48.506 Y33.357 E-.33457
G1 X47.561 Y34.567 E-.3545
G1 X48.047 Y34.993 E-.14923
G1 X48.478 Y35.545 E-.1617
;WIPE_END
G1 Z.5 F720
G1 X59.244 Y39.137 F10800
G1 Z.3 F720
G1 E1 F1200
M204 S800
G1 X59.244 Y30.647 E.88485
G1 X58.904 Y29.854 E.08993
G1 X58.316 Y28.801 E.1257
G1 X58.316 Y40.031 E1.17042
